;FLAVOR:Marlin
;TIME:5323
;Filament used: 2.69975m
;Layer height: 0.2
;MINX:104.591
;MINY:76.231
;MINZ:0.2
;MAXX:127.185
;MAXY:158.769
;MAXZ:60
;Generated with Cura_SteamEngine 4.6.1
M140 S60
M105
M190 S60
M104 S200
M105
M109 S200
M82 ;absolute extrusion mode
; Ender 3 Custom Start G-code
G92 E0 ; Reset Extruder
G28 ; Home all axes
G1 Z2.0 F3000 ; Move Z Axis up little to prevent scratching of Heat Bed
G1 X0.1 Y20 Z0.3 F5000.0 ; Move to start position
G1 X0.1 Y200.0 Z0.3 F1500.0 E15 ; Draw the first line
G1 X0.4 Y200.0 Z0.3 F5000.0 ; Move to side a little
G1 X0.4 Y20 Z0.3 F1500.0 E30 ; Draw the second line
G92 E0 ; Reset Extruder
G1 Z2.0 F3000 ; Move Z Axis up little to prevent scratching of Heat Bed
G1 X5 Y20 Z0.3 F5000.0 ; Move over to prevent blob squish
G92 E0
G92 E0
G1 F1500 E-6.5
;LAYER_COUNT:300
;LAYER:0
M107
G0 F6000 X112.47 Y78.113 Z0.2
;TYPE:SKIRT
G1 F1500 E0
G1 F1200 X112.962 Y77.496 E0.02625
G1 X113.091 Y77.365 E0.03236
G1 X113.505 Y77.001 E0.0507
G1 X113.968 Y76.701 E0.06905
G1 X114.469 Y76.472 E0.08737
G1 X114.997 Y76.317 E0.10567
G1 X115.799 Y76.231 E0.1325
G1 X115.977 Y76.231 E0.13842
G1 X116.527 Y76.271 E0.15676
G1 X117.065 Y76.39 E0.17509
G1 X117.58 Y76.586 E0.19341
G1 X118.061 Y76.854 E0.21173
G1 X118.674 Y77.354 E0.23804
G1 X118.803 Y77.484 E0.24413
G1 X119.162 Y77.903 E0.26248
G1 X119.457 Y78.368 E0.2808
G1 X119.681 Y78.872 E0.29914
G1 X119.829 Y79.402 E0.31744
G1 X119.906 Y80.217 E0.34467
G1 X119.891 Y81.211 E0.37774
G1 X119.898 Y81.672 E0.39307
G1 X119.891 Y82.155 E0.40914
G1 X119.897 Y82.669 E0.42623
G1 X119.891 Y83.053 E0.43901
G1 X119.897 Y83.548 E0.45547
G1 X119.891 Y83.929 E0.46815
G1 X119.897 Y84.537 E0.48837
G1 X119.891 Y85.625 E0.52456
G1 X119.898 Y86.33 E0.54801
G1 X119.892 Y86.779 E0.56294
G1 X119.898 Y87.277 E0.57951
G1 X119.892 Y87.711 E0.59394
G1 X119.898 Y88.281 E0.6129
G1 X119.891 Y88.72 E0.6275
G1 X119.898 Y89.175 E0.64264
G1 X119.892 Y89.628 E0.65771
G1 X119.899 Y90.239 E0.67803
G1 X119.893 Y90.624 E0.69084
G1 X119.899 Y91.117 E0.70724
G1 X119.893 Y91.517 E0.72054
G1 X119.899 Y92.004 E0.73674
G1 X119.893 Y92.472 E0.75231
G1 X119.898 Y92.95 E0.76821
G1 X119.892 Y93.364 E0.78198
G1 X119.898 Y93.85 E0.79814
G1 X119.892 Y94.361 E0.81514
G1 X119.897 Y94.883 E0.8325
G1 X119.891 Y95.557 E0.85492
G1 X119.891 Y96.142 E0.87438
G1 X119.898 Y96.766 E0.89513
G1 X119.892 Y97.182 E0.90897
G1 X119.898 Y97.672 E0.92527
G1 X119.892 Y98.13 E0.94051
G1 X119.897 Y98.619 E0.95677
G1 X119.89 Y99.051 E0.97114
G1 X119.897 Y99.507 E0.98631
G1 X119.891 Y99.938 E1.00065
G1 X119.897 Y100.431 E1.01704
G1 X119.891 Y100.874 E1.03178
G1 X119.897 Y101.36 E1.04795
G1 X119.891 Y101.915 E1.06641
G1 X119.896 Y102.451 E1.08423
G1 X119.89 Y102.838 E1.09711
G1 X119.897 Y103.296 E1.11234
G1 X119.891 Y103.733 E1.12688
G1 X119.897 Y104.259 E1.14437
G1 X119.891 Y104.608 E1.15598
G1 X119.898 Y105.048 E1.17062
G1 X119.893 Y105.53 E1.18665
G1 X119.905 Y105.974 E1.20142
G1 X119.897 Y108.787 E1.29499
G1 X121.069 Y109.269 E1.33713
G1 X121.562 Y109.515 E1.35546
G1 X121.931 Y109.764 E1.37027
G1 X123.488 Y110.954 E1.43545
G1 X123.9 Y111.319 E1.45375
G1 X124.19 Y111.653 E1.46846
G1 X125.388 Y113.207 E1.53373
G1 X125.691 Y113.667 E1.55205
G1 X125.887 Y114.069 E1.56692
G1 X126.636 Y115.872 E1.63186
G1 X126.81 Y116.395 E1.65019
G1 X126.894 Y116.828 E1.66486
G1 X127.152 Y118.765 E1.72986
G1 X127.185 Y119.315 E1.74818
G1 X127.154 Y119.749 E1.76265
G1 X126.906 Y121.689 E1.8277
G1 X126.797 Y122.229 E1.84603
G1 X126.651 Y122.653 E1.86094
G1 X125.909 Y124.456 E1.92579
G1 X125.663 Y124.949 E1.94411
G1 X125.415 Y125.317 E1.95887
G1 X124.225 Y126.875 E2.02408
G1 X123.86 Y127.287 E2.04239
G1 X123.527 Y127.576 E2.05705
G1 X121.976 Y128.773 E2.12221
G1 X121.516 Y129.077 E2.14055
G1 X121.12 Y129.271 E2.15522
G1 X119.892 Y129.785 E2.1995
G1 X119.891 Y129.863 E2.20209
G1 X119.896 Y130.384 E2.21942
G1 X119.89 Y130.727 E2.23083
G1 X119.896 Y131.302 E2.24996
G1 X119.89 Y131.648 E2.26147
G1 X119.897 Y132.261 E2.28186
G1 X119.891 Y132.687 E2.29603
G1 X119.897 Y133.236 E2.31429
G1 X119.891 Y133.646 E2.32792
G1 X119.897 Y134.2 E2.34635
G1 X119.891 Y134.567 E2.35856
G1 X119.897 Y135.178 E2.37888
G1 X119.891 Y135.632 E2.39398
G1 X119.897 Y136.167 E2.41178
G1 X119.891 Y136.539 E2.42415
G1 X119.897 Y137.059 E2.44145
G1 X119.891 Y137.432 E2.45386
G1 X119.896 Y137.96 E2.47142
G1 X119.89 Y138.304 E2.48286
G1 X119.897 Y138.881 E2.50206
G1 X119.891 Y139.255 E2.5145
G1 X119.897 Y139.807 E2.53286
G1 X119.891 Y140.181 E2.5453
G1 X119.897 Y140.736 E2.56376
G1 X119.891 Y141.106 E2.57607
G1 X119.897 Y141.693 E2.59559
G1 X119.891 Y142.068 E2.60807
G1 X119.897 Y142.62 E2.62643
G1 X119.887 Y143.939 E2.6703
G1 X119.897 Y145.316 E2.7161
G1 X119.891 Y145.865 E2.73436
G1 X119.896 Y146.439 E2.75345
G1 X119.89 Y146.782 E2.76486
G1 X119.897 Y147.432 E2.78648
G1 X119.891 Y147.876 E2.80125
G1 X119.897 Y148.401 E2.81871
G1 X119.891 Y148.773 E2.83109
G1 X119.897 Y149.325 E2.84945
G1 X119.891 Y149.711 E2.86229
G1 X119.897 Y150.27 E2.88088
G1 X119.891 Y150.642 E2.89326
G1 X119.897 Y151.194 E2.91162
G1 X119.891 Y151.568 E2.92406
G1 X119.897 Y152.12 E2.94242
G1 X119.891 Y152.527 E2.95596
G1 X119.898 Y153.147 E2.97658
G1 X119.892 Y153.538 E2.98958
G1 X119.906 Y154.795 E3.0314
G1 X119.872 Y155.345 E3.04972
G1 X119.759 Y155.884 E3.06804
G1 X119.57 Y156.401 E3.08635
G1 X119.307 Y156.886 E3.1047
G1 X118.814 Y157.504 E3.13099
G1 X118.685 Y157.635 E3.13711
G1 X118.271 Y157.999 E3.15544
G1 X117.808 Y158.299 E3.17379
G1 X117.307 Y158.528 E3.19211
G1 X116.779 Y158.683 E3.21042
G1 X115.977 Y158.769 E3.23724
G1 X115.797 Y158.769 E3.24323
G1 X115.247 Y158.729 E3.26157
G1 X114.709 Y158.61 E3.2799
G1 X114.194 Y158.414 E3.29823
G1 X113.713 Y158.146 E3.31654
G1 X113.089 Y157.635 E3.34337
G1 X112.96 Y157.504 E3.34948
G1 X112.603 Y157.085 E3.36779
G1 X112.311 Y156.618 E3.38611
G1 X112.088 Y156.114 E3.40444
G1 X111.942 Y155.583 E3.42275
G1 X111.868 Y154.795 E3.44908
G1 X111.883 Y153.448 E3.49388
G1 X111.877 Y152.944 E3.51065
G1 X111.883 Y152.494 E3.52562
G1 X111.877 Y152.005 E3.54188
G1 X111.883 Y151.568 E3.55642
G1 X111.877 Y151.079 E3.57268
G1 X111.883 Y150.642 E3.58722
G1 X111.877 Y150.156 E3.60338
G1 X111.883 Y149.711 E3.61819
G1 X111.877 Y149.211 E3.63482
G1 X111.883 Y148.773 E3.64939
G1 X111.877 Y148.282 E3.66572
G1 X111.883 Y147.876 E3.67922
G1 X111.877 Y147.332 E3.69732
G1 X111.883 Y146.83 E3.71402
G1 X111.877 Y146.337 E3.73042
G1 X111.884 Y145.909 E3.74465
G1 X111.877 Y145.446 E3.76005
G1 X111.883 Y145.059 E3.77293
G1 X111.877 Y144.534 E3.79039
G1 X111.885 Y143.963 E3.80938
G1 X111.878 Y143.499 E3.82482
G1 X111.883 Y143.142 E3.83669
G1 X111.877 Y142.532 E3.85698
G1 X111.883 Y142.102 E3.87129
G1 X111.877 Y141.588 E3.88838
G1 X111.883 Y141.106 E3.90441
G1 X111.877 Y140.62 E3.92058
G1 X111.883 Y140.181 E3.93518
G1 X111.877 Y139.692 E3.95145
G1 X111.883 Y139.255 E3.96598
G1 X111.877 Y138.766 E3.98225
G1 X111.884 Y138.304 E3.99762
G1 X111.877 Y137.841 E4.01302
G1 X111.883 Y137.432 E4.02662
G1 X111.877 Y136.94 E4.04299
G1 X111.883 Y136.539 E4.05633
G1 X111.877 Y136.048 E4.07266
G1 X111.883 Y135.63 E4.08656
G1 X111.877 Y135.076 E4.10499
G1 X111.884 Y134.546 E4.12262
G1 X111.877 Y134.083 E4.13802
G1 X111.883 Y133.638 E4.15282
G1 X111.877 Y133.027 E4.17315
G1 X111.881 Y132.578 E4.18808
G1 X111.868 Y132.195 E4.20083
G1 X111.874 Y129.781 E4.28112
G1 X110.705 Y129.299 E4.32317
G1 X110.212 Y129.052 E4.34151
G1 X109.844 Y128.804 E4.35627
G1 X108.287 Y127.614 E4.42145
G1 X107.875 Y127.249 E4.43976
G1 X107.583 Y126.912 E4.45459
G1 X106.391 Y125.363 E4.5196
G1 X106.088 Y124.904 E4.53789
G1 X105.896 Y124.51 E4.55247
G1 X105.141 Y122.701 E4.61767
G1 X104.966 Y122.178 E4.63601
G1 X104.881 Y121.737 E4.65095
G1 X104.624 Y119.801 E4.71591
G1 X104.591 Y119.251 E4.73423
G1 X104.621 Y118.821 E4.74857
G1 X104.868 Y116.882 E4.81358
G1 X104.978 Y116.342 E4.83191
G1 X105.125 Y115.913 E4.84699
G1 X105.873 Y114.099 E4.91225
G1 X106.119 Y113.607 E4.93055
G1 X106.367 Y113.241 E4.94525
G1 X107.553 Y111.689 E5.01022
G1 X107.918 Y111.276 E5.02855
G1 X108.253 Y110.985 E5.04331
G1 X109.811 Y109.785 E5.10872
G1 X110.271 Y109.482 E5.12704
G1 X110.67 Y109.287 E5.14181
G1 X111.877 Y108.785 E5.18529
G1 X111.877 Y108.725 E5.18729
G1 X111.883 Y108.342 E5.20003
G1 X111.878 Y107.762 E5.21932
G1 X111.884 Y107.419 E5.23073
G1 X111.877 Y106.828 E5.25039
G1 X111.883 Y106.449 E5.26299
G1 X111.877 Y105.902 E5.28119
G1 X111.883 Y105.523 E5.29379
G1 X111.877 Y104.98 E5.31186
G1 X111.883 Y104.561 E5.32579
G1 X111.879 Y104.037 E5.34322
G1 X111.884 Y103.758 E5.3525
G1 X111.878 Y103.18 E5.37173
G1 X111.884 Y102.837 E5.38314
G1 X111.878 Y102.351 E5.3993
G1 X111.883 Y101.916 E5.41377
G1 X111.878 Y101.254 E5.43579
G1 X111.884 Y100.909 E5.44727
G1 X111.877 Y100.322 E5.46679
G1 X111.883 Y99.945 E5.47933
G1 X111.877 Y99.423 E5.4967
G1 X111.883 Y99.023 E5.51
G1 X111.877 Y98.533 E5.5263
G1 X111.883 Y98.124 E5.53991
G1 X111.877 Y97.559 E5.5587
G1 X111.883 Y97.182 E5.57124
G1 X111.878 Y96.648 E5.589
G1 X111.884 Y96.307 E5.60035
G1 X111.877 Y95.756 E5.61867
G1 X111.883 Y95.381 E5.63115
G1 X111.877 Y94.869 E5.64818
G1 X111.884 Y94.357 E5.66521
G1 X111.878 Y93.77 E5.68473
G1 X111.884 Y93.369 E5.69807
G1 X111.878 Y92.865 E5.71484
G1 X111.884 Y92.465 E5.72814
G1 X111.878 Y91.902 E5.74687
G1 X111.884 Y91.512 E5.75984
G1 X111.878 Y90.966 E5.778
G1 X111.884 Y90.564 E5.79137
G1 X111.878 Y90.065 E5.80797
G1 X111.884 Y89.624 E5.82264
G1 X111.879 Y89.031 E5.84237
G1 X111.884 Y88.754 E5.85158
G1 X111.877 Y88.219 E5.86938
G1 X111.884 Y87.705 E5.88647
G1 X111.879 Y87.099 E5.90663
G1 X111.884 Y86.822 E5.91584
G1 X111.877 Y86.279 E5.93391
G1 X111.883 Y85.883 E5.94708
G1 X111.876 Y85.25 E5.96813
G1 X111.882 Y84.872 E5.98071
G1 X111.876 Y84.33 E5.99874
G1 X111.882 Y83.929 E6.01207
G1 X111.876 Y83.432 E6.02861
G1 X111.882 Y82.968 E6.04404
G1 X111.876 Y82.359 E6.0643
G1 X111.884 Y81.438 E6.09493
G1 X111.87 Y80.204 E6.13598
G1 X111.904 Y79.654 E6.1543
G1 X112.017 Y79.114 E6.17265
G1 X112.207 Y78.597 E6.19097
G1 X112.47 Y78.113 E6.20929
G0 F6000 X112.869 Y78.235
G1 F1200 X113.247 Y77.776 E6.22907
G1 X113.376 Y77.645 E6.23519
G1 X113.769 Y77.303 E6.25251
G1 X114.21 Y77.025 E6.26985
G1 X114.688 Y76.818 E6.28718
G1 X115.192 Y76.686 E6.30451
G1 X115.799 Y76.631 E6.32478
G1 X115.977 Y76.631 E6.3307
G1 X116.497 Y76.671 E6.34804
G1 X117.004 Y76.79 E6.36537
G1 X117.487 Y76.985 E6.38269
G1 X117.935 Y77.251 E6.40002
G1 X118.39 Y77.636 E6.41984
G1 X118.519 Y77.766 E6.42593
G1 X118.857 Y78.163 E6.44328
G1 X119.13 Y78.607 E6.46061
G1 X119.332 Y79.087 E6.47793
G1 X119.458 Y79.593 E6.49528
G1 X119.506 Y80.211 E6.51589
G1 X119.492 Y81.18 E6.54812
G1 X119.498 Y81.666 E6.56429
G1 X119.491 Y82.155 E6.58056
G1 X119.497 Y82.662 E6.59742
G1 X119.491 Y83.052 E6.61039
G1 X119.497 Y83.542 E6.62669
G1 X119.491 Y83.943 E6.64003
G1 X119.497 Y84.535 E6.65972
G1 X119.491 Y85.63 E6.69614
G1 X119.498 Y86.325 E6.71926
G1 X119.492 Y86.78 E6.73439
G1 X119.498 Y87.272 E6.75076
G1 X119.492 Y87.711 E6.76536
G1 X119.498 Y88.275 E6.78412
G1 X119.492 Y88.67 E6.79726
G1 X119.498 Y89.17 E6.81389
G1 X119.492 Y89.628 E6.82913
G1 X119.499 Y90.232 E6.84922
G1 X119.493 Y90.623 E6.86222
G1 X119.499 Y91.111 E6.87846
G1 X119.493 Y91.518 E6.89199
G1 X119.499 Y91.999 E6.90799
G1 X119.493 Y92.472 E6.92373
G1 X119.498 Y92.944 E6.93943
G1 X119.492 Y93.364 E6.9534
G1 X119.498 Y93.845 E6.9694
G1 X119.492 Y94.361 E6.98656
G1 X119.497 Y94.879 E7.00379
G1 X119.491 Y95.553 E7.02621
G1 X119.491 Y96.148 E7.046
G1 X119.498 Y96.76 E7.06635
G1 X119.492 Y97.183 E7.08042
G1 X119.498 Y97.667 E7.09652
G1 X119.492 Y98.13 E7.11192
G1 X119.497 Y98.613 E7.12799
G1 X119.491 Y99.02 E7.14153
G1 X119.497 Y99.501 E7.15753
G1 X119.491 Y99.939 E7.1721
G1 X119.497 Y100.425 E7.18826
G1 X119.491 Y100.874 E7.2032
G1 X119.497 Y101.355 E7.2192
G1 X119.49 Y101.915 E7.23782
G1 X119.496 Y102.445 E7.25545
G1 X119.491 Y102.806 E7.26746
G1 X119.497 Y103.29 E7.28356
G1 X119.491 Y103.733 E7.2983
G1 X119.497 Y104.253 E7.31559
G1 X119.492 Y104.569 E7.3261
G1 X119.498 Y105.043 E7.34187
G1 X119.493 Y105.547 E7.35863
G1 X119.505 Y105.972 E7.37278
G1 X119.496 Y109.055 E7.47532
G1 X120.916 Y109.639 E7.52638
G1 X121.382 Y109.873 E7.54373
G1 X121.688 Y110.082 E7.55605
G1 X123.245 Y111.272 E7.62123
G1 X123.633 Y111.619 E7.63855
G1 X123.873 Y111.897 E7.65076
G1 X125.071 Y113.451 E7.71602
G1 X125.356 Y113.887 E7.73335
G1 X125.518 Y114.223 E7.74575
G1 X126.267 Y116.026 E7.81069
G1 X126.429 Y116.521 E7.82801
G1 X126.497 Y116.881 E7.8402
G1 X126.755 Y118.818 E7.90519
G1 X126.784 Y119.338 E7.92251
G1 X126.758 Y119.698 E7.93452
G1 X126.51 Y121.638 E7.99957
G1 X126.404 Y122.148 E8.01689
G1 X126.281 Y122.501 E8.02933
G1 X125.539 Y124.304 E8.09418
G1 X125.304 Y124.769 E8.1115
G1 X125.097 Y125.074 E8.12376
G1 X123.907 Y126.632 E8.18897
G1 X123.56 Y127.02 E8.20628
G1 X123.282 Y127.26 E8.2185
G1 X121.731 Y128.457 E8.28366
G1 X121.296 Y128.742 E8.30096
G1 X120.966 Y128.902 E8.31316
G1 X119.496 Y129.517 E8.36615
G1 X119.491 Y129.863 E8.37766
G1 X119.497 Y130.377 E8.39476
G1 X119.491 Y130.753 E8.40727
G1 X119.497 Y131.295 E8.4253
G1 X119.491 Y131.67 E8.43777
G1 X119.497 Y132.255 E8.45723
G1 X119.491 Y132.699 E8.472
G1 X119.497 Y133.23 E8.48966
G1 X119.491 Y133.646 E8.5035
G1 X119.497 Y134.194 E8.52172
G1 X119.491 Y134.575 E8.5344
G1 X119.497 Y135.173 E8.55429
G1 X119.491 Y135.633 E8.56959
G1 X119.497 Y136.161 E8.58715
G1 X119.491 Y136.539 E8.59973
G1 X119.497 Y137.053 E8.61682
G1 X119.491 Y137.432 E8.62943
G1 X119.497 Y137.953 E8.64676
G1 X119.491 Y138.329 E8.65927
G1 X119.497 Y138.875 E8.67743
G1 X119.491 Y139.255 E8.69007
G1 X119.497 Y139.801 E8.70823
G1 X119.491 Y140.181 E8.72087
G1 X119.497 Y140.729 E8.7391
G1 X119.491 Y141.106 E8.75164
G1 X119.497 Y141.687 E8.77096
G1 X119.491 Y142.068 E8.78364
G1 X119.497 Y142.617 E8.8019
G1 X119.487 Y143.936 E8.84577
G1 X119.49 Y144.792 E8.87424
G1 X119.497 Y145.312 E8.89154
G1 X119.491 Y145.867 E8.91
G1 X119.497 Y146.432 E8.92879
G1 X119.491 Y146.807 E8.94127
G1 X119.497 Y147.426 E8.96185
G1 X119.491 Y147.876 E8.97682
G1 X119.497 Y148.395 E8.99409
G1 X119.491 Y148.773 E9.00666
G1 X119.497 Y149.318 E9.02479
G1 X119.491 Y149.711 E9.03786
G1 X119.497 Y150.264 E9.05625
G1 X119.491 Y150.642 E9.06883
G1 X119.497 Y151.188 E9.08699
G1 X119.491 Y151.568 E9.09963
G1 X119.497 Y152.114 E9.11779
G1 X119.491 Y152.527 E9.13153
G1 X119.498 Y153.141 E9.15195
G1 X119.492 Y153.536 E9.16509
G1 X119.506 Y154.799 E9.2071
G1 X119.472 Y155.319 E9.22443
G1 X119.359 Y155.828 E9.24178
G1 X119.169 Y156.314 E9.25913
G1 X118.908 Y156.764 E9.27643
G1 X118.529 Y157.224 E9.29626
G1 X118.4 Y157.355 E9.30237
G1 X118.007 Y157.697 E9.3197
G1 X117.566 Y157.975 E9.33704
G1 X117.088 Y158.182 E9.35436
G1 X116.584 Y158.314 E9.37169
G1 X115.977 Y158.369 E9.39196
G1 X115.797 Y158.369 E9.39795
G1 X115.277 Y158.329 E9.4153
G1 X114.77 Y158.21 E9.43262
G1 X114.287 Y158.015 E9.44994
G1 X113.839 Y157.749 E9.46727
G1 X113.374 Y157.355 E9.48754
G1 X113.245 Y157.224 E9.49366
G1 X112.909 Y156.825 E9.51101
G1 X112.638 Y156.38 E9.52834
G1 X112.438 Y155.899 E9.54566
G1 X112.314 Y155.393 E9.56299
G1 X112.268 Y154.799 E9.58281
G1 X112.283 Y153.446 E9.62781
G1 X112.277 Y152.95 E9.64431
G1 X112.283 Y152.494 E9.65948
G1 X112.277 Y152.011 E9.67554
G1 X112.283 Y151.568 E9.69028
G1 X112.277 Y151.085 E9.70634
G1 X112.283 Y150.642 E9.72108
G1 X112.277 Y150.161 E9.73708
G1 X112.283 Y149.711 E9.75205
G1 X112.277 Y149.217 E9.76848
G1 X112.283 Y148.773 E9.78325
G1 X112.277 Y148.288 E9.79938
G1 X112.283 Y147.877 E9.81305
G1 X112.277 Y147.337 E9.83101
G1 X112.283 Y146.83 E9.84788
G1 X112.277 Y146.343 E9.86408
G1 X112.283 Y145.937 E9.87758
G1 X112.277 Y145.452 E9.89371
G1 X112.283 Y145.059 E9.90679
G1 X112.277 Y144.54 E9.92405
G1 X112.284 Y143.986 E9.94248
G1 X112.278 Y143.505 E9.95848
G1 X112.283 Y143.143 E9.97052
G1 X112.277 Y142.538 E9.99064
G1 X112.283 Y142.102 E10.00514
G1 X112.277 Y141.593 E10.02207
G1 X112.283 Y141.106 E10.03827
G1 X112.277 Y140.626 E10.05424
G1 X112.283 Y140.181 E10.06904
G1 X112.277 Y139.698 E10.08511
G1 X112.283 Y139.255 E10.09984
G1 X112.277 Y138.772 E10.11591
