;FLAVOR:Marlin
;TIME:3589
;Filament used: 2.99296m
;Layer height: 0.3
;MINX:61.85
;MINY:97.966
;MINZ:0.2
;MAXX:172.181
;MAXY:137.364
;MAXZ:19.4
;Generated with Cura_SteamEngine 4.6.1
M140 S60
M105
M190 S60
M104 S200
M105
M109 S200
M82 ;absolute extrusion mode
; Ender 3 Custom Start G-code
G92 E0 ; Reset Extruder
G28 ; Home all axes
G1 Z2.0 F3000 ; Move Z Axis up little to prevent scratching of Heat Bed
G1 X0.1 Y20 Z0.3 F5000.0 ; Move to start position
G1 X0.1 Y200.0 Z0.3 F1500.0 E15 ; Draw the first line
G1 X0.4 Y200.0 Z0.3 F5000.0 ; Move to side a little
G1 X0.4 Y20 Z0.3 F1500.0 E30 ; Draw the second line
G92 E0 ; Reset Extruder
G1 Z2.0 F3000 ; Move Z Axis up little to prevent scratching of Heat Bed
G1 X5 Y20 Z0.3 F5000.0 ; Move over to prevent blob squish
G92 E0
G92 E0
G1 F1500 E-6.5
;LAYER_COUNT:65
;LAYER:0
M107
G0 F6000 X78.793 Y132.013 Z0.2
;TYPE:SKIRT
G1 F1500 E0
G1 F1200 X77.101 Y132.05 E0.05629
G1 X73.533 Y132.048 E0.17496
G1 X72.869 Y132.039 E0.19705
G1 X71.967 Y131.987 E0.2271
G1 X71.074 Y131.855 E0.25712
G1 X70.195 Y131.645 E0.28718
G1 X69.339 Y131.358 E0.31721
G1 X68.512 Y130.996 E0.34724
G1 X67.719 Y130.562 E0.3773
G1 X66.969 Y130.061 E0.4073
G1 X66.08 Y129.327 E0.44565
G1 X65.933 Y129.191 E0.45231
G1 X65.298 Y128.549 E0.48234
G1 X64.722 Y127.853 E0.51239
G1 X64.21 Y127.109 E0.54243
G1 X63.766 Y126.323 E0.57245
G1 X63.393 Y125.501 E0.60248
G1 X63.094 Y124.648 E0.63254
G1 X62.872 Y123.773 E0.66256
G1 X62.728 Y122.881 E0.69262
G1 X62.661 Y121.873 E0.72622
G1 X62.65 Y121.102 E0.75186
G1 X62.651 Y114.396 E0.9749
G1 X62.661 Y113.725 E0.99722
G1 X62.715 Y112.823 E1.02728
G1 X62.848 Y111.93 E1.05731
G1 X63.059 Y111.052 E1.08734
G1 X63.347 Y110.196 E1.11738
G1 X63.71 Y109.369 E1.14742
G1 X64.145 Y108.578 E1.17744
G1 X64.648 Y107.828 E1.20748
G1 X65.215 Y107.125 E1.23752
G1 X65.634 Y106.676 E1.25795
G1 X66.29 Y106.055 E1.28799
G1 X66.997 Y105.494 E1.31801
G1 X67.752 Y104.998 E1.34805
G1 X68.548 Y104.571 E1.3781
G1 X69.378 Y104.215 E1.40814
G1 X70.236 Y103.935 E1.43815
G1 X71.116 Y103.731 E1.4682
G1 X72.011 Y103.606 E1.49826
G1 X72.789 Y103.563 E1.52417
G1 X73.529 Y103.551 E1.54879
G1 X77.446 Y103.552 E1.67907
G1 X78.444 Y103.57 E1.71227
G1 X79.562 Y103.619 E1.74949
G1 X80.29 Y103.66 E1.77374
G1 X82.866 Y103.734 E1.85945
G1 X84.185 Y103.743 E1.90332
G1 X96.702 Y103.743 E2.31964
G1 X99.308 Y103.706 E2.40632
G1 X101.876 Y103.597 E2.49181
G1 X104.343 Y103.422 E2.57407
G1 X107.796 Y103.065 E2.68953
G1 X110.307 Y102.76 E2.77366
G1 X112.917 Y102.39 E2.86134
G1 X115.423 Y101.964 E2.94588
G1 X117.887 Y101.473 E3.02945
G1 X120.4 Y100.898 E3.11519
G1 X122.855 Y100.262 E3.19954
G1 X124.962 Y99.658 E3.27244
G1 X126.158 Y99.392 E3.31319
G1 X127.411 Y99.191 E3.3554
G1 X128.801 Y98.976 E3.40218
G1 X129.601 Y98.884 E3.42897
G1 X130.438 Y98.823 E3.45688
G1 X131.016 Y98.792 E3.47613
G1 X131.617 Y98.766 E3.49614
G1 X132.801 Y98.783 E3.53552
G1 X134.591 Y98.914 E3.59522
G1 X136.086 Y99.012 E3.64505
G1 X138.68 Y99.124 E3.73141
G1 X141.213 Y99.162 E3.81566
G1 X143.747 Y99.128 E3.89995
G1 X146.292 Y99.022 E3.98467
G1 X147.692 Y98.933 E4.03133
G1 X149.821 Y98.791 E4.1023
G1 X150.43 Y98.765 E4.12257
G1 X151.618 Y98.784 E4.16209
G1 X152.597 Y98.861 E4.19475
G1 X152.995 Y98.903 E4.20806
G1 X153.888 Y99.038 E4.2381
G1 X154.544 Y99.189 E4.26049
G1 X155.255 Y99.38 E4.28498
G1 X156.005 Y99.599 E4.31096
G1 X156.637 Y99.793 E4.33295
G1 X157.488 Y100.096 E4.363
G1 X158.171 Y100.403 E4.3879
G1 X158.381 Y100.507 E4.3957
G1 X159.171 Y100.944 E4.42573
G1 X160.043 Y101.54 E4.46086
G1 X161.074 Y102.327 E4.504
G1 X161.446 Y102.624 E4.51983
G1 X164.51 Y104.96 E4.64798
G1 X165.051 Y105.354 E4.67024
G1 X165.757 Y105.918 E4.70029
G1 X166.165 Y106.295 E4.71877
G1 X166.745 Y106.861 E4.74572
G1 X167.392 Y107.508 E4.77615
G1 X167.827 Y107.97 E4.79726
G1 X168.218 Y108.413 E4.81691
G1 X168.933 Y109.322 E4.85538
G1 X169.174 Y109.667 E4.86938
G1 X169.658 Y110.429 E4.8994
G1 X170.072 Y111.232 E4.92945
G1 X170.307 Y111.781 E4.94931
G1 X170.444 Y112.13 E4.96178
G1 X170.736 Y112.984 E4.9918
G1 X170.952 Y113.861 E5.02184
G1 X171.046 Y114.41 E5.04037
G1 X171.16 Y115.218 E5.06751
G1 X171.313 Y116.461 E5.10916
G1 X171.383 Y117.361 E5.13919
G1 X171.374 Y118.264 E5.16922
G1 X171.304 Y119.02 E5.19447
G1 X171.077 Y120.769 E5.25313
G1 X170.921 Y121.658 E5.28315
G1 X170.688 Y122.531 E5.31321
G1 X170.508 Y123.051 E5.33151
G1 X170.389 Y123.367 E5.34274
G1 X170.033 Y124.197 E5.37278
G1 X169.387 Y125.343 E5.41653
G1 X169.149 Y125.708 E5.43102
G1 X168.777 Y126.241 E5.45264
G1 X168.656 Y126.403 E5.45937
G1 X168.181 Y126.992 E5.48453
G1 X167.961 Y127.245 E5.49569
G1 X167.58 Y127.66 E5.51442
G1 X167.157 Y128.09 E5.53449
G1 X166.201 Y129.025 E5.57896
G1 X165.528 Y129.627 E5.60899
G1 X165.102 Y129.957 E5.62692
G1 X164.032 Y130.742 E5.67106
G1 X161.867 Y132.373 E5.76121
G1 X160.281 Y133.629 E5.8285
G1 X159.549 Y134.157 E5.85852
G1 X158.93 Y134.533 E5.88261
G1 X158.678 Y134.674 E5.89221
G1 X158.27 Y134.89 E5.90757
G1 X157.632 Y135.21 E5.93131
G1 X156.808 Y135.579 E5.96133
G1 X155.954 Y135.874 E5.99139
G1 X154.892 Y136.127 E6.0277
G1 X154.065 Y136.274 E6.05563
G1 X153.208 Y136.403 E6.08446
G1 X152.977 Y136.432 E6.0922
G1 X152.541 Y136.477 E6.10678
G1 X151.786 Y136.539 E6.13198
G1 X150.55 Y136.565 E6.17309
G1 X149.296 Y136.511 E6.21484
G1 X147.093 Y136.356 E6.2883
G1 X144.863 Y136.219 E6.36261
G1 X142.333 Y136.132 E6.4468
G1 X139.769 Y136.117 E6.53208
G1 X137.266 Y136.173 E6.61535
G1 X134.675 Y136.305 E6.70164
G1 X133.043 Y136.429 E6.75608
G1 X131.998 Y136.455 E6.79085
G1 X130.564 Y136.414 E6.83856
G1 X129.158 Y136.339 E6.88539
G1 X128.452 Y136.292 E6.90893
G1 X127.611 Y136.201 E6.93706
G1 X126.857 Y136.078 E6.96247
G1 X126.269 Y135.954 E6.98246
G1 X124.271 Y135.472 E7.05082
G1 X123.288 Y135.215 E7.08461
G1 X120.707 Y134.579 E7.17302
G1 X118.205 Y134.036 E7.25818
G1 X115.769 Y133.581 E7.3406
G1 X113.222 Y133.178 E7.42637
G1 X110.695 Y132.851 E7.51112
G1 X108.371 Y132.602 E7.58886
G1 X105.69 Y132.298 E7.6786
G1 X103.192 Y132.085 E7.76198
G1 X100.629 Y131.94 E7.84737
G1 X98.07 Y131.867 E7.93251
G1 X96.754 Y131.858 E7.97628
G1 X84.137 Y131.858 E8.39593
G1 X81.527 Y131.895 E8.48275
G1 X78.793 Y132.013 E8.57376
G0 F6000 X78.802 Y132.413
G1 F1200 X77.101 Y132.45 E8.63035
G1 X73.527 Y132.448 E8.74922
G1 X72.863 Y132.439 E8.77131
G1 X71.944 Y132.387 E8.80193
G1 X71.033 Y132.255 E8.83254
G1 X70.137 Y132.044 E8.86316
G1 X69.262 Y131.756 E8.8938
G1 X68.416 Y131.394 E8.9244
G1 X67.604 Y130.96 E8.95503
G1 X66.833 Y130.456 E8.98566
G1 X65.808 Y129.621 E9.02963
G1 X65.661 Y129.485 E9.03629
G1 X65.013 Y128.831 E9.06692
G1 X64.425 Y128.123 E9.09753
G1 X63.899 Y127.367 E9.12816
G1 X63.442 Y126.568 E9.15877
G1 X63.055 Y125.732 E9.18941
G1 X62.743 Y124.866 E9.22003
G1 X62.506 Y123.977 E9.25063
G1 X62.348 Y123.07 E9.28125
G1 X62.261 Y121.88 E9.32094
G1 X62.25 Y121.102 E9.34681
G1 X62.251 Y114.39 E9.57006
G1 X62.261 Y113.719 E9.59238
G1 X62.315 Y112.8 E9.623
G1 X62.448 Y111.889 E9.65362
G1 X62.66 Y110.993 E9.68424
G1 X62.949 Y110.119 E9.71486
G1 X63.312 Y109.273 E9.74548
G1 X63.748 Y108.462 E9.7761
G1 X64.252 Y107.692 E9.80671
G1 X64.821 Y106.968 E9.83734
G1 X65.346 Y106.398 E9.86311
G1 X66.014 Y105.764 E9.89374
G1 X66.734 Y105.191 E9.92435
G1 X67.501 Y104.682 E9.95497
G1 X68.31 Y104.241 E9.98561
G1 X69.153 Y103.873 E10.0162
G1 X70.026 Y103.579 E10.04684
G1 X70.92 Y103.361 E10.07745
G1 X71.831 Y103.223 E10.10809
G1 X72.782 Y103.163 E10.13979
G1 X73.529 Y103.151 E10.16464
G1 X77.452 Y103.152 E10.29512
G1 X78.461 Y103.171 E10.32868
G1 X79.584 Y103.22 E10.36607
G1 X80.286 Y103.259 E10.38945
G1 X82.881 Y103.334 E10.4758
G1 X84.188 Y103.343 E10.51927
G1 X96.696 Y103.343 E10.93529
G1 X99.321 Y103.306 E11.02261
G1 X101.829 Y103.199 E11.1061
G1 X104.307 Y103.024 E11.18872
G1 X107.708 Y102.672 E11.30244
G1 X110.303 Y102.356 E11.38939
G1 X112.866 Y101.994 E11.47548
G1 X115.349 Y101.572 E11.55925
G1 X117.791 Y101.084 E11.64208
G1 X120.283 Y100.514 E11.7271
G1 X122.76 Y99.873 E11.8122
G1 X124.852 Y99.273 E11.88459
G1 X126.095 Y98.997 E11.92694
G1 X127.35 Y98.796 E11.96921
G1 X128.74 Y98.581 E12.01599
G1 X129.572 Y98.485 E12.04385
G1 X130.416 Y98.424 E12.07199
G1 X130.999 Y98.392 E12.09141
G1 X131.6 Y98.366 E12.11142
G1 X132.83 Y98.384 E12.15234
G1 X134.648 Y98.517 E12.21296
G1 X136.129 Y98.614 E12.26233
G1 X138.668 Y98.724 E12.34685
G1 X141.214 Y98.762 E12.43154
G1 X143.724 Y98.728 E12.51503
G1 X146.298 Y98.621 E12.60072
G1 X147.667 Y98.534 E12.64635
G1 X149.804 Y98.392 E12.71758
G1 X150.413 Y98.366 E12.73785
G1 X151.647 Y98.385 E12.7789
G1 X152.309 Y98.434 E12.80098
G1 X152.639 Y98.464 E12.812
G1 X153.037 Y98.506 E12.82531
G1 X153.948 Y98.642 E12.85595
G1 X154.647 Y98.802 E12.8798
G1 X155.366 Y98.996 E12.90457
G1 X156.123 Y99.217 E12.9308
G1 X156.755 Y99.411 E12.95278
G1 X157.622 Y99.719 E12.98339
G1 X158.348 Y100.045 E13.00986
G1 X158.558 Y100.149 E13.01765
G1 X159.365 Y100.593 E13.04828
G1 X160.286 Y101.222 E13.08538
G1 X161.317 Y102.009 E13.12852
G1 X161.675 Y102.295 E13.14376
G1 X164.756 Y104.644 E13.27262
G1 X165.287 Y105.031 E13.29447
G1 X166.007 Y105.605 E13.3251
G1 X166.444 Y106.009 E13.34489
G1 X167.116 Y106.666 E13.37615
G1 X167.675 Y107.225 E13.40245
G1 X168.127 Y107.706 E13.4244
G1 X168.518 Y108.149 E13.44405
G1 X169.261 Y109.093 E13.48401
G1 X169.502 Y109.438 E13.49801
G1 X169.996 Y110.215 E13.52863
G1 X170.42 Y111.032 E13.55924
G1 X170.679 Y111.635 E13.58107
G1 X170.816 Y111.984 E13.59354
G1 X171.115 Y112.854 E13.62414
G1 X171.337 Y113.748 E13.65478
G1 X171.442 Y114.353 E13.6752
G1 X171.557 Y115.169 E13.70261
G1 X171.71 Y116.412 E13.74426
G1 X171.782 Y117.33 E13.77489
G1 X171.775 Y118.25 E13.80549
G1 X171.701 Y119.071 E13.83291
G1 X171.474 Y120.82 E13.89157
G1 X171.316 Y121.727 E13.92219
G1 X171.08 Y122.617 E13.95281
G1 X170.882 Y123.192 E13.97304
G1 X170.763 Y123.508 E13.98427
G1 X170.401 Y124.354 E14.01488
G1 X169.968 Y125.166 E14.04548
G1 X169.722 Y125.562 E14.06099
G1 X169.484 Y125.927 E14.07548
G1 X169.098 Y126.48 E14.09791
G1 X168.977 Y126.642 E14.10464
G1 X168.483 Y127.254 E14.1308
G1 X168.263 Y127.507 E14.14195
G1 X167.867 Y127.938 E14.16141
G1 X167.437 Y128.376 E14.18183
G1 X166.481 Y129.311 E14.22631
G1 X165.795 Y129.926 E14.25695
G1 X165.339 Y130.28 E14.27615
G1 X164.221 Y131.1 E14.32226
G1 X162.096 Y132.701 E14.41076
G1 X160.529 Y133.942 E14.47724
G1 X159.783 Y134.482 E14.50787
G1 X159.125 Y134.882 E14.53348
G1 X158.873 Y135.023 E14.54309
G1 X158.449 Y135.248 E14.55905
G1 X157.811 Y135.568 E14.58279
G1 X156.971 Y135.945 E14.61341
G1 X156.102 Y136.247 E14.64401
G1 X154.963 Y136.521 E14.68298
G1 X154.126 Y136.669 E14.71125
G1 X153.257 Y136.799 E14.74047
G1 X153.026 Y136.828 E14.74822
G1 X152.574 Y136.875 E14.76333
G1 X151.819 Y136.937 E14.78853
G1 X150.534 Y136.965 E14.83128
G1 X149.594 Y136.928 E14.86256
G1 X149.268 Y136.91 E14.87342
G1 X147.044 Y136.754 E14.94758
G1 X144.859 Y136.619 E15.02039
G1 X142.317 Y136.532 E15.10498
G1 X139.776 Y136.517 E15.1895
G1 X137.259 Y136.574 E15.27324
G1 X134.728 Y136.702 E15.35753
G1 X133.074 Y136.828 E15.4127
G1 X131.987 Y136.855 E15.44886
G1 X130.543 Y136.814 E15.49691
G1 X129.132 Y136.739 E15.54391
G1 X128.426 Y136.692 E15.56744
G1 X127.552 Y136.597 E15.59668
G1 X126.786 Y136.471 E15.6225
G1 X126.175 Y136.343 E15.64326
G1 X124.17 Y135.859 E15.71186
G1 X123.155 Y135.594 E15.74676
G1 X120.64 Y134.974 E15.83291
G1 X118.145 Y134.432 E15.91783
G1 X115.67 Y133.97 E16.00157
G1 X113.18 Y133.576 E16.08542
G1 X110.645 Y133.249 E16.17043
G1 X108.326 Y132.999 E16.24801
G1 X105.682 Y132.699 E16.33651
G1 X103.136 Y132.482 E16.4215
G1 X100.629 Y132.34 E16.50502
G1 X98.057 Y132.267 E16.5906
G1 X96.751 Y132.258 E16.63403
G1 X84.143 Y132.258 E17.05338
G1 X81.55 Y132.295 E17.13963
G1 X78.802 Y132.413 E17.23111
G0 F6000 X78.812 Y132.813
G1 F1200 X77.101 Y132.85 E17.28803
G1 X73.522 Y132.848 E17.40707
G1 X72.858 Y132.839 E17.42916
G1 X71.922 Y132.786 E17.46034
G1 X70.993 Y132.654 E17.49155
G1 X70.079 Y132.443 E17.52275
G1 X69.187 Y132.155 E17.55392
G1 X68.322 Y131.792 E17.58513
G1 X67.491 Y131.357 E17.61632
G1 X66.7 Y130.853 E17.64752
G1 X65.956 Y130.283 E17.67869
G1 X65.39 Y129.778 E17.70392
G1 X64.729 Y129.113 E17.73511
G1 X64.128 Y128.393 E17.7663
G1 X63.59 Y127.625 E17.79749
G1 X63.119 Y126.814 E17.82868
G1 X62.719 Y125.965 E17.8599
G1 X62.393 Y125.086 E17.89108
G1 X62.143 Y124.182 E17.92227
G1 X61.971 Y123.26 E17.95347
G1 X61.862 Y121.887 E17.99928
G1 X61.85 Y121.102 E18.02539
G1 X61.851 Y114.384 E18.24883
G1 X61.861 Y113.713 E18.27115
G1 X61.915 Y112.777 E18.30233
G1 X62.049 Y111.848 E18.33355
G1 X62.261 Y110.935 E18.36473
G1 X62.55 Y110.043 E18.39591
G1 X62.914 Y109.178 E18.42713
G1 X63.35 Y108.348 E18.45831
G1 X63.856 Y107.558 E18.48951
G1 X64.427 Y106.814 E18.52071
G1 X64.947 Y106.236 E18.54657
G1 X65.059 Y106.12 E18.55193
G1 X65.738 Y105.474 E18.5831
G1 X66.47 Y104.888 E18.61429
G1 X67.25 Y104.366 E18.6455
G1 X68.071 Y103.913 E18.67669
G1 X68.928 Y103.531 E18.7079
G1 X69.814 Y103.224 E18.73909
G1 X70.723 Y102.993 E18.77028
G1 X71.648 Y102.841 E18.80146
G1 X72.775 Y102.763 E18.83903
G1 X73.529 Y102.751 E18.86411
G1 X77.458 Y102.752 E18.99479
G1 X78.479 Y102.771 E19.02876
G1 X79.607 Y102.82 E19.06631
G1 X80.358 Y102.862 E19.09133
G1 X82.848 Y102.934 E19.17418
G1 X84.191 Y102.943 E19.21885
G1 X96.69 Y102.943 E19.63457
G1 X99.298 Y102.906 E19.72132
G1 X101.82 Y102.799 E19.80528
G1 X104.265 Y102.626 E19.8868
G1 X107.674 Y102.273 E20.00079
G1 X110.254 Y101.959 E20.08724
G1 X112.814 Y101.597 E20.17323
G1 X115.269 Y101.18 E20.25605
G1 X117.702 Y100.694 E20.33857
G1 X120.199 Y100.123 E20.42377
G1 X122.654 Y99.487 E20.50812
G1 X124.741 Y98.889 E20.58032
G1 X126.031 Y98.602 E20.62428
G1 X127.289 Y98.4 E20.66665
G1 X128.679 Y98.185 E20.71344
G1 X129.542 Y98.086 E20.74233
G1 X130.393 Y98.025 E20.7707
G1 X130.982 Y97.992 E20.79033
G1 X131.583 Y97.966 E20.81033
G1 X132.859 Y97.985 E20.85278
G1 X134.694 Y98.119 E20.91397
G1 X136.128 Y98.214 E20.96177
G1 X138.69 Y98.324 E21.04706
G1 X141.214 Y98.362 E21.13102
G1 X143.737 Y98.328 E21.21494
G1 X146.257 Y98.223 E21.29883
G1 X147.642 Y98.135 E21.34499
G1 X149.787 Y97.992 E21.41649
G1 X150.396 Y97.966 E21.43677
G1 X151.677 Y97.986 E21.47938
G1 X152.339 Y98.035 E21.50146
G1 X152.681 Y98.066 E21.51288
G1 X153.079 Y98.108 E21.52619
G1 X154.007 Y98.246 E21.55739
G1 X154.75 Y98.416 E21.58274
G1 X155.478 Y98.612 E21.60782
G1 X156.24 Y98.834 E21.63422
G1 X156.872 Y99.028 E21.65621
G1 X157.756 Y99.341 E21.6874
G1 X158.526 Y99.687 E21.71547
G1 X158.736 Y99.791 E21.72327
G1 X159.558 Y100.242 E21.75445
G1 X160.528 Y100.904 E21.79351
G1 X161.559 Y101.691 E21.83665
G1 X161.949 Y102.002 E21.85324
G1 X164.949 Y104.288 E21.97869
G1 X165.523 Y104.707 E22.00233
G1 X166.256 Y105.292 E22.03352
G1 X166.724 Y105.722 E22.05466
G1 X167.304 Y106.288 E22.08161
G1 X167.958 Y106.942 E22.11237
G1 X168.427 Y107.441 E22.13515
G1 X168.818 Y107.884 E22.1548
G1 X169.589 Y108.864 E22.19628
G1 X169.83 Y109.209 E22.21027
G1 X170.334 Y110 E22.24147
G1 X170.768 Y110.831 E22.27265
G1 X171.051 Y111.489 E22.29647
G1 X171.188 Y111.838 E22.30894
G1 X171.494 Y112.724 E22.34012
G1 X171.722 Y113.634 E22.37132
G1 X171.838 Y114.296 E22.39368
G1 X171.954 Y115.12 E22.42135
G1 X172.107 Y116.363 E22.46301
G1 X172.181 Y117.298 E22.4942
G1 X172.176 Y118.236 E22.5254
G1 X172.098 Y119.123 E22.55502
G1 X171.871 Y120.872 E22.61368
G1 X171.71 Y121.796 E22.64487
G1 X171.472 Y122.703 E22.67606
G1 X171.256 Y123.333 E22.69821
G1 X171.137 Y123.649 E22.70944
G1 X170.77 Y124.511 E22.7406
G1 X170.33 Y125.34 E22.77182
G1 X170.057 Y125.78 E22.78904
