;FLAVOR:Marlin
;TIME:3331
;Filament used: 1.51333m
;Layer height: 0.2
;MINX:106.11
;MINY:106.18
;MINZ:0.2
;MAXX:128.692
;MAXY:128.762
;MAXZ:85.8
;Generated with Cura_SteamEngine 4.6.1
M140 S60
M105
M190 S60
M104 S200
M105
M109 S200
M82 ;absolute extrusion mode
; Ender 3 Custom Start G-code
G92 E0 ; Reset Extruder
G28 ; Home all axes
G1 Z2.0 F3000 ; Move Z Axis up little to prevent scratching of Heat Bed
G1 X0.1 Y20 Z0.3 F5000.0 ; Move to start position
G1 X0.1 Y200.0 Z0.3 F1500.0 E15 ; Draw the first line
G1 X0.4 Y200.0 Z0.3 F5000.0 ; Move to side a little
G1 X0.4 Y20 Z0.3 F1500.0 E30 ; Draw the second line
G92 E0 ; Reset Extruder
G1 Z2.0 F3000 ; Move Z Axis up little to prevent scratching of Heat Bed
G1 X5 Y20 Z0.3 F5000.0 ; Move over to prevent blob squish
G92 E0
G92 E0
G1 F1500 E-6.5
;LAYER_COUNT:429
;LAYER:0
M107
G0 F6000 X109.792 Y109.161 Z0.2
;TYPE:SKIRT
G1 F1500 E0
G1 F1200 X110.374 Y108.628 E0.02625
G1 X111.008 Y108.156 E0.05254
G1 X111.805 Y107.689 E0.08326
G1 X112.782 Y107.192 E0.11972
G1 X113.504 Y106.87 E0.14601
G1 X114.253 Y106.622 E0.17225
G1 X115.093 Y106.441 E0.20083
G1 X116.174 Y106.269 E0.23724
G1 X116.959 Y106.184 E0.2635
G1 X117.749 Y106.18 E0.28978
G1 X118.622 Y106.268 E0.31896
G1 X119.681 Y106.436 E0.35462
G1 X120.454 Y106.599 E0.3809
G1 X121.206 Y106.84 E0.40717
G1 X121.95 Y107.165 E0.43417
G1 X122.929 Y107.655 E0.47058
G1 X123.616 Y108.044 E0.49684
G1 X124.261 Y108.5 E0.52311
G1 X124.922 Y109.083 E0.55243
G1 X125.715 Y109.867 E0.58952
G1 X126.248 Y110.45 E0.61579
G1 X126.719 Y111.084 E0.64206
G1 X127.182 Y111.875 E0.67254
G1 X127.679 Y112.851 E0.70897
G1 X128.001 Y113.571 E0.7352
G1 X128.249 Y114.321 E0.76148
G1 X128.431 Y115.165 E0.79019
G1 X128.603 Y116.247 E0.82663
G1 X128.688 Y117.033 E0.85293
G1 X128.692 Y117.822 E0.87917
G1 X128.603 Y118.697 E0.90842
G1 X128.431 Y119.779 E0.94486
G1 X128.268 Y120.551 E0.97111
G1 X128.027 Y121.303 E0.99737
G1 X127.679 Y122.093 E1.02608
G1 X127.182 Y123.069 E1.06251
G1 X126.788 Y123.754 E1.08879
G1 X126.327 Y124.395 E1.11505
G1 X125.75 Y125.042 E1.14389
G1 X124.994 Y125.799 E1.17947
G1 X124.408 Y126.329 E1.20575
G1 X123.772 Y126.796 E1.23199
G1 X123.06 Y127.214 E1.25946
G1 X122.088 Y127.717 E1.29586
G1 X121.369 Y128.044 E1.32213
G1 X120.621 Y128.297 E1.34839
G1 X119.771 Y128.486 E1.37735
G1 X118.691 Y128.664 E1.41376
G1 X117.907 Y128.753 E1.44
G1 X117.117 Y128.762 E1.46628
G1 X116.25 Y128.679 E1.49525
G1 X115.146 Y128.511 E1.53239
G1 X114.372 Y128.353 E1.55866
G1 X113.618 Y128.117 E1.58494
G1 X112.784 Y127.753 E1.61521
G1 X111.828 Y127.267 E1.65088
G1 X111.143 Y126.874 E1.67714
G1 X110.502 Y126.414 E1.70338
G1 X109.879 Y125.861 E1.73109
G1 X109.086 Y125.077 E1.76818
G1 X108.553 Y124.494 E1.79445
G1 X108.082 Y123.86 E1.82072
G1 X107.62 Y123.071 E1.85113
G1 X107.133 Y122.115 E1.88682
G1 X106.81 Y121.394 E1.91309
G1 X106.563 Y120.644 E1.93936
G1 X106.388 Y119.851 E1.96637
G1 X106.209 Y118.772 E2.00275
G1 X106.12 Y117.987 E2.02902
G1 X106.11 Y117.197 E2.0553
G1 X106.193 Y116.319 E2.08463
G1 X106.358 Y115.237 E2.12104
G1 X106.517 Y114.463 E2.14732
G1 X106.752 Y113.71 E2.17355
G1 X107.094 Y112.922 E2.20212
G1 X107.584 Y111.943 E2.23854
G1 X107.973 Y111.256 E2.26479
G1 X108.429 Y110.611 E2.29107
G1 X109.009 Y109.954 E2.32022
G1 X109.792 Y109.161 E2.35728
G0 F6000 X110.076 Y109.442
G1 F1200 X110.644 Y108.923 E2.38287
G1 X111.263 Y108.467 E2.40844
G1 X111.987 Y108.045 E2.43632
G1 X112.964 Y107.548 E2.47277
G1 X113.667 Y107.236 E2.49835
G1 X114.398 Y106.998 E2.52392
G1 X115.156 Y106.836 E2.5497
G1 X116.237 Y106.664 E2.58611
G1 X117.002 Y106.583 E2.6117
G1 X117.771 Y106.581 E2.63727
G1 X118.559 Y106.663 E2.66362
G1 X119.618 Y106.831 E2.69929
G1 X120.371 Y106.991 E2.72489
G1 X121.103 Y107.228 E2.75048
G1 X121.771 Y107.523 E2.77477
G1 X122.75 Y108.013 E2.81118
G1 X123.419 Y108.392 E2.83676
G1 X124.045 Y108.839 E2.86234
G1 X124.641 Y109.368 E2.88885
G1 X125.434 Y110.152 E2.92593
G1 X125.952 Y110.72 E2.9515
G1 X126.408 Y111.339 E2.97707
G1 X126.825 Y112.056 E3.00466
G1 X127.322 Y113.032 E3.04109
G1 X127.635 Y113.735 E3.06668
G1 X127.874 Y114.466 E3.09226
G1 X128.036 Y115.228 E3.11818
G1 X128.208 Y116.31 E3.15461
G1 X128.289 Y117.075 E3.1802
G1 X128.291 Y117.844 E3.20578
G1 X128.208 Y118.634 E3.2322
G1 X128.036 Y119.716 E3.26864
G1 X127.876 Y120.468 E3.29421
G1 X127.639 Y121.2 E3.3198
G1 X127.322 Y121.912 E3.34572
G1 X126.825 Y122.888 E3.38215
G1 X126.441 Y123.554 E3.40772
G1 X125.99 Y124.177 E3.4333
G1 X125.467 Y124.759 E3.45933
G1 X124.711 Y125.516 E3.49491
G1 X124.14 Y126.031 E3.52048
G1 X123.519 Y126.485 E3.54607
G1 X122.876 Y126.859 E3.57081
G1 X121.904 Y127.362 E3.60721
G1 X121.203 Y127.68 E3.63281
G1 X120.474 Y127.923 E3.65837
G1 X119.706 Y128.091 E3.68452
G1 X118.626 Y128.269 E3.72093
G1 X117.862 Y128.355 E3.7465
G1 X117.093 Y128.361 E3.77207
G1 X116.31 Y128.284 E3.79824
G1 X115.206 Y128.116 E3.83538
G1 X114.452 Y127.961 E3.86099
G1 X113.719 Y127.728 E3.88657
G1 X112.966 Y127.397 E3.91393
G1 X112.01 Y126.911 E3.9496
G1 X111.343 Y126.527 E3.97519
G1 X110.72 Y126.076 E4.00077
G1 X110.16 Y125.576 E4.02574
G1 X109.367 Y124.792 E4.06283
G1 X108.849 Y124.224 E4.0884
G1 X108.393 Y123.605 E4.11397
G1 X107.976 Y122.889 E4.14153
G1 X107.489 Y121.933 E4.17722
G1 X107.176 Y121.23 E4.20281
G1 X106.938 Y120.499 E4.22838
G1 X106.783 Y119.785 E4.25268
G1 X106.604 Y118.706 E4.28906
G1 X106.517 Y117.942 E4.31463
G1 X106.511 Y117.173 E4.34021
G1 X106.589 Y116.379 E4.36675
G1 X106.754 Y115.297 E4.40315
G1 X106.909 Y114.544 E4.42872
G1 X107.142 Y113.811 E4.4543
G1 X107.452 Y113.101 E4.48007
G1 X107.942 Y112.122 E4.51648
G1 X108.321 Y111.453 E4.54206
G1 X108.768 Y110.827 E4.56764
G1 X109.293 Y110.235 E4.59396
G1 X110.076 Y109.442 E4.63102
G0 F6000 X110.361 Y109.723
G1 F1200 X110.914 Y109.219 E4.65591
G1 X111.518 Y108.778 E4.68078
G1 X112.168 Y108.402 E4.70576
G1 X113.145 Y107.905 E4.74222
G1 X113.829 Y107.602 E4.7671
G1 X114.541 Y107.373 E4.79198
G1 X115.219 Y107.231 E4.81502
G1 X116.3 Y107.059 E4.85142
G1 X117.044 Y106.981 E4.8763
G1 X117.792 Y106.983 E4.90118
G1 X118.497 Y107.058 E4.92476
G1 X119.556 Y107.226 E4.96043
G1 X120.287 Y107.383 E4.98529
G1 X120.998 Y107.617 E5.01019
G1 X121.592 Y107.88 E5.03179
G1 X122.571 Y108.37 E5.06821
G1 X123.221 Y108.74 E5.09308
G1 X123.828 Y109.178 E5.11798
G1 X124.359 Y109.652 E5.14165
G1 X125.152 Y110.436 E5.17874
G1 X125.656 Y110.99 E5.20365
G1 X126.097 Y111.594 E5.22853
G1 X126.469 Y112.238 E5.25326
G1 X126.966 Y113.214 E5.28969
G1 X127.269 Y113.897 E5.31454
G1 X127.498 Y114.61 E5.33945
G1 X127.641 Y115.291 E5.3626
G1 X127.813 Y116.373 E5.39903
G1 X127.891 Y117.117 E5.42392
G1 X127.889 Y117.865 E5.44879
G1 X127.813 Y118.571 E5.47241
G1 X127.641 Y119.653 E5.50885
G1 X127.484 Y120.384 E5.53372
G1 X127.251 Y121.095 E5.5586
G1 X126.966 Y121.73 E5.58175
G1 X126.469 Y122.706 E5.61818
G1 X126.094 Y123.354 E5.64308
G1 X125.653 Y123.958 E5.66796
G1 X125.184 Y124.476 E5.6912
G1 X124.428 Y125.233 E5.72678
G1 X123.872 Y125.734 E5.75168
G1 X123.266 Y126.172 E5.77654
G1 X122.692 Y126.504 E5.7986
G1 X121.72 Y127.007 E5.835
G1 X121.038 Y127.315 E5.85989
G1 X120.328 Y127.548 E5.88474
G1 X119.641 Y127.697 E5.90812
G1 X118.561 Y127.875 E5.94453
G1 X117.818 Y127.957 E5.96939
G1 X117.07 Y127.959 E5.99427
G1 X116.37 Y127.888 E6.01767
G1 X115.266 Y127.72 E6.05481
G1 X114.533 Y127.568 E6.07971
G1 X113.821 Y127.339 E6.10459
G1 X113.147 Y127.04 E6.12911
G1 X112.191 Y126.554 E6.16478
G1 X111.543 Y126.18 E6.18967
G1 X110.939 Y125.739 E6.21454
G1 X110.442 Y125.292 E6.23677
G1 X109.649 Y124.508 E6.27386
G1 X109.145 Y123.954 E6.29877
G1 X108.704 Y123.35 E6.32365
G1 X108.333 Y122.707 E6.34834
G1 X107.846 Y121.751 E6.38402
G1 X107.542 Y121.068 E6.40889
G1 X107.313 Y120.355 E6.4338
G1 X107.177 Y119.72 E6.45539
G1 X106.998 Y118.641 E6.49177
G1 X106.916 Y117.897 E6.51667
G1 X106.913 Y117.149 E6.54155
G1 X106.984 Y116.44 E6.56525
G1 X107.149 Y115.358 E6.60165
G1 X107.301 Y114.625 E6.62655
G1 X107.531 Y113.913 E6.65143
G1 X107.809 Y113.28 E6.67443
G1 X108.299 Y112.301 E6.71084
G1 X108.669 Y111.651 E6.73572
G1 X109.107 Y111.044 E6.76061
G1 X109.578 Y110.516 E6.78415
G1 X110.361 Y109.723 E6.82121
G0 F6000 X110.646 Y110.004
G1 F1200 X111.184 Y109.516 E6.84537
G1 X111.772 Y109.09 E6.86952
G1 X112.35 Y108.758 E6.89169
G1 X113.327 Y108.261 E6.92815
G1 X113.991 Y107.968 E6.95229
G1 X114.684 Y107.75 E6.97645
G1 X115.282 Y107.626 E6.99676
G1 X116.363 Y107.454 E7.03317
G1 X117.085 Y107.38 E7.05731
G1 X117.812 Y107.385 E7.08149
G1 X118.434 Y107.454 E7.10231
G1 X119.493 Y107.622 E7.13797
G1 X120.203 Y107.775 E7.16213
G1 X120.892 Y108.005 E7.18628
G1 X121.413 Y108.238 E7.20527
G1 X122.392 Y108.728 E7.24168
G1 X123.023 Y109.088 E7.26584
G1 X123.61 Y109.516 E7.29
G1 X124.078 Y109.937 E7.31094
G1 X124.871 Y110.721 E7.34803
G1 X125.359 Y111.259 E7.37219
G1 X125.784 Y111.848 E7.39635
G1 X126.112 Y112.419 E7.41825
G1 X126.609 Y113.395 E7.45468
G1 X126.903 Y114.06 E7.47886
G1 X127.122 Y114.752 E7.503
G1 X127.246 Y115.354 E7.52344
G1 X127.418 Y116.436 E7.55988
G1 X127.493 Y117.158 E7.58403
G1 X127.487 Y117.885 E7.60821
G1 X127.418 Y118.508 E7.62906
G1 X127.246 Y119.59 E7.66549
G1 X127.093 Y120.3 E7.68965
G1 X126.862 Y120.989 E7.71382
G1 X126.609 Y121.549 E7.73426
G1 X126.112 Y122.525 E7.77069
G1 X125.748 Y123.153 E7.79483
G1 X125.316 Y123.737 E7.81899
G1 X124.901 Y124.194 E7.83952
G1 X124.145 Y124.951 E7.87511
G1 X123.604 Y125.436 E7.89927
G1 X123.013 Y125.858 E7.92343
G1 X122.508 Y126.149 E7.94281
G1 X121.536 Y126.652 E7.97921
G1 X120.874 Y126.949 E8.00335
G1 X120.183 Y127.173 E8.02751
G1 X119.576 Y127.302 E8.04815
G1 X118.496 Y127.48 E8.08455
G1 X117.774 Y127.559 E8.10871
G1 X117.048 Y127.557 E8.13285
G1 X116.43 Y127.493 E8.15352
G1 X115.326 Y127.325 E8.19066
G1 X114.615 Y127.176 E8.21482
G1 X113.925 Y126.95 E8.23897
G1 X113.328 Y126.683 E8.26072
G1 X112.372 Y126.197 E8.29639
G1 X111.744 Y125.833 E8.32054
G1 X111.159 Y125.402 E8.3447
G1 X110.723 Y125.007 E8.36427
G1 X109.93 Y124.223 E8.40136
G1 X109.442 Y123.685 E8.42552
G1 X109.017 Y123.096 E8.44968
G1 X108.689 Y122.526 E8.47155
G1 X108.202 Y121.57 E8.50723
G1 X107.909 Y120.905 E8.5314
G1 X107.69 Y120.213 E8.55554
G1 X107.572 Y119.654 E8.57455
G1 X107.393 Y118.575 E8.61093
G1 X107.314 Y117.853 E8.63508
G1 X107.314 Y117.127 E8.65923
G1 X107.379 Y116.5 E8.6802
G1 X107.544 Y115.418 E8.7166
G1 X107.693 Y114.707 E8.74076
G1 X107.919 Y114.017 E8.76491
G1 X108.167 Y113.459 E8.78522
G1 X108.657 Y112.48 E8.82163
G1 X109.017 Y111.849 E8.84579
G1 X109.445 Y111.262 E8.86996
G1 X109.863 Y110.797 E8.89075
G1 X110.646 Y110.004 E8.92782
G0 F6000 X110.93 Y110.285
G1 F1200 X111.452 Y109.813 E8.95123
G1 X112.025 Y109.403 E8.97466
G1 X112.531 Y109.115 E8.99402
G1 X113.508 Y108.618 E9.03048
G1 X114.152 Y108.335 E9.05388
G1 X114.825 Y108.127 E9.07731
G1 X115.345 Y108.021 E9.09496
G1 X116.426 Y107.849 E9.13137
G1 X117.126 Y107.778 E9.15477
G1 X117.83 Y107.787 E9.17818
G1 X118.371 Y107.849 E9.1963
G1 X119.43 Y108.017 E9.23196
G1 X120.118 Y108.166 E9.25537
G1 X120.785 Y108.393 E9.27881
G1 X121.234 Y108.596 E9.29519
G1 X122.213 Y109.086 E9.33161
G1 X122.824 Y109.436 E9.35503
G1 X123.391 Y109.853 E9.37844
G1 X123.797 Y110.221 E9.39666
G1 X124.59 Y111.005 E9.43375
G1 X125.062 Y111.528 E9.45718
G1 X125.471 Y112.1 E9.48057
G1 X125.756 Y112.601 E9.49974
G1 X126.253 Y113.577 E9.53617
G1 X126.536 Y114.221 E9.55957
G1 X126.745 Y114.893 E9.58297
G1 X126.851 Y115.417 E9.60075
G1 X127.023 Y116.499 E9.63719
G1 X127.094 Y117.199 E9.6606
G1 X127.085 Y117.903 E9.68401
G1 X127.023 Y118.445 E9.70216
G1 X126.851 Y119.527 E9.7386
G1 X126.701 Y120.215 E9.76202
G1 X126.474 Y120.882 E9.78545
G1 X126.253 Y121.367 E9.80318
G1 X125.756 Y122.343 E9.83961
G1 X125.401 Y122.952 E9.86305
G1 X124.98 Y123.516 E9.88646
G1 X124.618 Y123.911 E9.90428
G1 X123.862 Y124.668 E9.93986
G1 X123.337 Y125.137 E9.96328
G1 X122.762 Y125.544 E9.98671
G1 X122.325 Y125.793 E10.00344
G1 X121.353 Y126.296 E10.03984
G1 X120.71 Y126.584 E10.06327
G1 X120.039 Y126.797 E10.08669
G1 X119.511 Y126.907 E10.10463
G1 X118.431 Y127.085 E10.14103
G1 X117.731 Y127.16 E10.16445
G1 X117.027 Y127.155 E10.18786
G1 X116.49 Y127.097 E10.20583
G1 X115.386 Y126.929 E10.24297
G1 X114.697 Y126.784 E10.26639
G1 X114.029 Y126.562 E10.2898
G1 X113.509 Y126.327 E10.30878
G1 X112.553 Y125.841 E10.34445
G1 X111.945 Y125.487 E10.36785
G1 X111.381 Y125.066 E10.39126
G1 X111.004 Y124.723 E10.40821
G1 X110.211 Y123.939 E10.4453
G1 X109.739 Y123.416 E10.46873
G1 X109.33 Y122.844 E10.49212
G1 X109.046 Y122.344 E10.51124
G1 X108.559 Y121.388 E10.54693
G1 X108.275 Y120.744 E10.57034
G1 X108.067 Y120.071 E10.59377
G1 X107.967 Y119.589 E10.61014
G1 X107.788 Y118.51 E10.64652
G1 X107.712 Y117.81 E10.66994
G1 X107.716 Y117.106 E10.69335
G1 X107.775 Y116.56 E10.71162
G1 X107.94 Y115.478 E10.74802
G1 X108.085 Y114.79 E10.77141
G1 X108.308 Y114.122 E10.79483
G1 X108.525 Y113.638 E10.81247
G1 X109.015 Y112.659 E10.84888
G1 X109.365 Y112.048 E10.8723
G1 X109.782 Y111.481 E10.89571
G1 X110.147 Y111.078 E10.9138
G1 X110.93 Y110.285 E10.95086
G0 F6000 X111.215 Y110.566
G1 F1200 X111.721 Y110.11 E10.97352
G1 X112.277 Y109.717 E10.99617
G1 X112.712 Y109.471 E11.01279
G1 X113.689 Y108.974 E11.04924
G1 X114.313 Y108.702 E11.07189
G1 X114.965 Y108.504 E11.09455
G1 X115.408 Y108.416 E11.10957
G1 X116.489 Y108.244 E11.14598
G1 X117.166 Y108.177 E11.1686
G1 X117.847 Y108.189 E11.19126
G1 X118.309 Y108.244 E11.20673
G1 X119.368 Y108.412 E11.2424
G1 X120.033 Y108.558 E11.26504
G1 X120.676 Y108.781 E11.28768
G1 X121.055 Y108.953 E11.30152
G1 X122.034 Y109.443 E11.33793
G1 X122.624 Y109.783 E11.36058
G1 X123.17 Y110.19 E11.38323
G1 X123.516 Y110.505 E11.39879
G1 X124.309 Y111.289 E11.43588
G1 X124.764 Y111.796 E11.45854
G1 X125.157 Y112.352 E11.48119
G1 X125.399 Y112.782 E11.4976
G1 X125.896 Y113.758 E11.53403
G1 X126.169 Y114.382 E11.55668
G1 X126.367 Y115.033 E11.57931
G1 X126.456 Y115.479 E11.59444
G1 X126.628 Y116.561 E11.63088
G1 X126.695 Y117.239 E11.65354
G1 X126.683 Y117.92 E11.67619
G1 X126.628 Y118.383 E11.6917
G1 X126.456 Y119.465 E11.72814
G1 X126.31 Y120.13 E11.75078
G1 X126.087 Y120.773 E11.77342
G1 X125.896 Y121.186 E11.78855
G1 X125.399 Y122.162 E11.82498
G1 X125.055 Y122.749 E11.84761
G1 X124.645 Y123.293 E11.87027
G1 X124.335 Y123.629 E11.88547
G1 X123.579 Y124.386 E11.92106
G1 X123.07 Y124.838 E11.9437
G1 X122.512 Y125.228 E11.96634
G1 X122.141 Y125.438 E11.98052
G1 X121.169 Y125.941 E12.01692
G1 X120.547 Y126.218 E12.03957
G1 X119.896 Y126.42 E12.06224
G1 X119.446 Y126.513 E12.07752
G1 X118.366 Y126.691 E12.11393
G1 X117.689 Y126.762 E12.13657
G1 X117.008 Y126.753 E12.15922
G1 X116.55 Y126.702 E12.17455
G1 X115.446 Y126.534 E12.21169
G1 X114.78 Y126.392 E12.23434
G1 X114.136 Y126.173 E12.25696
G1 X113.691 Y125.97 E12.27323
G1 X112.735 Y125.484 E12.3089
G1 X112.147 Y125.141 E12.33154
G1 X111.603 Y124.73 E12.35422
G1 X111.285 Y124.439 E12.36855
G1 X110.492 Y123.655 E12.40564
G1 X110.037 Y123.148 E12.4283
G1 X109.644 Y122.592 E12.45095
G1 X109.402 Y122.163 E12.46733
G1 X108.915 Y121.207 E12.50301
G1 X108.642 Y120.583 E12.52567
G1 X108.444 Y119.931 E12.54833
G1 X108.361 Y119.523 E12.56218
G1 X108.182 Y118.444 E12.59856
G1 X108.11 Y117.767 E12.6212
G1 X108.118 Y117.086 E12.64385
G1 X108.17 Y116.621 E12.65942
G1 X108.335 Y115.539 E12.69582
G1 X108.477 Y114.873 E12.71847
G1 X108.696 Y114.228 E12.74112
G1 X108.882 Y113.817 E12.75613
G1 X109.372 Y112.838 E12.79254
G1 X109.712 Y112.248 E12.81519
G1 X110.119 Y111.702 E12.83784
G1 X110.432 Y111.359 E12.85328
G1 X111.215 Y110.566 E12.89035
G0 F6000 X111.499 Y110.847
G1 F1200 X111.989 Y110.408 E12.91223
G1 X112.527 Y110.033 E12.93404
G1 X112.894 Y109.828 E12.94803
G1 X113.871 Y109.331 E12.98448
G1 X114.473 Y109.069 E13.00632
G1 X115.103 Y108.883 E13.02817
G1 X115.47 Y108.811 E13.04061
G1 X116.551 Y108.639 E13.07701
G1 X117.205 Y108.576 E13.09887
G1 X117.862 Y108.592 E13.12072
G1 X118.246 Y108.639 E13.13359
G1 X119.305 Y108.807 E13.16926
G1 X119.946 Y108.949 E13.19109
G1 X120.566 Y109.168 E13.21296
G1 X120.876 Y109.311 E13.22432
G1 X121.855 Y109.801 E13.26073
G1 X122.423 Y110.13 E13.28256
