;FLAVOR:Marlin
;TIME:3778
;Filament used: 2.16824m
;Layer height: 0.2
;MINX:70.171
;MINY:99.118
;MINZ:0.2
;MAXX:162.791
;MAXY:134.728
;MAXZ:16
;Generated with Cura_SteamEngine 4.6.1
M140 S60
M105
M190 S60
M104 S200
M105
M109 S200
M82 ;absolute extrusion mode
; Ender 3 Custom Start G-code
G92 E0 ; Reset Extruder
G28 ; Home all axes
G1 Z2.0 F3000 ; Move Z Axis up little to prevent scratching of Heat Bed
G1 X0.1 Y20 Z0.3 F5000.0 ; Move to start position
G1 X0.1 Y200.0 Z0.3 F1500.0 E15 ; Draw the first line
G1 X0.4 Y200.0 Z0.3 F5000.0 ; Move to side a little
G1 X0.4 Y20 Z0.3 F1500.0 E30 ; Draw the second line
G92 E0 ; Reset Extruder
G1 Z2.0 F3000 ; Move Z Axis up little to prevent scratching of Heat Bed
G1 X5 Y20 Z0.3 F5000.0 ; Move over to prevent blob squish
G92 E0
G92 E0
G1 F1500 E-6.5
;LAYER_COUNT:80
;LAYER:0
M107
G0 F6000 X144.152 Y133.385 Z0.2
;TYPE:SKIRT
G1 F1500 E0
G1 F1200 X143.632 Y133.424 E0.01734
G1 X143.384 Y133.437 E0.0256
G1 X142.904 Y133.457 E0.04158
G1 X142.185 Y133.462 E0.0655
G1 X139.657 Y133.389 E0.14961
G1 X138.251 Y133.378 E0.19638
G1 X124.57 Y133.371 E0.65141
G1 X121.956 Y133.407 E0.73836
G1 X119.437 Y133.512 E0.82222
G1 X116.857 Y133.694 E0.90824
G1 X114.853 Y133.885 E0.9752
G1 X113.657 Y133.928 E1.015
G1 X113.301 Y133.92 E1.02684
G1 X111.858 Y133.894 E1.07485
G1 X109.818 Y133.835 E1.14273
G1 X108.856 Y133.779 E1.17478
G1 X106.449 Y133.574 E1.25512
G1 X105.703 Y133.517 E1.28001
G1 X104.733 Y133.453 E1.31234
G1 X103.827 Y133.376 E1.34258
G1 X102.356 Y133.207 E1.39183
G1 X101.27 Y133.053 E1.42831
G1 X99.867 Y132.828 E1.47557
G1 X99.201 Y132.712 E1.49806
G1 X98.319 Y132.518 E1.52809
G1 X97.819 Y132.37 E1.54544
G1 X97.028 Y132.115 E1.57308
G1 X94.546 Y131.349 E1.65947
G1 X94.048 Y131.207 E1.6767
G1 X93.296 Y130.961 E1.70301
G1 X91.949 Y130.462 E1.75079
G1 X89.532 Y129.596 E1.83618
G1 X87.117 Y128.808 E1.92067
G1 X84.705 Y128.093 E2.00435
G1 X81.149 Y127.172 E2.12652
G1 X79.943 Y126.883 E2.16777
G1 X79.075 Y126.634 E2.1978
G1 X78.232 Y126.31 E2.22784
G1 X77.422 Y125.912 E2.25786
G1 X76.649 Y125.444 E2.28791
G1 X75.59 Y124.631 E2.33232
G1 X75.004 Y124.117 E2.35825
G1 X74.711 Y123.85 E2.37143
G1 X74.498 Y123.648 E2.38119
G1 X73.871 Y122.998 E2.41123
G1 X73.204 Y122.158 E2.44691
G1 X73.012 Y121.888 E2.45793
G1 X72.522 Y121.13 E2.48795
G1 X71.928 Y119.945 E2.53203
G1 X71.833 Y119.72 E2.54016
G1 X71.519 Y118.873 E2.5702
G1 X71.268 Y117.942 E2.60227
G1 X71.197 Y117.619 E2.61327
G1 X71.042 Y116.729 E2.64332
G1 X70.967 Y115.829 E2.67336
G1 X70.991 Y114.626 E2.71338
G1 X71.015 Y114.322 E2.72352
G1 X71.126 Y113.426 E2.75355
G1 X71.315 Y112.543 E2.78358
G1 X71.56 Y111.742 E2.81144
G1 X71.676 Y111.412 E2.82308
G1 X72.013 Y110.575 E2.85309
G1 X72.423 Y109.77 E2.88313
G1 X72.968 Y108.909 E2.91703
G1 X73.163 Y108.633 E2.92827
G1 X73.717 Y107.919 E2.95832
G1 X74.41 Y107.18 E2.99202
G1 X74.612 Y106.985 E3.00136
G1 X75.289 Y106.388 E3.03138
G1 X76.016 Y105.852 E3.06142
G1 X76.787 Y105.383 E3.09144
G1 X77.598 Y104.984 E3.1215
G1 X78.228 Y104.732 E3.14407
G1 X81.617 Y103.51 E3.26389
G1 X82.352 Y103.267 E3.28964
G1 X82.909 Y103.09 E3.30907
G1 X83.845 Y102.841 E3.34129
G1 X84.333 Y102.738 E3.35788
G1 X86.956 Y102.233 E3.44672
G1 X89.42 Y101.685 E3.53068
G1 X91.951 Y101.049 E3.61747
G1 X93.869 Y100.517 E3.68368
G1 X94.748 Y100.31 E3.71371
G1 X95.842 Y100.164 E3.75042
G1 X97.902 Y100.002 E3.81915
G1 X98.636 Y99.95 E3.84362
G1 X99.25 Y99.925 E3.86406
G1 X99.915 Y99.918 E3.88618
G1 X100.633 Y99.935 E3.91007
G1 X103.409 Y100.102 E4.00256
G1 X105.953 Y100.183 E4.08722
G1 X106.597 Y100.188 E4.10864
G1 X108.295 Y100.233 E4.16514
G1 X110.944 Y100.351 E4.25333
G1 X113.064 Y100.389 E4.32385
G1 X113.816 Y100.394 E4.34887
G1 X114.718 Y100.44 E4.37891
G1 X115.238 Y100.503 E4.39633
G1 X116.164 Y100.64 E4.42746
G1 X118.755 Y100.988 E4.51441
G1 X121.253 Y101.253 E4.59796
G1 X123.81 Y101.45 E4.68326
G1 X126.342 Y101.574 E4.76758
G1 X129.526 Y101.629 E4.87349
G1 X138.048 Y101.628 E5.15693
G1 X140.683 Y101.591 E5.24458
G1 X141.535 Y101.556 E5.27295
G1 X142.072 Y101.542 E5.29081
G1 X142.724 Y101.546 E5.3125
G1 X143.596 Y101.579 E5.34152
G1 X144.227 Y101.619 E5.36255
G1 X144.786 Y101.675 E5.38124
G1 X146.208 Y101.858 E5.42892
G1 X147.818 Y102.06 E5.48289
G1 X149.075 Y102.203 E5.52497
G1 X149.967 Y102.345 E5.55501
G1 X150.843 Y102.565 E5.58505
G1 X151.696 Y102.862 E5.61509
G1 X152.519 Y103.233 E5.64512
G1 X153.031 Y103.51 E5.66448
G1 X153.342 Y103.69 E5.67643
G1 X154.005 Y104.108 E5.7025
G1 X154.684 Y104.574 E5.72989
G1 X155.609 Y105.29 E5.7688
G1 X156.82 Y106.347 E5.82226
G1 X157.256 Y106.743 E5.84185
G1 X157.897 Y107.38 E5.87191
G1 X158.479 Y108.07 E5.90193
G1 X158.969 Y108.764 E5.93018
G1 X159.589 Y109.734 E5.96847
G1 X160.104 Y110.589 E6.00167
G1 X160.328 Y110.974 E6.01649
G1 X160.748 Y111.774 E6.04654
G1 X161.176 Y112.842 E6.08481
G1 X161.366 Y113.405 E6.10457
G1 X161.47 Y113.73 E6.11592
G1 X161.553 Y114.006 E6.12551
G1 X161.774 Y114.881 E6.15552
G1 X161.918 Y115.773 E6.18557
G1 X161.984 Y116.808 E6.22007
G1 X161.991 Y117.494 E6.24289
G1 X161.985 Y118.127 E6.26394
G1 X161.936 Y119.028 E6.29395
G1 X161.808 Y119.922 E6.32399
G1 X161.604 Y120.792 E6.35371
G1 X161.514 Y121.112 E6.36477
G1 X161.388 Y121.527 E6.37919
G1 X161.232 Y122.003 E6.39585
G1 X160.913 Y122.848 E6.42589
G1 X160.43 Y123.826 E6.46217
G1 X160.039 Y124.515 E6.48852
G1 X159.437 Y125.519 E6.52746
G1 X159.062 Y126.112 E6.55079
G1 X158.546 Y126.853 E6.58083
G1 X157.966 Y127.545 E6.61086
G1 X157.249 Y128.256 E6.64444
G1 X156.378 Y129.036 E6.68333
G1 X155.655 Y129.672 E6.71536
G1 X154.732 Y130.394 E6.75433
G1 X154.069 Y130.848 E6.78106
G1 X153.644 Y131.125 E6.79793
G1 X153.131 Y131.439 E6.81794
G1 X152.933 Y131.552 E6.82552
G1 X152.129 Y131.964 E6.85557
G1 X151.293 Y132.304 E6.88558
G1 X150.429 Y132.569 E6.91564
G1 X149.546 Y132.756 E6.94566
G1 X148.947 Y132.837 E6.96577
G1 X148.151 Y132.921 E6.99239
G1 X146.17 Y133.15 E7.05872
G1 X144.96 Y133.303 E7.09928
G1 X144.152 Y133.385 E7.12629
G1 F1500 E0.62629
G0 F6000 X150.632 Y118.893
G0 X150.838 Y117.498
G0 X150.619 Y116.071
G0 X149.951 Y114.603
G0 X148.936 Y113.452
G0 X148.428 Y112.989
G0 X147.883 Y112.618
G0 X146.85 Y112.06
G0 X145.989 Y111.709
G0 X103.411 Y99.701
G1 F1500 E7.12629
G1 F1200 X105.967 Y99.783 E7.21135
G1 X106.607 Y99.788 E7.23264
G1 X108.312 Y99.833 E7.28936
G1 X110.968 Y99.951 E7.37779
G1 X113.074 Y99.989 E7.44785
G1 X113.818 Y99.994 E7.47259
G1 X114.738 Y100.04 E7.50323
G1 X115.296 Y100.108 E7.52193
G1 X116.197 Y100.241 E7.55222
G1 X118.778 Y100.588 E7.63884
G1 X121.325 Y100.858 E7.72403
G1 X123.824 Y101.051 E7.80739
G1 X126.337 Y101.174 E7.89107
G1 X129.533 Y101.229 E7.99739
G1 X138.042 Y101.228 E8.2804
G1 X140.661 Y101.191 E8.36752
G1 X141.525 Y101.157 E8.39627
G1 X142.062 Y101.143 E8.41414
G1 X142.739 Y101.147 E8.43666
G1 X143.611 Y101.18 E8.46568
G1 X143.982 Y101.2 E8.47804
G1 X144.256 Y101.22 E8.48718
G1 X144.837 Y101.279 E8.5066
G1 X146.224 Y101.457 E8.55311
G1 X147.918 Y101.669 E8.60989
G1 X149.12 Y101.806 E8.65013
G1 X150.03 Y101.95 E8.68077
G1 X150.923 Y102.172 E8.71138
G1 X151.794 Y102.47 E8.742
G1 X152.636 Y102.844 E8.77264
G1 X153.232 Y103.164 E8.79514
G1 X153.543 Y103.344 E8.80709
G1 X154.231 Y103.778 E8.83415
G1 X154.91 Y104.244 E8.86154
G1 X155.872 Y104.989 E8.90201
G1 X157.089 Y106.051 E8.95573
G1 X157.525 Y106.447 E8.97532
G1 X158.179 Y107.095 E9.00594
G1 X158.774 Y107.798 E9.03657
G1 X159.305 Y108.547 E9.06711
G1 X159.932 Y109.527 E9.10581
G1 X160.45 Y110.388 E9.13923
G1 X160.674 Y110.773 E9.15404
G1 X161.102 Y111.588 E9.18466
G1 X161.555 Y112.715 E9.22506
G1 X161.745 Y113.278 E9.24482
G1 X161.853 Y113.614 E9.25656
G1 X161.936 Y113.89 E9.26614
G1 X162.163 Y114.783 E9.29679
G1 X162.311 Y115.691 E9.32739
G1 X162.384 Y116.803 E9.36445
G1 X162.391 Y117.497 E9.38754
G1 X162.385 Y118.13 E9.40859
G1 X162.336 Y119.05 E9.43924
G1 X162.208 Y119.962 E9.46987
G1 X161.989 Y120.9 E9.5019
G1 X161.899 Y121.22 E9.51296
G1 X161.768 Y121.651 E9.52794
G1 X161.612 Y122.127 E9.5446
G1 X161.287 Y122.989 E9.57524
G1 X160.778 Y124.022 E9.61354
G1 X160.382 Y124.719 E9.64021
G1 X159.775 Y125.732 E9.67949
G1 X159.4 Y126.325 E9.70282
G1 X158.875 Y127.081 E9.73343
G1 X158.286 Y127.789 E9.76407
G1 X157.516 Y128.554 E9.80017
G1 X156.642 Y129.336 E9.83917
G1 X155.919 Y129.972 E9.8712
G1 X154.96 Y130.722 E9.91169
G1 X154.288 Y131.183 E9.9388
G1 X153.863 Y131.46 E9.95567
G1 X153.329 Y131.786 E9.97648
G1 X153.131 Y131.899 E9.98406
G1 X152.312 Y132.32 E10.01469
G1 X151.46 Y132.669 E10.04531
G1 X150.581 Y132.942 E10.07593
G1 X149.682 Y133.138 E10.10653
G1 X148.989 Y133.234 E10.1298
G1 X148.299 Y133.307 E10.15288
G1 X146.17 Y133.553 E10.22416
G1 X145.01 Y133.7 E10.26305
G1 X144.684 Y133.736 E10.27396
G1 X143.885 Y133.808 E10.30064
G1 X143.4 Y133.837 E10.3168
G1 X142.92 Y133.857 E10.33278
G1 X142.174 Y133.862 E10.35759
G1 X139.643 Y133.789 E10.44181
G1 X138.248 Y133.778 E10.48821
G1 X124.575 Y133.771 E10.94297
G1 X121.979 Y133.807 E11.02932
G1 X119.446 Y133.913 E11.11365
G1 X116.883 Y134.093 E11.1991
G1 X114.891 Y134.283 E11.26566
G1 X113.648 Y134.328 E11.30703
G1 X111.847 Y134.294 E11.36694
G1 X109.492 Y134.221 E11.4453
G1 X108.822 Y134.178 E11.46763
G1 X106.391 Y133.971 E11.54878
G1 X105.651 Y133.915 E11.57346
G1 X104.701 Y133.852 E11.60513
G1 X103.784 Y133.774 E11.63574
G1 X102.301 Y133.603 E11.68539
G1 X101.207 Y133.448 E11.72214
G1 X99.798 Y133.222 E11.76961
G1 X99.132 Y133.106 E11.79209
G1 X98.233 Y132.909 E11.8227
G1 X97.696 Y132.751 E11.84132
G1 X96.866 Y132.483 E11.87033
G1 X94.405 Y131.724 E11.95598
G1 X93.939 Y131.591 E11.9721
G1 X93.157 Y131.336 E11.99946
G1 X91.865 Y130.857 E12.04529
G1 X89.378 Y129.967 E12.13315
G1 X87.017 Y129.196 E12.21575
G1 X84.589 Y128.476 E12.29999
G1 X81.053 Y127.56 E12.42148
G1 X79.85 Y127.272 E12.46262
G1 X78.965 Y127.019 E12.49323
G1 X78.105 Y126.691 E12.52385
G1 X77.277 Y126.289 E12.55446
G1 X76.487 Y125.816 E12.58508
G1 X75.74 Y125.277 E12.61572
G1 X75.326 Y124.932 E12.63365
G1 X74.74 Y124.418 E12.65957
G1 X74.436 Y124.14 E12.67327
G1 X74.223 Y123.938 E12.68304
G1 X73.583 Y123.276 E12.71366
G1 X72.878 Y122.39 E12.75132
G1 X72.686 Y122.12 E12.76234
G1 X72.186 Y121.347 E12.79296
G1 X71.755 Y120.534 E12.82357
G1 X71.56 Y120.1 E12.83939
G1 X71.465 Y119.875 E12.84751
G1 X71.144 Y119.012 E12.87814
G1 X70.877 Y118.028 E12.91205
G1 X70.806 Y117.705 E12.92305
G1 X70.648 Y116.798 E12.95367
G1 X70.569 Y115.881 E12.98428
G1 X70.592 Y114.595 E13.02706
G1 X70.616 Y114.291 E13.03721
G1 X70.728 Y113.377 E13.06783
G1 X70.919 Y112.476 E13.09847
G1 X71.183 Y111.61 E13.12858
G1 X71.299 Y111.28 E13.14021
G1 X71.642 Y110.425 E13.17085
G1 X72.057 Y109.604 E13.20145
G1 X72.642 Y108.678 E13.23788
G1 X72.837 Y108.402 E13.24912
G1 X73.4 Y107.674 E13.27973
G1 X74.132 Y106.893 E13.31533
G1 X74.334 Y106.698 E13.32467
G1 X75.023 Y106.088 E13.35528
G1 X75.763 Y105.54 E13.3859
G1 X76.548 Y105.058 E13.41654
G1 X77.371 Y104.646 E13.44715
G1 X78.092 Y104.355 E13.47301
G1 X81.491 Y103.131 E13.59317
G1 X82.231 Y102.886 E13.6191
G1 X82.788 Y102.709 E13.63854
G1 X83.761 Y102.45 E13.67202
G1 X84.257 Y102.345 E13.68889
G1 X86.898 Y101.836 E13.77834
G1 X89.35 Y101.291 E13.86189
G1 X91.834 Y100.667 E13.94707
G1 X93.76 Y100.132 E14.01356
G1 X94.656 Y99.92 E14.04418
G1 X95.81 Y99.765 E14.08291
G1 X97.874 Y99.603 E14.15177
G1 X98.608 Y99.551 E14.17624
G1 X99.245 Y99.525 E14.19745
G1 X99.91 Y99.518 E14.21957
G1 X100.657 Y99.536 E14.24442
G1 X103.411 Y99.701 E14.33618
G0 F6000 X103.447 Y99.303
G1 F1200 X105.945 Y99.383 E14.41931
G1 X106.617 Y99.389 E14.44166
G1 X108.33 Y99.434 E14.49865
G1 X110.956 Y99.551 E14.58608
G1 X113.083 Y99.589 E14.65684
G1 X113.821 Y99.594 E14.68138
G1 X114.758 Y99.64 E14.71259
G1 X115.355 Y99.712 E14.73259
G1 X116.241 Y99.843 E14.76237
G1 X118.837 Y100.192 E14.84949
G1 X121.362 Y100.459 E14.93394
G1 X123.839 Y100.651 E15.01658
G1 X126.364 Y100.774 E15.10066
G1 X129.54 Y100.829 E15.20631
G1 X138.036 Y100.828 E15.48889
G1 X140.64 Y100.791 E15.5755
G1 X141.514 Y100.757 E15.6046
G1 X142.051 Y100.743 E15.62246
G1 X142.754 Y100.747 E15.64585
G1 X143.626 Y100.78 E15.67487
G1 X144.011 Y100.801 E15.68769
G1 X144.285 Y100.821 E15.69683
G1 X144.888 Y100.882 E15.71699
G1 X146.273 Y101.06 E15.76343
G1 X147.997 Y101.276 E15.82122
G1 X149.166 Y101.409 E15.86035
G1 X150.092 Y101.554 E15.89153
G1 X151.003 Y101.778 E15.92273
G1 X151.891 Y102.079 E15.95392
G1 X152.751 Y102.454 E15.98512
G1 X153.432 Y102.818 E16.0108
G1 X153.743 Y102.998 E16.02275
G1 X154.457 Y103.448 E16.05083
G1 X155.136 Y103.914 E16.07822
G1 X156.134 Y104.687 E16.1202
G1 X157.358 Y105.755 E16.17423
G1 X157.794 Y106.151 E16.19382
G1 X158.46 Y106.811 E16.22501
G1 X159.069 Y107.525 E16.25622
G1 X159.641 Y108.331 E16.28909
G1 X160.274 Y109.32 E16.32815
G1 X160.796 Y110.187 E16.36181
G1 X161.02 Y110.572 E16.37662
G1 X161.456 Y111.402 E16.4078
G1 X161.934 Y112.587 E16.4503
G1 X162.124 Y113.15 E16.47007
G1 X162.236 Y113.499 E16.48226
G1 X162.319 Y113.775 E16.49184
G1 X162.551 Y114.684 E16.52305
G1 X162.704 Y115.609 E16.55423
G1 X162.784 Y116.798 E16.59387
G1 X162.791 Y117.501 E16.61725
G1 X162.785 Y118.134 E16.6383
G1 X162.736 Y119.071 E16.66951
G1 X162.607 Y120 E16.70071
G1 X162.374 Y121.008 E16.73512
G1 X162.284 Y121.328 E16.74617
G1 X162.148 Y121.776 E16.76174
G1 X161.992 Y122.252 E16.7784
G1 X161.662 Y123.13 E16.8096
G1 X161.127 Y124.218 E16.84993
G1 X160.726 Y124.924 E16.87693
G1 X160.113 Y125.946 E16.91657
G1 X159.738 Y126.539 E16.93991
G1 X159.203 Y127.31 E16.97112
G1 X158.605 Y128.032 E17.0023
G1 X157.783 Y128.851 E17.04089
G1 X156.906 Y129.636 E17.08004
G1 X156.183 Y130.272 E17.11207
G1 X155.188 Y131.051 E17.1541
G1 X154.77 Y131.341 E17.17102
G1 X154.506 Y131.518 E17.18159
G1 X154.081 Y131.795 E17.19846
G1 X153.527 Y132.134 E17.22006
G1 X153.329 Y132.247 E17.22765
G1 X152.496 Y132.676 E17.25881
G1 X151.628 Y133.034 E17.29004
G1 X150.734 Y133.315 E17.32121
G1 X149.819 Y133.52 E17.3524
G1 X149.031 Y133.632 E17.37887
G1 X148.306 Y133.708 E17.40311
G1 X146.263 Y133.945 E17.47152
G1 X144.722 Y134.135 E17.52316
G1 X144.228 Y134.182 E17.53967
G1 X143.684 Y134.222 E17.55781
G1 X143.417 Y134.236 E17.5667
G1 X142.937 Y134.256 E17.58268
G1 X142.162 Y134.261 E17.60846
G1 X139.675 Y134.189 E17.69121
G1 X138.244 Y134.178 E17.73881
G1 X124.58 Y134.171 E18.19327
G1 X121.965 Y134.207 E18.28026
G1 X119.49 Y134.31 E18.36265
G1 X116.905 Y134.493 E18.44884
G1 X114.928 Y134.681 E18.51489
G1 X113.639 Y134.728 E18.55779
G1 X111.835 Y134.693 E18.61781
G1 X109.469 Y134.62 E18.69654
G1 X108.788 Y134.576 E18.71923
G1 X106.425 Y134.375 E18.79811
G1 X105.599 Y134.312 E18.82566
G1 X104.669 Y134.251 E18.85666
G1 X103.74 Y134.172 E18.88767
G1 X102.245 Y133.999 E18.93773
G1 X101.144 Y133.843 E18.97471
G1 X99.73 Y133.616 E19.02235
G1 X99.064 Y133.5 E19.04483
G1 X98.147 Y133.3 E19.07605
G1 X97.573 Y133.132 E19.09594
G1 X96.776 Y132.875 E19.12379
G1 X94.276 Y132.103 E19.21082
G1 X93.829 Y131.976 E19.22627
G1 X93.018 Y131.711 E19.25465
G1 X91.782 Y131.253 E19.29849
G1 X89.256 Y130.348 E19.38773
G1 X86.861 Y129.566 E19.47153
G1 X84.485 Y128.862 E19.55395
G1 X80.969 Y127.951 E19.67476
G1 X79.757 Y127.661 E19.71621
G1 X78.855 Y127.404 E19.7474
G1 X77.978 Y127.072 E19.77859
G1 X77.133 Y126.665 E19.80979
G1 X76.325 Y126.189 E19.84098
G1 X75.561 Y125.645 E19.87217
G1 X75.062 Y125.233 E19.89369
G1 X74.476 Y124.719 E19.91962
G1 X74.161 Y124.431 E19.93382
G1 X73.948 Y124.229 E19.94358
G1 X73.295 Y123.555 E19.97479
G1 X72.552 Y122.622 E20.01446
G1 X72.36 Y122.352 E20.02548
G1 X71.85 Y121.565 E20.05667
G1 X71.408 Y120.738 E20.08786
G1 X71.191 Y120.256 E20.10544
