;FLAVOR:Marlin
;TIME:2581
;Filament used: 1.28074m
;Layer height: 0.2
;MINX:84.097
;MINY:84.097
;MINZ:0.2
;MAXX:150.903
;MAXY:150.903
;MAXZ:37.4
;Generated with Cura_SteamEngine 4.6.1
M140 S60
M105
M190 S60
M104 S200
M105
M109 S200
M82 ;absolute extrusion mode
; Ender 3 Custom Start G-code
G92 E0 ; Reset Extruder
G28 ; Home all axes
G1 Z2.0 F3000 ; Move Z Axis up little to prevent scratching of Heat Bed
G1 X0.1 Y20 Z0.3 F5000.0 ; Move to start position
G1 X0.1 Y200.0 Z0.3 F1500.0 E15 ; Draw the first line
G1 X0.4 Y200.0 Z0.3 F5000.0 ; Move to side a little
G1 X0.4 Y20 Z0.3 F1500.0 E30 ; Draw the second line
G92 E0 ; Reset Extruder
G1 Z2.0 F3000 ; Move Z Axis up little to prevent scratching of Heat Bed
G1 X5 Y20 Z0.3 F5000.0 ; Move over to prevent blob squish
G92 E0
G92 E0
G1 F1500 E-6.5
;LAYER_COUNT:187
;LAYER:0
M107
G0 F6000 X118.966 Y85.001 Z0.2
;TYPE:SKIRT
G1 F1500 E0
G1 F1200 X119.853 Y85.17 E0.03003
G1 X120.722 Y85.417 E0.06008
G1 X121.565 Y85.74 E0.09011
G1 X122.376 Y86.136 E0.12012
G1 X123.15 Y86.603 E0.15019
G1 X123.879 Y87.136 E0.18023
G1 X124.558 Y87.731 E0.21025
G1 X125.182 Y88.384 E0.24029
G1 X125.639 Y88.948 E0.26444
G1 X126.108 Y89.569 E0.29032
G1 X126.954 Y90.717 E0.33775
G1 X128.54 Y92.748 E0.42346
G1 X130.146 Y94.692 E0.50733
G1 X131.826 Y96.609 E0.59211
G1 X133.541 Y98.459 E0.67601
G1 X135.307 Y100.258 E0.75986
G1 X137.161 Y102.043 E0.84546
G1 X139.044 Y103.757 E0.93015
G1 X140.947 Y105.394 E1.01364
G1 X142.925 Y106.997 E1.09832
G1 X146.096 Y109.393 E1.23051
G1 X146.788 Y109.973 E1.26054
G1 X147.427 Y110.611 E1.29057
G1 X148.007 Y111.303 E1.3206
G1 X148.523 Y112.044 E1.35063
G1 X148.972 Y112.828 E1.38068
G1 X149.35 Y113.648 E1.41072
G1 X149.654 Y114.499 E1.44077
G1 X149.881 Y115.373 E1.47081
G1 X150.03 Y116.264 E1.50085
G1 X150.099 Y117.164 E1.53087
G1 X150.089 Y118.067 E1.56091
G1 X149.999 Y118.966 E1.59096
G1 X149.83 Y119.853 E1.62099
G1 X149.583 Y120.722 E1.65104
G1 X149.26 Y121.565 E1.68107
G1 X148.864 Y122.376 E1.71108
G1 X148.397 Y123.15 E1.74115
G1 X147.864 Y123.879 E1.77119
G1 X147.269 Y124.558 E1.80121
G1 X146.616 Y125.182 E1.83126
G1 X146.052 Y125.639 E1.8554
G1 X145.431 Y126.108 E1.88128
G1 X144.283 Y126.954 E1.92871
G1 X142.248 Y128.543 E2.01459
G1 X140.313 Y130.141 E2.09805
G1 X138.389 Y131.829 E2.18318
G1 X136.54 Y133.542 E2.26702
G1 X134.723 Y135.325 E2.35169
G1 X132.973 Y137.143 E2.43562
G1 X131.243 Y139.044 E2.52111
G1 X129.606 Y140.947 E2.6046
G1 X128.003 Y142.925 E2.68928
G1 X125.607 Y146.096 E2.82147
G1 X125.027 Y146.788 E2.8515
G1 X124.389 Y147.427 E2.88153
G1 X123.697 Y148.007 E2.91156
G1 X122.956 Y148.523 E2.9416
G1 X122.172 Y148.972 E2.97165
G1 X121.352 Y149.35 E3.00168
G1 X120.501 Y149.654 E3.03173
G1 X119.627 Y149.881 E3.06177
G1 X118.736 Y150.03 E3.09181
G1 X117.836 Y150.099 E3.12184
G1 X116.933 Y150.089 E3.15187
G1 X116.034 Y149.999 E3.18192
G1 X115.147 Y149.83 E3.21195
G1 X114.278 Y149.583 E3.242
G1 X113.435 Y149.26 E3.27203
G1 X112.624 Y148.864 E3.30205
G1 X111.85 Y148.397 E3.33211
G1 X111.121 Y147.864 E3.36215
G1 X110.442 Y147.269 E3.39218
G1 X109.818 Y146.616 E3.42222
G1 X109.36 Y146.052 E3.44638
G1 X108.889 Y145.426 E3.47244
G1 X108.059 Y144.299 E3.51899
G1 X106.457 Y142.248 E3.60555
G1 X104.859 Y140.313 E3.68902
G1 X103.171 Y138.389 E3.77415
G1 X101.458 Y136.54 E3.85798
G1 X99.675 Y134.723 E3.94265
G1 X97.857 Y132.973 E4.02658
G1 X95.956 Y131.243 E4.11207
G1 X94.053 Y129.606 E4.19556
G1 X92.075 Y128.003 E4.28024
G1 X88.904 Y125.607 E4.41243
G1 X88.212 Y125.027 E4.44246
G1 X87.573 Y124.389 E4.4725
G1 X86.993 Y123.697 E4.50253
G1 X86.477 Y122.956 E4.53256
G1 X86.028 Y122.172 E4.56261
G1 X85.65 Y121.352 E4.59264
G1 X85.346 Y120.501 E4.6227
G1 X85.119 Y119.627 E4.65273
G1 X84.97 Y118.736 E4.68278
G1 X84.901 Y117.836 E4.7128
G1 X84.911 Y116.933 E4.74283
G1 X85.001 Y116.034 E4.77288
G1 X85.17 Y115.147 E4.80292
G1 X85.417 Y114.278 E4.83296
G1 X85.74 Y113.435 E4.86299
G1 X86.136 Y112.624 E4.89301
G1 X86.603 Y111.85 E4.92307
G1 X87.136 Y111.121 E4.95311
G1 X87.731 Y110.442 E4.98314
G1 X88.384 Y109.818 E5.01318
G1 X88.948 Y109.361 E5.03732
G1 X89.569 Y108.892 E5.06321
G1 X90.717 Y108.046 E5.11064
G1 X92.752 Y106.457 E5.19651
G1 X94.687 Y104.859 E5.27998
G1 X96.611 Y103.171 E5.36511
G1 X98.46 Y101.458 E5.44894
G1 X100.277 Y99.675 E5.53361
G1 X102.027 Y97.857 E5.61754
G1 X103.757 Y95.956 E5.70303
G1 X105.394 Y94.053 E5.78652
G1 X106.997 Y92.075 E5.8712
G1 X109.393 Y88.904 E6.00339
G1 X109.973 Y88.212 E6.03342
G1 X110.611 Y87.573 E6.06346
G1 X111.303 Y86.993 E6.09349
G1 X112.044 Y86.477 E6.12352
G1 X112.828 Y86.028 E6.15357
G1 X113.648 Y85.65 E6.1836
G1 X114.499 Y85.346 E6.21366
G1 X115.373 Y85.119 E6.24369
G1 X116.264 Y84.97 E6.27374
G1 X117.164 Y84.901 E6.30376
G1 X118.067 Y84.911 E6.3338
G1 X118.966 Y85.001 E6.36385
G0 F6000 X119.718 Y84.73
G1 F1200 X120.609 Y84.961 E6.39446
G1 X121.477 Y85.269 E6.42509
G1 X122.315 Y85.651 E6.45572
G1 X123.116 Y86.105 E6.48635
G1 X123.875 Y86.626 E6.51697
G1 X124.586 Y87.211 E6.54759
G1 X125.243 Y87.856 E6.57821
G1 X125.959 Y88.707 E6.6152
G1 X126.43 Y89.332 E6.64123
G1 X127.275 Y90.48 E6.68864
G1 X128.847 Y92.493 E6.77359
G1 X130.453 Y94.436 E6.85744
G1 X132.104 Y96.319 E6.94073
G1 X133.838 Y98.19 E7.02557
G1 X135.605 Y99.99 E7.10947
G1 X137.424 Y101.742 E7.19347
G1 X139.278 Y103.429 E7.27684
G1 X141.214 Y105.095 E7.36179
G1 X143.169 Y106.679 E7.44548
G1 X146.338 Y109.075 E7.57761
G1 X147.045 Y109.665 E7.60824
G1 X147.698 Y110.315 E7.63889
G1 X148.292 Y111.018 E7.6695
G1 X148.823 Y111.77 E7.70012
G1 X149.286 Y112.566 E7.73074
G1 X149.679 Y113.398 E7.76135
G1 X149.998 Y114.262 E7.79198
G1 X150.241 Y115.15 E7.8226
G1 X150.406 Y116.056 E7.85323
G1 X150.492 Y116.972 E7.88383
G1 X150.498 Y117.893 E7.91446
G1 X150.424 Y118.811 E7.9451
G1 X150.27 Y119.718 E7.9757
G1 X150.039 Y120.609 E8.00631
G1 X149.731 Y121.477 E8.03694
G1 X149.349 Y122.315 E8.06757
G1 X148.895 Y123.116 E8.0982
G1 X148.374 Y123.875 E8.12882
G1 X147.789 Y124.586 E8.15944
G1 X147.144 Y125.243 E8.19006
G1 X146.293 Y125.959 E8.22705
G1 X145.668 Y126.43 E8.25308
G1 X144.52 Y127.275 E8.30049
G1 X142.526 Y128.833 E8.38466
G1 X140.546 Y130.469 E8.47009
G1 X138.681 Y132.104 E8.55258
G1 X136.809 Y133.839 E8.63747
G1 X135.01 Y135.605 E8.72132
G1 X133.257 Y137.425 E8.80536
G1 X131.56 Y139.291 E8.88925
G1 X129.905 Y141.214 E8.97364
G1 X128.321 Y143.169 E9.05733
G1 X125.925 Y146.338 E9.18946
G1 X125.335 Y147.045 E9.22009
G1 X124.685 Y147.698 E9.25073
G1 X123.982 Y148.292 E9.28135
G1 X123.23 Y148.823 E9.31196
G1 X122.434 Y149.286 E9.34259
G1 X121.602 Y149.679 E9.3732
G1 X120.738 Y149.998 E9.40383
G1 X119.85 Y150.241 E9.43445
G1 X118.944 Y150.406 E9.46508
G1 X118.028 Y150.492 E9.49568
G1 X117.107 Y150.498 E9.52631
G1 X116.189 Y150.424 E9.55695
G1 X115.282 Y150.27 E9.58754
G1 X114.391 Y150.039 E9.61816
G1 X113.523 Y149.731 E9.64879
G1 X112.685 Y149.349 E9.67942
G1 X111.884 Y148.895 E9.71005
G1 X111.125 Y148.374 E9.74067
G1 X110.414 Y147.789 E9.77129
G1 X109.757 Y147.144 E9.80191
G1 X109.041 Y146.293 E9.8389
G1 X108.567 Y145.664 E9.8651
G1 X107.725 Y144.52 E9.91234
G1 X106.167 Y142.526 E9.99651
G1 X104.531 Y140.546 E10.08193
G1 X102.896 Y138.681 E10.16443
G1 X101.161 Y136.809 E10.24932
G1 X99.395 Y135.01 E10.33316
G1 X97.575 Y133.257 E10.41721
G1 X95.709 Y131.56 E10.5011
G1 X93.786 Y129.905 E10.58549
G1 X91.831 Y128.321 E10.66917
G1 X88.662 Y125.925 E10.80131
G1 X87.955 Y125.335 E10.83194
G1 X87.302 Y124.685 E10.86258
G1 X86.708 Y123.982 E10.89319
G1 X86.177 Y123.23 E10.92381
G1 X85.714 Y122.434 E10.95444
G1 X85.321 Y121.602 E10.98504
G1 X85.002 Y120.738 E11.01568
G1 X84.759 Y119.85 E11.0463
G1 X84.594 Y118.944 E11.07693
G1 X84.508 Y118.028 E11.10753
G1 X84.502 Y117.107 E11.13816
G1 X84.576 Y116.189 E11.16879
G1 X84.73 Y115.282 E11.19939
G1 X84.961 Y114.391 E11.23001
G1 X85.269 Y113.523 E11.26064
G1 X85.651 Y112.685 E11.29127
G1 X86.105 Y111.884 E11.32189
G1 X86.626 Y111.125 E11.35251
G1 X87.211 Y110.414 E11.38314
G1 X87.856 Y109.757 E11.41376
G1 X88.707 Y109.041 E11.45075
G1 X89.332 Y108.57 E11.47678
G1 X90.48 Y107.725 E11.52419
G1 X92.474 Y106.167 E11.60835
G1 X94.454 Y104.531 E11.69378
G1 X96.319 Y102.896 E11.77627
G1 X98.191 Y101.161 E11.86117
G1 X99.99 Y99.395 E11.94501
G1 X101.743 Y97.575 E12.02906
G1 X103.44 Y95.709 E12.11295
G1 X105.095 Y93.786 E12.19733
G1 X106.679 Y91.831 E12.28102
G1 X109.075 Y88.662 E12.41316
G1 X109.665 Y87.955 E12.44379
G1 X110.315 Y87.302 E12.47443
G1 X111.018 Y86.708 E12.50504
G1 X111.77 Y86.177 E12.53566
G1 X112.566 Y85.714 E12.56629
G1 X113.398 Y85.321 E12.59689
G1 X114.262 Y85.002 E12.62753
G1 X115.15 Y84.759 E12.65815
G1 X116.056 Y84.594 E12.68878
G1 X116.972 Y84.508 E12.71938
G1 X117.893 Y84.502 E12.75001
G1 X118.811 Y84.576 E12.78064
G1 X119.718 Y84.73 E12.81124
G0 F6000 X119.579 Y84.293
G1 F1200 X120.491 Y84.509 E12.84241
G1 X121.382 Y84.803 E12.87362
G1 X122.245 Y85.171 E12.90482
G1 X123.073 Y85.611 E12.93601
G1 X123.86 Y86.12 E12.96718
G1 X124.602 Y86.695 E12.9984
G1 X125.291 Y87.33 E13.02957
G1 X125.925 Y88.022 E13.06078
G1 X126.278 Y88.465 E13.07962
G1 X126.752 Y89.095 E13.10585
G1 X127.597 Y90.242 E13.15323
G1 X129.155 Y92.237 E13.23742
G1 X130.747 Y94.164 E13.32056
G1 X132.415 Y96.067 E13.40472
G1 X134.116 Y97.902 E13.48794
G1 X135.886 Y99.705 E13.57198
G1 X137.706 Y101.458 E13.65603
G1 X139.557 Y103.142 E13.73926
G1 X141.497 Y104.811 E13.82437
G1 X143.375 Y106.333 E13.90477
G1 X146.581 Y108.758 E14.03847
G1 X147.301 Y109.358 E14.06965
G1 X147.968 Y110.018 E14.10085
G1 X148.576 Y110.732 E14.13205
G1 X149.121 Y111.495 E14.16323
G1 X149.599 Y112.302 E14.19443
G1 X150.007 Y113.147 E14.22564
G1 X150.341 Y114.023 E14.25682
G1 X150.599 Y114.924 E14.28799
G1 X150.78 Y115.845 E14.31921
G1 X150.881 Y116.777 E14.35039
G1 X150.903 Y117.715 E14.3816
G1 X150.845 Y118.651 E14.41279
G1 X150.707 Y119.579 E14.44399
G1 X150.491 Y120.491 E14.47517
G1 X150.197 Y121.382 E14.50637
G1 X149.829 Y122.245 E14.53758
G1 X149.389 Y123.073 E14.56876
G1 X148.88 Y123.86 E14.59994
G1 X148.305 Y124.602 E14.63116
G1 X147.67 Y125.291 E14.66232
G1 X146.978 Y125.925 E14.69354
G1 X146.535 Y126.278 E14.71238
G1 X145.905 Y126.752 E14.7386
G1 X144.758 Y127.597 E14.78598
G1 X142.763 Y129.155 E14.87017
G1 X140.835 Y130.748 E14.95336
G1 X138.933 Y132.415 E15.03748
G1 X137.097 Y134.117 E15.12074
G1 X135.303 Y135.878 E15.20436
G1 X133.541 Y137.707 E15.28882
G1 X131.858 Y139.557 E15.37201
G1 X130.189 Y141.497 E15.45713
G1 X128.667 Y143.375 E15.53753
G1 X126.242 Y146.581 E15.67123
G1 X125.642 Y147.301 E15.7024
G1 X124.982 Y147.968 E15.73361
G1 X124.268 Y148.576 E15.7648
G1 X123.505 Y149.121 E15.79599
G1 X122.698 Y149.599 E15.82718
G1 X121.853 Y150.007 E15.85839
G1 X120.977 Y150.341 E15.88957
G1 X120.076 Y150.599 E15.92074
G1 X119.155 Y150.78 E15.95196
G1 X118.223 Y150.881 E15.98314
G1 X117.285 Y150.903 E16.01435
G1 X116.349 Y150.845 E16.04554
G1 X115.421 Y150.707 E16.07675
G1 X114.509 Y150.491 E16.10792
G1 X113.618 Y150.197 E16.13912
G1 X112.755 Y149.829 E16.17033
G1 X111.927 Y149.389 E16.20151
G1 X111.14 Y148.88 E16.23269
G1 X110.398 Y148.305 E16.26391
G1 X109.709 Y147.67 E16.29507
G1 X109.075 Y146.978 E16.32629
G1 X108.722 Y146.534 E16.34516
G1 X108.245 Y145.901 E16.37152
G1 X107.403 Y144.758 E16.41874
G1 X105.845 Y142.763 E16.50293
G1 X104.252 Y140.835 E16.58611
G1 X102.585 Y138.933 E16.67023
G1 X100.883 Y137.097 E16.7535
G1 X99.114 Y135.295 E16.83748
G1 X97.293 Y133.541 E16.92158
G1 X95.443 Y131.858 E17.00476
G1 X93.494 Y130.182 E17.09026
G1 X91.625 Y128.667 E17.17028
G1 X88.419 Y126.242 E17.30398
G1 X87.699 Y125.642 E17.33515
G1 X87.032 Y124.982 E17.36636
G1 X86.424 Y124.268 E17.39755
G1 X85.879 Y123.505 E17.42874
G1 X85.401 Y122.698 E17.45993
G1 X84.993 Y121.853 E17.49114
G1 X84.659 Y120.977 E17.52232
G1 X84.401 Y120.076 E17.5535
G1 X84.22 Y119.155 E17.58471
G1 X84.119 Y118.223 E17.61589
G1 X84.097 Y117.285 E17.6471
G1 X84.155 Y116.349 E17.67829
G1 X84.293 Y115.421 E17.7095
G1 X84.509 Y114.509 E17.74067
G1 X84.803 Y113.618 E17.77188
G1 X85.171 Y112.755 E17.80308
G1 X85.611 Y111.927 E17.83427
G1 X86.12 Y111.14 E17.86544
G1 X86.695 Y110.398 E17.89666
G1 X87.33 Y109.709 E17.92783
G1 X88.022 Y109.075 E17.95904
G1 X88.465 Y108.722 E17.97788
G1 X89.095 Y108.248 E18.0041
G1 X90.242 Y107.403 E18.05149
G1 X92.237 Y105.845 E18.13568
G1 X94.165 Y104.252 E18.21886
G1 X96.067 Y102.585 E18.30298
G1 X97.903 Y100.883 E18.38625
G1 X99.705 Y99.114 E18.47024
G1 X101.459 Y97.293 E18.55433
G1 X103.142 Y95.443 E18.63751
G1 X104.811 Y93.503 E18.72263
G1 X106.333 Y91.625 E18.80303
G1 X108.758 Y88.419 E18.93673
G1 X109.358 Y87.699 E18.9679
G1 X110.018 Y87.032 E18.99911
G1 X110.732 Y86.424 E19.0303
G1 X111.495 Y85.879 E19.06149
G1 X112.302 Y85.401 E19.09269
G1 X113.147 Y84.993 E19.1239
G1 X114.023 Y84.659 E19.15508
G1 X114.924 Y84.401 E19.18625
G1 X115.845 Y84.22 E19.21747
G1 X116.777 Y84.119 E19.24865
G1 X117.715 Y84.097 E19.27985
G1 X118.651 Y84.155 E19.31104
G1 X119.579 Y84.293 E19.34225
G1 F1500 E12.84225
;MESH:straw rocket.stl
G0 F6000 X117.506 Y114.877
G0 X117.507 Y113.404
G0 X119.699 Y114.472
G0 X120.531 Y115.307
G0 X121.062 Y116.351
G0 X121.241 Y117.5
G0 X121.057 Y118.663
G0 X120.528 Y119.699
G0 X119.699 Y120.528
G0 X118.856 Y120.958
G0 X117.5 Y121.406
;TYPE:WALL-INNER
G1 F1500 E19.34225
G1 F1200 X118.707 Y121.214 E19.3829
G1 X119.795 Y120.66 E19.42351
G1 X120.66 Y119.795 E19.46419
G1 X121.211 Y118.713 E19.50458
G1 X121.404 Y117.501 E19.5454
G1 X121.216 Y116.3 E19.58583
G1 X120.663 Y115.211 E19.62645
G1 X119.795 Y114.341 E19.66733
G1 X118.713 Y113.789 E19.70773
G1 X117.507 Y113.597 E19.74835
G1 X116.294 Y113.786 E19.78918
G1 X115.211 Y114.337 E19.82959
G1 X114.346 Y115.199 E19.87021
G1 X113.786 Y116.293 E19.91108
G1 X113.597 Y117.494 E19.95152
G1 X113.786 Y118.706 E19.99232
G1 X114.337 Y119.789 E20.03273
G1 X115.199 Y120.654 E20.07335
G1 X116.292 Y121.214 E20.1142
G1 X117.5 Y121.406 E20.15488
G0 F6000 X117.5 Y121.001
;TYPE:WALL-OUTER
G1 F1200 X118.582 Y120.829 E20.19132
G1 X119.557 Y120.332 E20.22772
G1 X120.332 Y119.557 E20.26417
G1 X120.826 Y118.588 E20.30035
G1 X120.999 Y117.5 E20.33699
G1 X120.831 Y116.425 E20.37318
G1 X120.335 Y115.449 E20.40959
G1 X119.557 Y114.668 E20.44626
G1 X118.588 Y114.174 E20.48243
G1 X117.506 Y114.002 E20.51887
G1 X116.419 Y114.171 E20.55546
G1 X115.449 Y114.665 E20.59167
G1 X114.673 Y115.438 E20.6281
G1 X114.171 Y116.418 E20.66472
G1 X114.002 Y117.494 E20.70094
G1 X114.171 Y118.581 E20.73753
G1 X114.665 Y119.551 E20.77374
G1 X115.438 Y120.327 E20.81017
G1 X116.418 Y120.829 E20.84679
G1 X117.5 Y121.001 E20.88323
G0 F6000 X117.5 Y121.441
G1 F1500 E14.38323
G0 F6000 X117.5 Y121.599
G0 X117.096 Y124.136
G0 X117.201 Y124.448
G0 X117.5 Y130.515
;TYPE:WALL-INNER
G1 F1500 E20.88323
G1 F1200 X117.453 Y128.696 E20.94375
G1 X117.394 Y124.377 E21.08741
G1 X115.387 Y124.058 E21.15501
G1 X113.457 Y123.082 E21.22694
G1 X111.928 Y121.556 E21.29879
G1 X110.945 Y119.632 E21.37065
G1 X110.623 Y117.606 E21.43888
G1 X106.304 Y117.547 E21.58254
G1 X104.485 Y117.5 E21.64306
G1 X106.304 Y117.453 E21.65019
G1 X110.623 Y117.394 E21.7051
G1 X110.941 Y115.387 E21.77269
G1 X111.919 Y113.457 E21.84465
G1 X113.447 Y111.925 E21.91662
G1 X115.368 Y110.945 E21.98834
G1 X117.394 Y110.623 E22.05657
G1 X117.453 Y106.304 E22.20024
G1 X117.5 Y104.483 E22.26083
G1 X117.547 Y106.297 E22.26783
G1 X117.606 Y110.623 E22.32308
G1 X119.613 Y110.942 E22.39067
G1 X121.543 Y111.918 E22.46261
G1 X123.074 Y113.446 E22.53455
G1 X124.055 Y115.368 E22.60632
G1 X124.377 Y117.394 E22.67455
G1 X128.696 Y117.453 E22.81822
G1 X130.515 Y117.5 E22.87874
G1 X128.696 Y117.547 E22.88579
G1 X124.377 Y117.606 E22.9407
G1 X124.058 Y119.613 E23.00829
G1 X123.082 Y121.542 E23.08019
G1 X121.553 Y123.074 E23.15218
G1 X119.635 Y124.053 E23.22381
G1 X117.606 Y124.377 E23.29215
G1 X117.547 Y128.696 E23.34687
G1 X117.5 Y130.515 E23.35393
G1 F1500 E16.85393
G0 F6000 X117.5 Y136.252
G0 X117.5 Y139.061
;TYPE:WALL-OUTER
G1 F1500 E23.35393
G1 F1200 X117.327 Y136.911 E23.42567
G1 X117.173 Y133.347 E23.54432
G1 X117.053 Y128.706 E23.69873
G1 X116.999 Y124.719 E23.83135
G1 X115.261 Y124.443 E23.88988
G1 X113.222 Y123.411 E23.96589
