;FLAVOR:Marlin
;TIME:8592
;Filament used: 5.6063m
;Layer height: 0.2
;MINX:66.719
;MINY:101.798
;MINZ:0.2
;MAXX:167.124
;MAXY:133.669
;MAXZ:19.4
;Generated with Cura_SteamEngine 4.6.1
M140 S60
M105
M190 S60
M104 S200
M105
M109 S200
M82 ;absolute extrusion mode
; Ender 3 Custom Start G-code
G92 E0 ; Reset Extruder
G28 ; Home all axes
G1 Z2.0 F3000 ; Move Z Axis up little to prevent scratching of Heat Bed
G1 X0.1 Y20 Z0.3 F5000.0 ; Move to start position
G1 X0.1 Y200.0 Z0.3 F1500.0 E15 ; Draw the first line
G1 X0.4 Y200.0 Z0.3 F5000.0 ; Move to side a little
G1 X0.4 Y20 Z0.3 F1500.0 E30 ; Draw the second line
G92 E0 ; Reset Extruder
G1 Z2.0 F3000 ; Move Z Axis up little to prevent scratching of Heat Bed
G1 X5 Y20 Z0.3 F5000.0 ; Move over to prevent blob squish
G92 E0
G92 E0
G1 F1500 E-6.5
;LAYER_COUNT:97
;LAYER:0
M107
G0 F6000 X70.343 Y108.267 Z0.2
;TYPE:SKIRT
G1 F1500 E0
G1 F1200 X71.023 Y107.866 E0.02626
G1 X71.741 Y107.536 E0.05254
G1 X72.488 Y107.281 E0.07879
G1 X73.257 Y107.102 E0.10505
G1 X74.041 Y107.002 E0.13134
G1 X74.636 Y106.979 E0.15114
G1 X107.753 Y106.978 E1.25262
G1 X107.88 Y106.903 E1.25753
G1 X108.597 Y106.573 E1.28378
G1 X109.344 Y106.317 E1.31004
G1 X110.114 Y106.138 E1.33634
G1 X110.897 Y106.037 E1.36259
G1 X111.485 Y106.014 E1.38217
G1 X112.162 Y106.013 E1.40468
G1 X115.822 Y106.014 E1.52641
G1 X116.115 Y105.93 E1.53655
G1 X116.297 Y105.897 E1.5427
G1 X116.886 Y105.725 E1.56311
G1 X117.249 Y105.658 E1.57539
G1 X117.705 Y105.524 E1.5912
G1 X117.805 Y105.505 E1.59458
G1 X117.897 Y105.419 E1.59877
G1 X118.525 Y104.941 E1.62502
G1 X118.667 Y104.854 E1.63056
G1 X118.774 Y104.754 E1.63543
G1 X119.403 Y104.277 E1.66169
G1 X120.015 Y103.9 E1.6856
G1 X120.334 Y103.723 E1.69773
G1 X121.043 Y103.375 E1.724
G1 X121.783 Y103.101 E1.75024
G1 X122.16 Y103.003 E1.7632
G1 X122.367 Y102.925 E1.77056
G1 X122.976 Y102.763 E1.79152
G1 X123.068 Y102.73 E1.79477
G1 X123.825 Y102.504 E1.82104
G1 X124.6 Y102.355 E1.84729
G1 X124.718 Y102.345 E1.85123
G1 X124.83 Y102.311 E1.85512
G1 X125.605 Y102.163 E1.88137
G1 X126.392 Y102.094 E1.90764
G1 X126.471 Y102.096 E1.91027
G1 X126.817 Y102.028 E1.922
G1 X127.599 Y101.914 E1.94828
G1 X128.388 Y101.88 E1.97455
G1 X129.14 Y101.924 E1.9996
G1 X130.932 Y101.809 E2.05933
G1 X131.722 Y101.798 E2.08561
G1 X132.508 Y101.868 E2.11185
G1 X133.284 Y102.016 E2.13813
G1 X133.902 Y102.195 E2.15953
G1 X134.24 Y102.308 E2.17138
G1 X134.476 Y102.347 E2.17934
G1 X135.238 Y102.554 E2.2056
G1 X135.975 Y102.837 E2.23186
G1 X136.812 Y103.271 E2.26322
G1 X137.211 Y103.509 E2.27867
G1 X137.641 Y103.516 E2.29297
G1 X138.426 Y103.608 E2.31926
G1 X138.53 Y103.631 E2.3228
G1 X139.397 Y103.595 E2.35166
G1 X139.832 Y103.381 E2.36779
G1 X140.572 Y103.105 E2.39406
G1 X140.98 Y102.999 E2.40808
G1 X141.158 Y102.931 E2.41442
G1 X141.756 Y102.77 E2.43501
G1 X141.883 Y102.725 E2.43949
G1 X142.64 Y102.499 E2.46577
G1 X143.416 Y102.352 E2.49204
G1 X143.517 Y102.343 E2.49541
G1 X143.617 Y102.313 E2.49888
G1 X144.393 Y102.163 E2.52517
G1 X145.179 Y102.093 E2.55142
G1 X145.274 Y102.096 E2.55458
G1 X145.618 Y102.028 E2.56624
G1 X146.4 Y101.914 E2.59253
G1 X147.189 Y101.88 E2.61879
G1 X147.94 Y101.924 E2.64381
G1 X149.729 Y101.809 E2.70344
G1 X150.519 Y101.798 E2.72972
G1 X151.306 Y101.868 E2.756
G1 X152.081 Y102.016 E2.78224
G1 X152.704 Y102.196 E2.80381
G1 X153.058 Y102.314 E2.81622
G1 X153.301 Y102.355 E2.82442
G1 X154.062 Y102.564 E2.85066
G1 X154.799 Y102.848 E2.87693
G1 X155.62 Y103.274 E2.9077
G1 X156.205 Y103.623 E2.93035
G1 X156.862 Y104.062 E2.95663
G1 X157.471 Y104.564 E2.98288
G1 X158.056 Y105.159 E3.01064
G1 X158.976 Y106.201 E3.05687
G1 X159.087 Y106.341 E3.06281
G1 X159.206 Y106.409 E3.06737
G1 X159.847 Y106.87 E3.09363
G1 X160.314 Y107.275 E3.11419
G1 X160.954 Y107.875 E3.14337
G1 X161.345 Y108.118 E3.15868
G1 X162.215 Y108.819 E3.19584
G1 X162.699 Y109.27 E3.21785
G1 X163.067 Y109.489 E3.23209
G1 X163.713 Y109.943 E3.25835
G1 X164.311 Y110.459 E3.28462
G1 X164.853 Y111.034 E3.3109
G1 X165.334 Y111.66 E3.33716
G1 X165.894 Y112.606 E3.37372
G1 X166.025 Y112.868 E3.38347
G1 X166.341 Y113.591 E3.40971
G1 X166.486 Y114.007 E3.42436
G1 X166.6 Y114.368 E3.43695
G1 X166.851 Y115.407 E3.4725
G1 X167.017 Y116.381 E3.50537
G1 X167.11 Y117.165 E3.53163
G1 X167.124 Y117.954 E3.55787
G1 X167.007 Y119.059 E3.59483
G1 X166.837 Y120.013 E3.62706
G1 X166.64 Y120.848 E3.65559
G1 X166.534 Y121.208 E3.66808
G1 X166.273 Y121.953 E3.69433
G1 X165.963 Y122.622 E3.71886
G1 X165.829 Y122.878 E3.72847
G1 X165.427 Y123.558 E3.75474
G1 X164.96 Y124.195 E3.78101
G1 X164.43 Y124.78 E3.80727
G1 X163.843 Y125.309 E3.83355
G1 X163.207 Y125.776 E3.85979
G1 X162.734 Y126.054 E3.87804
G1 X162.235 Y126.522 E3.90079
G1 X161.631 Y127.031 E3.92706
G1 X160.979 Y127.476 E3.95332
G1 X160.877 Y127.532 E3.95719
G1 X160.266 Y128.099 E3.98491
G1 X159.661 Y128.607 E4.01119
G1 X159.38 Y128.798 E4.02249
G1 X159.018 Y129.253 E4.04183
G1 X158.124 Y130.267 E4.08679
G1 X157.572 Y130.833 E4.11309
G1 X156.966 Y131.339 E4.13934
G1 X156.104 Y131.903 E4.17361
G1 X155.728 Y132.115 E4.18796
G1 X155.021 Y132.468 E4.21425
G1 X154.341 Y132.728 E4.23846
G1 X152.677 Y133.277 E4.29674
G1 X151.915 Y133.486 E4.32302
G1 X151.137 Y133.617 E4.34926
G1 X150.349 Y133.669 E4.37553
G1 X149.741 Y133.654 E4.39575
G1 X148.998 Y133.607 E4.42052
G1 X147.224 Y133.607 E4.47952
G1 X146.435 Y133.567 E4.50579
G1 X145.715 Y133.46 E4.53
G1 X144.249 Y133.171 E4.5797
G1 X143.448 Y133.052 E4.60664
G1 X142.688 Y132.841 E4.63287
G1 X142.018 Y132.711 E4.65557
G1 X140.604 Y132.281 E4.70473
G1 X139.876 Y131.975 E4.73099
G1 X139.551 Y131.806 E4.74318
G1 X139.418 Y131.761 E4.74785
G1 X138.613 Y131.728 E4.77464
G1 X138.482 Y131.756 E4.7791
G1 X137.697 Y131.845 E4.80537
G1 X137.175 Y131.852 E4.82274
G1 X136.899 Y132.017 E4.83343
G1 X136.201 Y132.387 E4.85971
G1 X135.47 Y132.685 E4.88596
G1 X134.712 Y132.908 E4.91224
G1 X134.435 Y132.963 E4.92164
G1 X133.671 Y133.179 E4.94804
G1 X132.894 Y133.316 E4.97429
G1 X132.106 Y133.374 E5.00057
G1 X131.844 Y133.373 E5.00928
G1 X131.306 Y133.432 E5.02728
G1 X130.518 Y133.479 E5.05354
G1 X129.969 Y133.464 E5.0718
G1 X128.951 Y133.401 E5.10573
G1 X128.874 Y133.411 E5.10831
G1 X128.085 Y133.437 E5.13457
G1 X127.297 Y133.382 E5.16084
G1 X126.721 Y133.291 E5.18023
G1 X126.216 Y133.192 E5.19735
G1 X126.106 Y133.191 E5.20101
G1 X125.321 Y133.106 E5.22727
G1 X124.548 Y132.943 E5.25355
G1 X124.321 Y132.873 E5.26145
G1 X124.246 Y132.866 E5.26395
G1 X123.471 Y132.715 E5.29021
G1 X122.877 Y132.53 E5.31091
G1 X122.792 Y132.509 E5.31382
G1 X122.037 Y132.279 E5.34007
G1 X121.308 Y131.974 E5.36635
G1 X120.947 Y131.789 E5.37984
G1 X120.641 Y131.622 E5.39144
G1 X119.993 Y131.226 E5.4167
G1 X119.764 Y131.07 E5.42591
G1 X119.48 Y130.949 E5.43618
G1 X118.788 Y130.567 E5.46247
G1 X118.139 Y130.118 E5.48872
G1 X117.854 Y129.863 E5.50144
G1 X117.208 Y129.688 E5.5237
G1 X116.827 Y129.613 E5.53661
G1 X116.422 Y129.49 E5.55069
G1 X116.029 Y129.412 E5.56402
G1 X115.796 Y129.341 E5.57212
G1 X111.497 Y129.341 E5.7151
G1 X110.708 Y129.301 E5.74138
G1 X109.928 Y129.182 E5.76762
G1 X109.163 Y128.984 E5.79391
G1 X108.423 Y128.71 E5.82015
G1 X107.74 Y128.375 E5.84545
G1 X74.636 Y128.374 E6.9465
G1 X73.847 Y128.334 E6.97277
G1 X73.067 Y128.214 E6.99902
G1 X72.302 Y128.017 E7.0253
G1 X71.561 Y127.742 E7.05158
G1 X70.852 Y127.395 E7.07784
G1 X70.182 Y126.977 E7.1041
G1 X69.557 Y126.494 E7.13037
G1 X69.121 Y126.089 E7.15017
G1 X69.004 Y125.972 E7.15567
G1 X68.474 Y125.386 E7.18195
G1 X68.007 Y124.75 E7.20819
G1 X67.606 Y124.07 E7.23445
G1 X67.276 Y123.352 E7.26073
G1 X67.021 Y122.605 E7.28699
G1 X66.842 Y121.836 E7.31325
G1 X66.742 Y121.052 E7.33953
G1 X66.719 Y120.457 E7.35934
G1 X66.719 Y114.896 E7.5443
G1 X66.759 Y114.107 E7.57057
G1 X66.878 Y113.327 E7.59682
G1 X67.076 Y112.562 E7.6231
G1 X67.35 Y111.822 E7.64934
G1 X67.698 Y111.113 E7.67561
G1 X68.116 Y110.442 E7.70191
G1 X68.599 Y109.818 E7.72815
G1 X69.004 Y109.381 E7.74797
G1 X69.121 Y109.264 E7.75347
G1 X69.707 Y108.734 E7.77975
G1 X70.343 Y108.267 E7.806
G0 F6000 X70.597 Y108.579
G1 F1200 X71.262 Y108.193 E7.83157
G1 X71.964 Y107.878 E7.85716
G1 X72.695 Y107.638 E7.88275
G1 X73.446 Y107.475 E7.90831
G1 X74.211 Y107.391 E7.93391
G1 X74.636 Y107.379 E7.94805
G1 X107.864 Y107.378 E9.05322
G1 X108.119 Y107.23 E9.06302
G1 X108.821 Y106.915 E9.08862
G1 X109.551 Y106.674 E9.11418
G1 X110.303 Y106.511 E9.13978
G1 X111.067 Y106.426 E9.16534
G1 X111.486 Y106.414 E9.17929
G1 X112.163 Y106.413 E9.2018
G1 X115.879 Y106.414 E9.3254
G1 X116.245 Y106.311 E9.33804
G1 X116.389 Y106.286 E9.3429
G1 X117.018 Y106.105 E9.36467
G1 X117.342 Y106.047 E9.37562
G1 X117.837 Y105.903 E9.39277
G1 X117.996 Y105.874 E9.39814
G1 X118.17 Y105.712 E9.40605
G1 X118.784 Y105.249 E9.43163
G1 X118.915 Y105.17 E9.43672
G1 X119.047 Y105.047 E9.44272
G1 X119.662 Y104.585 E9.4683
G1 X120.209 Y104.249 E9.48965
G1 X120.528 Y104.072 E9.50179
G1 X121.219 Y103.735 E9.52736
G1 X121.941 Y103.47 E9.55294
G1 X122.285 Y103.384 E9.56473
G1 X122.527 Y103.293 E9.57333
G1 X123.101 Y103.143 E9.59306
G1 X123.202 Y103.107 E9.59663
G1 X123.939 Y102.887 E9.62221
G1 X124.695 Y102.746 E9.64779
G1 X124.802 Y102.737 E9.65136
G1 X124.944 Y102.695 E9.65628
G1 X125.7 Y102.554 E9.68186
G1 X126.466 Y102.492 E9.70742
G1 X126.521 Y102.494 E9.70925
G1 X126.895 Y102.42 E9.72193
G1 X127.656 Y102.31 E9.74751
G1 X128.425 Y102.281 E9.7731
G1 X129.116 Y102.326 E9.79614
G1 X130.958 Y102.208 E9.85753
G1 X131.727 Y102.199 E9.8831
G1 X132.493 Y102.27 E9.90869
G1 X133.247 Y102.419 E9.93425
G1 X133.775 Y102.574 E9.95256
G1 X134.147 Y102.698 E9.9656
G1 X134.41 Y102.742 E9.97447
G1 X135.152 Y102.947 E10.00007
G1 X135.868 Y103.228 E10.02565
G1 X136.607 Y103.614 E10.05338
G1 X137.099 Y103.908 E10.07245
G1 X137.635 Y103.917 E10.09028
G1 X138.398 Y104.009 E10.11584
G1 X138.499 Y104.032 E10.11928
G1 X139.498 Y103.99 E10.15254
G1 X140.009 Y103.74 E10.17146
G1 X140.731 Y103.475 E10.19704
G1 X141.103 Y103.381 E10.2098
G1 X141.32 Y103.299 E10.21752
G1 X141.885 Y103.149 E10.23696
G1 X142.017 Y103.102 E10.24162
G1 X142.754 Y102.883 E10.26719
G1 X143.51 Y102.742 E10.29277
G1 X143.607 Y102.734 E10.29601
G1 X143.732 Y102.697 E10.30034
G1 X144.488 Y102.554 E10.32594
G1 X145.255 Y102.49 E10.35153
G1 X145.328 Y102.493 E10.35396
G1 X145.696 Y102.42 E10.36644
G1 X146.457 Y102.31 E10.39202
G1 X147.226 Y102.281 E10.41761
G1 X147.916 Y102.326 E10.44061
G1 X149.755 Y102.208 E10.5019
G1 X150.524 Y102.199 E10.52748
G1 X151.29 Y102.269 E10.55306
G1 X152.044 Y102.419 E10.57863
G1 X152.578 Y102.576 E10.59715
G1 X152.959 Y102.704 E10.61051
G1 X153.234 Y102.75 E10.61979
G1 X153.975 Y102.956 E10.64537
G1 X154.691 Y103.238 E10.67096
G1 X155.415 Y103.618 E10.69816
G1 X156 Y103.967 E10.72082
G1 X156.639 Y104.395 E10.7464
G1 X157.231 Y104.887 E10.772
G1 X157.756 Y105.424 E10.79698
G1 X158.676 Y106.466 E10.84321
G1 X158.827 Y106.656 E10.85128
G1 X159.155 Y106.856 E10.86406
G1 X160.04 Y107.567 E10.90182
G1 X160.703 Y108.189 E10.93205
G1 X161.166 Y108.481 E10.95026
G1 X161.943 Y109.112 E10.98355
G1 X162.483 Y109.621 E11.00823
G1 X162.888 Y109.85 E11.02371
G1 X163.514 Y110.295 E11.04925
G1 X164.091 Y110.804 E11.07484
G1 X164.613 Y111.37 E11.10045
G1 X165.072 Y111.986 E11.126
G1 X165.536 Y112.785 E11.15673
G1 X165.667 Y113.047 E11.16648
G1 X165.975 Y113.752 E11.19206
G1 X166.105 Y114.128 E11.2053
G1 X166.219 Y114.489 E11.21789
G1 X166.457 Y115.474 E11.25159
G1 X166.623 Y116.448 E11.28445
G1 X166.712 Y117.212 E11.31004
G1 X166.722 Y117.981 E11.33562
G1 X166.613 Y118.989 E11.36934
G1 X166.443 Y119.943 E11.40157
G1 X166.257 Y120.735 E11.42863
G1 X166.151 Y121.095 E11.44111
G1 X165.895 Y121.821 E11.46671
G1 X165.608 Y122.437 E11.48932
G1 X165.474 Y122.693 E11.49893
G1 X165.083 Y123.355 E11.5245
G1 X164.624 Y123.972 E11.55007
G1 X164.104 Y124.539 E11.57566
G1 X163.529 Y125.049 E11.60123
G1 X162.903 Y125.496 E11.62681
G1 X162.489 Y125.731 E11.64264
G1 X162.443 Y125.78 E11.64488
G1 X161.962 Y126.229 E11.66676
G1 X161.373 Y126.724 E11.69235
G1 X160.736 Y127.155 E11.71794
G1 X160.638 Y127.207 E11.72162
G1 X159.994 Y127.806 E11.75088
G1 X159.404 Y128.3 E11.77647
G1 X159.11 Y128.497 E11.78824
G1 X158.718 Y128.989 E11.80917
G1 X157.824 Y130.003 E11.85413
G1 X157.286 Y130.553 E11.87972
G1 X156.694 Y131.043 E11.90528
G1 X155.907 Y131.555 E11.9365
G1 X155.531 Y131.767 E11.95086
G1 X154.843 Y132.109 E11.97641
G1 X154.216 Y132.348 E11.99873
G1 X152.552 Y132.897 E12.05701
G1 X151.81 Y133.1 E12.0826
G1 X151.051 Y133.225 E12.10818
G1 X150.283 Y133.27 E12.13377
G1 X149.766 Y133.255 E12.15097
G1 X149.007 Y133.207 E12.17627
G1 X147.224 Y133.207 E12.23557
G1 X146.456 Y133.167 E12.26115
G1 X145.793 Y133.067 E12.28345
G1 X144.315 Y132.776 E12.33355
G1 X143.508 Y132.656 E12.36069
G1 X142.777 Y132.452 E12.38593
G1 X142.076 Y132.313 E12.4097
G1 X141.474 Y132.126 E12.43067
G1 X140.703 Y131.892 E12.45746
G1 X139.996 Y131.589 E12.48305
G1 X139.684 Y131.425 E12.49477
G1 X139.608 Y131.407 E12.49737
G1 X139.487 Y131.364 E12.50164
G1 X138.571 Y131.326 E12.53213
G1 X138.357 Y131.371 E12.53941
G1 X137.592 Y131.45 E12.56499
G1 X137.062 Y131.454 E12.58261
G1 X136.694 Y131.674 E12.59687
G1 X136.014 Y132.034 E12.62246
G1 X135.3 Y132.321 E12.64806
G1 X134.561 Y132.533 E12.67363
G1 X134.319 Y132.58 E12.68183
G1 X133.562 Y132.793 E12.70798
G1 X132.804 Y132.924 E12.73357
G1 X131.935 Y132.961 E12.7625
G1 X131.263 Y133.035 E12.78498
G1 X130.495 Y133.079 E12.81057
G1 X129.993 Y133.065 E12.82727
G1 X128.934 Y132.999 E12.86256
G1 X128.821 Y133.014 E12.86636
G1 X128.052 Y133.036 E12.89194
G1 X127.286 Y132.978 E12.91749
G1 X126.798 Y132.898 E12.93394
G1 X126.256 Y132.791 E12.95232
G1 X126.109 Y132.79 E12.95721
G1 X125.344 Y132.705 E12.98281
G1 X124.593 Y132.541 E13.00837
G1 X124.388 Y132.477 E13.01552
G1 X124.263 Y132.465 E13.01969
G1 X123.509 Y132.312 E13.04528
G1 X122.154 Y131.896 E13.09243
G1 X121.139 Y131.438 E13.12946
G1 X120.833 Y131.271 E13.14106
G1 X120.218 Y130.895 E13.16503
G1 X119.957 Y130.718 E13.17552
G1 X119.637 Y130.581 E13.1871
G1 X118.965 Y130.206 E13.21269
G1 X118.336 Y129.764 E13.23826
G1 X118.026 Y129.484 E13.25216
G1 X117.868 Y129.457 E13.25749
G1 X117.328 Y129.305 E13.27615
G1 X116.886 Y129.216 E13.29114
G1 X116.52 Y129.101 E13.3039
G1 X116.087 Y129.014 E13.31859
G1 X115.853 Y128.941 E13.32674
G1 X111.497 Y128.941 E13.47163
G1 X110.729 Y128.901 E13.4972
G1 X109.969 Y128.782 E13.52279
G1 X109.226 Y128.584 E13.54836
G1 X108.507 Y128.31 E13.57396
G1 X107.845 Y127.975 E13.59863
G1 X74.636 Y127.974 E14.70317
G1 X73.868 Y127.934 E14.72875
G1 X73.108 Y127.814 E14.75434
G1 X72.365 Y127.617 E14.7799
G1 X71.646 Y127.343 E14.8055
G1 X70.959 Y126.996 E14.8311
G1 X70.313 Y126.58 E14.85665
G1 X69.713 Y126.098 E14.88225
G1 X69.403 Y125.807 E14.89639
G1 X69.286 Y125.69 E14.90189
G1 X68.772 Y125.118 E14.92747
G1 X68.319 Y124.496 E14.95306
G1 X67.933 Y123.831 E14.97864
G1 X67.618 Y123.129 E15.00423
G1 X67.378 Y122.398 E15.02982
G1 X67.215 Y121.647 E15.05538
G1 X67.131 Y120.882 E15.08098
G1 X67.119 Y120.457 E15.09512
G1 X67.119 Y114.896 E15.28008
G1 X67.159 Y114.128 E15.30566
G1 X67.278 Y113.368 E15.33124
G1 X67.476 Y112.625 E15.35682
G1 X67.75 Y111.906 E15.38241
G1 X68.097 Y111.22 E15.40798
G1 X68.513 Y110.573 E15.43356
G1 X68.994 Y109.973 E15.45914
G1 X69.403 Y109.546 E15.4788
G1 X69.975 Y109.032 E15.50438
G1 X70.597 Y108.579 E15.52997
G0 F6000 X70.849 Y108.892
G1 F1200 X71.499 Y108.521 E15.55487
G1 X72.185 Y108.222 E15.57976
G1 X72.899 Y107.998 E15.60465
G1 X73.632 Y107.851 E15.62951
G1 X74.636 Y107.779 E15.66299
G1 X107.971 Y107.778 E16.77172
G1 X108.356 Y107.558 E16.78646
G1 X109.042 Y107.259 E16.81135
G1 X109.755 Y107.034 E16.83622
G1 X110.489 Y106.887 E16.86112
G1 X111.487 Y106.814 E16.8944
G1 X112.164 Y106.813 E16.91692
G1 X115.934 Y106.814 E17.04231
G1 X116.373 Y106.692 E17.05746
G1 X116.487 Y106.673 E17.06131
G1 X117.148 Y106.486 E17.08416
G1 X117.424 Y106.439 E17.09347
G1 X117.969 Y106.283 E17.11232
G1 X118.166 Y106.249 E17.11897
G1 X118.443 Y106.005 E17.13125
G1 X119.042 Y105.557 E17.15613
G1 X119.167 Y105.483 E17.16096
G1 X119.32 Y105.341 E17.1679
G1 X119.919 Y104.893 E17.19278
