;FLAVOR:Marlin
;TIME:635
;Filament used: 0.167242m
;Layer height: 0.2
;MINX:96.805
;MINY:96.805
;MINZ:0.2
;MAXX:138.195
;MAXY:138.195
;MAXZ:16.2
;Generated with Cura_SteamEngine 4.6.1
M140 S60
M105
M190 S60
M104 S200
M105
M109 S200
M82 ;absolute extrusion mode
; Ender 3 Custom Start G-code
G92 E0 ; Reset Extruder
G28 ; Home all axes
G1 Z2.0 F3000 ; Move Z Axis up little to prevent scratching of Heat Bed
G1 X0.1 Y20 Z0.3 F5000.0 ; Move to start position
G1 X0.1 Y200.0 Z0.3 F1500.0 E15 ; Draw the first line
G1 X0.4 Y200.0 Z0.3 F5000.0 ; Move to side a little
G1 X0.4 Y20 Z0.3 F1500.0 E30 ; Draw the second line
G92 E0 ; Reset Extruder
G1 Z2.0 F3000 ; Move Z Axis up little to prevent scratching of Heat Bed
G1 X5 Y20 Z0.3 F5000.0 ; Move over to prevent blob squish
G92 E0
G92 E0
G1 F1500 E-6.5
;LAYER_COUNT:81
;LAYER:0
M107
G0 F6000 X118.952 Y97.707 Z0.2
;TYPE:SKIRT
G1 F1500 E0
G1 F1200 X119.839 Y97.876 E0.03003
G1 X120.708 Y98.123 E0.06008
G1 X121.551 Y98.446 E0.09011
G1 X122.363 Y98.842 E0.12015
G1 X123.136 Y99.308 E0.15017
G1 X123.865 Y99.841 E0.18021
G1 X124.545 Y100.436 E0.21026
G1 X124.95 Y100.847 E0.22945
G1 X125.797 Y101.762 E0.27093
G1 X126.256 Y102.285 E0.29407
G1 X128.001 Y104.163 E0.37933
G1 X129.788 Y105.979 E0.46407
G1 X131.587 Y107.708 E0.54706
G1 X133.034 Y109.005 E0.61169
G1 X134.079 Y109.96 E0.65878
G1 X134.718 Y110.598 E0.68881
G1 X135.298 Y111.29 E0.71884
G1 X135.815 Y112.031 E0.7489
G1 X136.264 Y112.814 E0.77892
G1 X136.642 Y113.634 E0.80895
G1 X136.946 Y114.485 E0.839
G1 X137.173 Y115.359 E0.86904
G1 X137.322 Y116.25 E0.89908
G1 X137.392 Y117.15 E0.92911
G1 X137.382 Y118.053 E0.95914
G1 X137.293 Y118.952 E0.98919
G1 X137.124 Y119.839 E1.01922
G1 X136.877 Y120.708 E1.04927
G1 X136.554 Y121.551 E1.0793
G1 X136.158 Y122.363 E1.10934
G1 X135.692 Y123.136 E1.13937
G1 X135.159 Y123.865 E1.1694
G1 X134.564 Y124.545 E1.19945
G1 X134.145 Y124.958 E1.21902
G1 X133.215 Y125.817 E1.26113
G1 X132.718 Y126.254 E1.28314
G1 X130.837 Y128.001 E1.36852
G1 X129.02 Y129.789 E1.45331
G1 X127.292 Y131.587 E1.53625
G1 X125.995 Y133.034 E1.60088
G1 X125.04 Y134.079 E1.64797
G1 X124.402 Y134.718 E1.678
G1 X123.71 Y135.298 E1.70803
G1 X122.969 Y135.815 E1.73809
G1 X122.186 Y136.264 E1.76811
G1 X121.366 Y136.642 E1.79814
G1 X120.515 Y136.946 E1.82819
G1 X119.641 Y137.173 E1.85823
G1 X118.75 Y137.322 E1.88827
G1 X117.85 Y137.392 E1.9183
G1 X116.947 Y137.382 E1.94833
G1 X116.048 Y137.293 E1.97838
G1 X115.161 Y137.124 E2.00841
G1 X114.292 Y136.877 E2.03846
G1 X113.449 Y136.554 E2.06849
G1 X112.637 Y136.158 E2.09854
G1 X111.864 Y135.692 E2.12856
G1 X111.135 Y135.159 E2.15859
G1 X110.455 Y134.564 E2.18864
G1 X110.044 Y134.147 E2.20812
G1 X109.174 Y133.205 E2.25077
G1 X108.751 Y132.723 E2.2721
G1 X106.999 Y130.837 E2.35771
G1 X105.211 Y129.02 E2.4425
G1 X103.413 Y127.292 E2.52544
G1 X101.966 Y125.995 E2.59008
G1 X100.921 Y125.04 E2.63716
G1 X100.282 Y124.402 E2.66719
G1 X99.702 Y123.71 E2.69722
G1 X99.185 Y122.969 E2.72728
G1 X98.736 Y122.186 E2.7573
G1 X98.358 Y121.366 E2.78733
G1 X98.054 Y120.515 E2.81738
G1 X97.827 Y119.641 E2.84742
G1 X97.678 Y118.75 E2.87746
G1 X97.608 Y117.85 E2.90749
G1 X97.618 Y116.947 E2.93752
G1 X97.707 Y116.048 E2.96757
G1 X97.876 Y115.161 E2.9976
G1 X98.123 Y114.292 E3.02765
G1 X98.446 Y113.449 E3.05768
G1 X98.842 Y112.637 E3.08773
G1 X99.308 Y111.864 E3.11775
G1 X99.841 Y111.135 E3.14778
G1 X100.436 Y110.455 E3.17783
G1 X100.855 Y110.042 E3.1974
G1 X101.804 Y109.165 E3.24038
G1 X102.297 Y108.733 E3.26218
G1 X104.163 Y106.999 E3.34691
G1 X105.98 Y105.211 E3.43169
G1 X107.708 Y103.413 E3.51464
G1 X109.005 Y101.966 E3.57927
G1 X109.96 Y100.921 E3.62635
G1 X110.598 Y100.282 E3.65638
G1 X111.29 Y99.702 E3.68642
G1 X112.031 Y99.185 E3.71647
G1 X112.814 Y98.736 E3.74649
G1 X113.634 Y98.358 E3.77652
G1 X114.485 Y98.054 E3.80658
G1 X115.359 Y97.827 E3.83661
G1 X116.25 Y97.678 E3.86666
G1 X117.15 Y97.608 E3.89668
G1 X118.053 Y97.618 E3.92672
G1 X118.952 Y97.707 E3.95676
G0 F6000 X119.722 Y97.44
G1 F1200 X120.612 Y97.673 E3.98736
G1 X121.479 Y97.982 E4.01797
G1 X122.317 Y98.365 E4.04862
G1 X123.117 Y98.82 E4.07923
G1 X123.875 Y99.342 E4.10984
G1 X124.585 Y99.928 E4.14046
G1 X125.243 Y100.575 E4.17115
G1 X126.097 Y101.498 E4.21298
G1 X126.549 Y102.012 E4.23574
G1 X128.297 Y103.893 E4.32115
G1 X130.049 Y105.675 E4.40427
G1 X131.863 Y107.418 E4.48794
G1 X133.304 Y108.709 E4.55229
G1 X134.349 Y109.664 E4.59937
G1 X135.001 Y110.314 E4.62999
G1 X135.594 Y111.018 E4.66061
G1 X136.124 Y111.771 E4.69123
G1 X136.586 Y112.567 E4.72185
G1 X136.978 Y113.401 E4.7525
G1 X137.296 Y114.265 E4.78312
G1 X137.537 Y115.153 E4.81372
G1 X137.701 Y116.059 E4.84434
G1 X137.786 Y116.976 E4.87497
G1 X137.79 Y117.896 E4.90557
G1 X137.715 Y118.814 E4.93621
G1 X137.56 Y119.722 E4.96685
G1 X137.327 Y120.612 E4.99744
G1 X137.018 Y121.479 E5.02806
G1 X136.635 Y122.317 E5.0587
G1 X136.18 Y123.117 E5.08931
G1 X135.658 Y123.875 E5.11992
G1 X135.072 Y124.585 E5.15054
G1 X134.417 Y125.25 E5.18159
G1 X133.479 Y126.118 E5.2241
G1 X132.971 Y126.565 E5.2466
G1 X131.107 Y128.297 E5.33123
G1 X129.324 Y130.05 E5.41439
G1 X127.582 Y131.863 E5.49802
G1 X126.291 Y133.304 E5.56237
G1 X125.336 Y134.349 E5.60945
G1 X124.686 Y135.001 E5.64007
G1 X123.982 Y135.594 E5.67069
G1 X123.229 Y136.124 E5.70132
G1 X122.433 Y136.586 E5.73193
G1 X121.599 Y136.978 E5.76258
G1 X120.735 Y137.296 E5.7932
G1 X119.847 Y137.537 E5.8238
G1 X118.941 Y137.701 E5.85443
G1 X118.024 Y137.786 E5.88506
G1 X117.104 Y137.79 E5.91566
G1 X116.186 Y137.715 E5.94629
G1 X115.278 Y137.56 E5.97693
G1 X114.388 Y137.327 E6.00753
G1 X113.521 Y137.018 E6.03814
G1 X112.683 Y136.635 E6.06878
G1 X111.883 Y136.18 E6.0994
G1 X111.125 Y135.658 E6.13001
G1 X110.415 Y135.072 E6.16063
G1 X109.751 Y134.419 E6.1916
G1 X108.873 Y133.469 E6.23463
G1 X108.441 Y132.976 E6.25643
G1 X106.703 Y131.107 E6.34131
G1 X104.95 Y129.324 E6.42448
G1 X103.137 Y127.582 E6.5081
G1 X101.696 Y126.291 E6.57245
G1 X100.651 Y125.336 E6.61954
G1 X99.999 Y124.686 E6.65016
G1 X99.406 Y123.982 E6.68077
G1 X98.876 Y123.229 E6.7114
G1 X98.414 Y122.433 E6.74201
G1 X98.022 Y121.599 E6.77266
G1 X97.704 Y120.735 E6.80328
G1 X97.463 Y119.847 E6.83389
G1 X97.299 Y118.941 E6.86451
G1 X97.214 Y118.024 E6.89514
G1 X97.21 Y117.104 E6.92574
G1 X97.285 Y116.186 E6.95637
G1 X97.44 Y115.278 E6.98701
G1 X97.673 Y114.388 E7.01761
G1 X97.982 Y113.521 E7.04822
G1 X98.365 Y112.683 E7.07887
G1 X98.82 Y111.883 E7.10948
G1 X99.342 Y111.125 E7.14009
G1 X99.928 Y110.415 E7.17071
G1 X100.583 Y109.749 E7.20178
G1 X101.313 Y109.07 E7.23494
G1 X101.541 Y108.865 E7.24513
G1 X102.007 Y108.456 E7.26576
G1 X103.893 Y106.703 E7.3514
G1 X105.676 Y104.95 E7.43456
G1 X107.418 Y103.137 E7.51819
G1 X108.709 Y101.696 E7.58254
G1 X109.664 Y100.651 E7.62962
G1 X110.314 Y99.999 E7.66024
G1 X111.018 Y99.406 E7.69086
G1 X111.771 Y98.876 E7.72148
G1 X112.567 Y98.414 E7.75209
G1 X113.401 Y98.022 E7.78275
G1 X114.265 Y97.704 E7.81337
G1 X115.153 Y97.463 E7.84397
G1 X116.059 Y97.299 E7.87459
G1 X116.976 Y97.214 E7.90522
G1 X117.896 Y97.21 E7.93582
G1 X118.814 Y97.285 E7.96646
G1 X119.722 Y97.44 E7.99709
G0 F6000 X119.6 Y97.006
G1 F1200 X120.512 Y97.225 E8.02829
G1 X121.402 Y97.521 E8.05949
G1 X122.263 Y97.892 E8.09067
G1 X123.09 Y98.335 E8.12187
G1 X123.876 Y98.846 E8.15305
G1 X124.616 Y99.423 E8.18426
G1 X125.536 Y100.302 E8.22658
G1 X126.398 Y101.234 E8.26881
G1 X126.86 Y101.759 E8.29207
G1 X128.575 Y103.606 E8.3759
G1 X130.347 Y105.407 E8.45993
G1 X132.124 Y107.115 E8.54191
G1 X133.574 Y108.414 E8.60666
G1 X134.619 Y109.369 E8.65375
G1 X135.283 Y110.031 E8.68493
G1 X135.889 Y110.747 E8.71613
G1 X136.432 Y111.511 E8.74731
G1 X136.908 Y112.32 E8.77852
G1 X137.313 Y113.166 E8.80972
G1 X137.644 Y114.043 E8.8409
G1 X137.9 Y114.945 E8.87208
G1 X138.078 Y115.866 E8.90328
G1 X138.176 Y116.799 E8.93449
G1 X138.195 Y117.736 E8.96566
G1 X138.134 Y118.672 E8.99685
G1 X137.994 Y119.6 E9.02807
G1 X137.775 Y120.512 E9.05926
G1 X137.479 Y121.402 E9.09046
G1 X137.108 Y122.263 E9.12164
G1 X136.665 Y123.09 E9.15285
G1 X136.154 Y123.876 E9.18403
G1 X135.577 Y124.616 E9.21524
G1 X134.69 Y125.543 E9.25791
G1 X133.743 Y126.418 E9.3008
G1 X133.243 Y126.857 E9.32293
G1 X131.394 Y128.575 E9.40687
G1 X129.592 Y130.347 E9.49093
G1 X127.885 Y132.124 E9.57289
G1 X126.586 Y133.574 E9.63764
G1 X125.631 Y134.619 E9.68472
G1 X124.969 Y135.283 E9.71591
G1 X124.253 Y135.889 E9.7471
G1 X123.489 Y136.432 E9.77828
G1 X122.68 Y136.908 E9.8095
G1 X121.834 Y137.313 E9.84069
G1 X120.957 Y137.644 E9.87187
G1 X120.055 Y137.9 E9.90306
G1 X119.134 Y138.078 E9.93426
G1 X118.201 Y138.176 E9.96546
G1 X117.264 Y138.195 E9.99663
G1 X116.328 Y138.134 E10.02783
G1 X115.4 Y137.994 E10.05904
G1 X114.488 Y137.775 E10.09024
G1 X113.598 Y137.479 E10.12143
G1 X112.737 Y137.108 E10.15262
G1 X111.91 Y136.665 E10.18382
G1 X111.124 Y136.154 E10.215
G1 X110.384 Y135.577 E10.24621
G1 X109.459 Y134.692 E10.28879
G1 X108.573 Y133.733 E10.33222
G1 X108.148 Y133.249 E10.35364
G1 X106.425 Y131.394 E10.43785
G1 X104.653 Y129.592 E10.5219
G1 X102.876 Y127.885 E10.60386
G1 X101.426 Y126.586 E10.66861
G1 X100.381 Y125.631 E10.71569
G1 X99.717 Y124.969 E10.74688
G1 X99.111 Y124.253 E10.77808
G1 X98.568 Y123.489 E10.80925
G1 X98.092 Y122.68 E10.84047
G1 X97.687 Y121.834 E10.87167
G1 X97.356 Y120.957 E10.90285
G1 X97.1 Y120.055 E10.93403
G1 X96.922 Y119.134 E10.96523
G1 X96.824 Y118.201 E10.99643
G1 X96.805 Y117.264 E11.0276
G1 X96.866 Y116.328 E11.0588
G1 X97.006 Y115.4 E11.09002
G1 X97.225 Y114.488 E11.12121
G1 X97.521 Y113.598 E11.15241
G1 X97.892 Y112.737 E11.18359
G1 X98.335 Y111.91 E11.21479
G1 X98.846 Y111.124 E11.24598
G1 X99.423 Y110.384 E11.27719
G1 X100.31 Y109.457 E11.31986
G1 X101.277 Y108.564 E11.36364
G1 X101.754 Y108.145 E11.38475
G1 X103.606 Y106.425 E11.46882
G1 X105.408 Y104.653 E11.55288
G1 X107.115 Y102.876 E11.63483
G1 X108.414 Y101.426 E11.69958
G1 X109.369 Y100.381 E11.74667
G1 X110.031 Y99.717 E11.77785
G1 X110.747 Y99.111 E11.80905
G1 X111.511 Y98.568 E11.84023
G1 X112.32 Y98.092 E11.87145
G1 X113.166 Y97.687 E11.90264
G1 X114.043 Y97.356 E11.93382
G1 X114.945 Y97.1 E11.965
G1 X115.866 Y96.922 E11.9962
G1 X116.799 Y96.824 E12.02741
G1 X117.736 Y96.805 E12.05858
G1 X118.672 Y96.866 E12.08978
G1 X119.6 Y97.006 E12.12099
G0 F6000 X117.346 Y117.382
G1 F1200 X117.386 Y117.342 E12.12287
G1 X117.431 Y117.319 E12.12455
G1 X117.503 Y117.308 E12.12697
G1 X117.565 Y117.318 E12.12906
G1 X117.613 Y117.342 E12.13085
G1 X117.659 Y117.389 E12.13304
G1 X117.684 Y117.438 E12.13487
G1 X117.694 Y117.497 E12.13686
G1 X117.684 Y117.559 E12.13894
G1 X117.652 Y117.62 E12.14124
G1 X117.615 Y117.657 E12.14298
G1 X117.56 Y117.685 E12.14503
G1 X117.504 Y117.694 E12.14692
G1 X117.434 Y117.682 E12.14928
G1 X117.386 Y117.658 E12.15106
G1 X117.342 Y117.614 E12.15313
G1 X117.319 Y117.569 E12.15481
G1 X117.308 Y117.497 E12.15724
G1 X117.318 Y117.438 E12.15923
G1 X117.346 Y117.382 E12.16131
G0 F6000 X117.019 Y117.143
G1 F1200 X117.146 Y117.016 E12.16728
G1 X117.311 Y116.932 E12.17344
G1 X117.501 Y116.903 E12.17983
G1 X117.693 Y116.934 E12.1863
G1 X117.851 Y117.014 E12.19219
G1 X117.986 Y117.15 E12.19857
G1 X118.07 Y117.314 E12.20469
G1 X118.099 Y117.499 E12.21092
G1 X118.069 Y117.683 E12.21712
G1 X117.979 Y117.859 E12.2237
G1 X117.852 Y117.986 E12.22967
G1 X117.688 Y118.069 E12.23578
G1 X117.505 Y118.099 E12.24195
G1 X117.305 Y118.066 E12.24869
G1 X117.148 Y117.986 E12.25456
G1 X117.016 Y117.854 E12.26076
G1 X116.932 Y117.689 E12.26692
G1 X116.903 Y117.499 E12.27331
G1 X116.934 Y117.31 E12.27968
G1 X117.019 Y117.143 E12.28592
G0 F6000 X116.692 Y116.904
G1 F1200 X116.908 Y116.688 E12.29608
G1 X117.185 Y116.547 E12.30642
G1 X117.503 Y116.498 E12.31712
G1 X117.818 Y116.549 E12.32773
G1 X118.091 Y116.687 E12.3379
G1 X118.315 Y116.913 E12.34849
G1 X118.455 Y117.188 E12.35875
G1 X118.504 Y117.498 E12.36919
G1 X118.452 Y117.811 E12.37974
G1 X118.306 Y118.098 E12.39045
G1 X118.091 Y118.313 E12.40057
G1 X117.813 Y118.455 E12.41095
G1 X117.503 Y118.504 E12.42139
G1 X117.179 Y118.451 E12.43231
G1 X116.91 Y118.314 E12.44235
G1 X116.688 Y118.092 E12.45279
G1 X116.547 Y117.815 E12.46313
G1 X116.498 Y117.497 E12.47383
G1 X116.549 Y117.183 E12.48441
G1 X116.692 Y116.904 E12.49484
G0 F6000 X116.365 Y116.665
G1 F1200 X116.668 Y116.362 E12.50909
G1 X117.06 Y116.162 E12.52373
G1 X117.506 Y116.093 E12.53874
G1 X117.943 Y116.164 E12.55346
G1 X118.327 Y116.358 E12.56777
G1 X118.643 Y116.677 E12.58271
G1 X118.84 Y117.063 E12.59712
G1 X118.909 Y117.501 E12.61187
G1 X118.837 Y117.939 E12.62663
G1 X118.635 Y118.335 E12.64142
G1 X118.331 Y118.639 E12.65572
G1 X117.936 Y118.84 E12.67046
G1 X117.502 Y118.909 E12.68507
G1 X117.056 Y118.836 E12.7001
G1 X116.67 Y118.64 E12.7145
G1 X116.362 Y118.332 E12.72899
G1 X116.162 Y117.94 E12.74363
G1 X116.093 Y117.494 E12.75864
G1 X116.164 Y117.058 E12.77333
G1 X116.365 Y116.665 E12.78801
G0 F6000 X116.038 Y116.426
G1 F1200 X116.43 Y116.034 E12.80645
G1 X116.934 Y115.777 E12.82527
G1 X117.51 Y115.688 E12.84465
G1 X118.069 Y115.779 E12.86349
G1 X118.565 Y116.03 E12.88198
G1 X118.971 Y116.439 E12.90115
G1 X119.225 Y116.937 E12.91974
G1 X119.314 Y117.503 E12.9388
G1 X119.222 Y118.064 E12.9577
G1 X118.962 Y118.574 E12.97674
G1 X118.568 Y118.968 E12.99528
G1 X118.064 Y119.225 E13.01409
G1 X117.5 Y119.314 E13.03308
G1 X116.93 Y119.221 E13.05229
G1 X116.432 Y118.968 E13.07087
G1 X116.034 Y118.57 E13.08959
G1 X115.777 Y118.066 E13.10841
G1 X115.688 Y117.49 E13.12779
G1 X115.779 Y116.933 E13.14657
G1 X116.038 Y116.426 E13.1655
G1 F1500 E6.6655
;MESH:straw rocket (2).stl
G0 F6000 X116.824 Y119.543
G0 X116.618 Y120.183
G0 X117.5 Y120.53
;TYPE:WALL-OUTER
G1 F1500 E13.1655
G1 F1200 X118.437 Y120.381 E13.19706
G1 X119.281 Y119.951 E13.22856
G1 X119.944 Y119.288 E13.25975
G1 X120.375 Y118.445 E13.29124
G1 X120.53 Y117.5 E13.32309
G1 X120.381 Y116.564 E13.35461
G1 X119.956 Y115.727 E13.38583
G1 X119.281 Y115.049 E13.41765
G1 X118.445 Y114.625 E13.44883
G1 X117.51 Y114.472 E13.48034
G1 X116.564 Y114.619 E13.51219
G1 X115.719 Y115.049 E13.54372
G1 X115.056 Y115.712 E13.57491
G1 X114.625 Y116.555 E13.6064
G1 X114.472 Y117.49 E13.63791
G1 X114.619 Y118.436 E13.66975
G1 X115.049 Y119.281 E13.70128
G1 X115.719 Y119.951 E13.7328
G1 X116.555 Y120.375 E13.76398
G1 X117.5 Y120.53 E13.79583
G1 F1500 E7.29583
G0 F6000 X117.5 Y125.009
G1 F1500 E13.79583
G1 F1200 X117.472 Y124.367 E13.8172
G1 X117.42 Y122.356 E13.88411
G1 X117.396 Y120.548 E13.94425
G1 X116.573 Y120.418 E13.97196
G1 X115.708 Y119.984 E14.00415
G1 X115.025 Y119.305 E14.03618
G1 X114.586 Y118.448 E14.06821
G1 X114.452 Y117.604 E14.09663
G1 X112.644 Y117.58 E14.15677
G1 X110.663 Y117.529 E14.22268
G1 X109.991 Y117.5 E14.24505
G1 X110.633 Y117.472 E14.26642
G1 X112.644 Y117.42 E14.33333
G1 X114.452 Y117.396 E14.39347
G1 X114.582 Y116.573 E14.42119
G1 X115.016 Y115.708 E14.45337
G1 X115.695 Y115.025 E14.48541
G1 X116.552 Y114.586 E14.51743
G1 X117.396 Y114.452 E14.54586
G1 X117.42 Y112.644 E14.60599
G1 X117.471 Y110.663 E14.6719
G1 X117.5 Y109.991 E14.69428
G1 X117.528 Y110.629 E14.71552
G1 X117.58 Y112.642 E14.78249
G1 X117.604 Y114.452 E14.8427
G1 X118.427 Y114.582 E14.87041
G1 X119.293 Y115.017 E14.90264
G1 X119.978 Y115.698 E14.93477
G1 X120.414 Y116.552 E14.96666
G1 X120.548 Y117.396 E14.99508
G1 X122.356 Y117.42 E15.05522
G1 X124.337 Y117.471 E15.12113
G1 X125.009 Y117.5 E15.14351
G1 X124.367 Y117.528 E15.16488
G1 X122.356 Y117.58 E15.23179
G1 X120.548 Y117.604 E15.29193
G1 X120.418 Y118.427 E15.31964
G1 X119.983 Y119.293 E15.35187
G1 X119.305 Y119.975 E15.38386
G1 X118.448 Y120.414 E15.41588
G1 X117.604 Y120.548 E15.44431
G1 X117.58 Y122.356 E15.50445
G1 X117.529 Y124.337 E15.57036
G1 X117.5 Y125.009 E15.59273
G0 F6000 X117.699 Y124.983
G1 F1500 E9.09273
;MESH:NONMESH
G0 F300 X117.699 Y124.983 Z0.4
G0 F6000 X117.603 Y124.979
G0 X117.228 Y120.693
G0 X116.022 Y120.334
G0 X115.837 Y119.786
G0 X116.232 Y119.243
G0 X116.049 Y116.415
;TIME_ELAPSED:31.136812
;LAYER:1
M140 S60
M106 S85
;TYPE:SUPPORT
G1 F1500 E15.59273
G1 F606.3 X116.43 Y116.034 E15.61065
G1 X116.934 Y115.777 E15.62947
