;FLAVOR:Marlin
;TIME:2849
;Filament used: 2.28217m
;Layer height: 0.3
;MINX:84.564
;MINY:84.244
;MINZ:0.2
;MAXX:149.985
;MAXY:151.287
;MAXZ:38
;Generated with Cura_SteamEngine 4.6.1
M140 S60
M105
M190 S60
M104 S200
M105
M109 S200
M82 ;absolute extrusion mode
; Ender 3 Custom Start G-code
G92 E0 ; Reset Extruder
G28 ; Home all axes
G1 Z2.0 F3000 ; Move Z Axis up little to prevent scratching of Heat Bed
G1 X0.1 Y20 Z0.3 F5000.0 ; Move to start position
G1 X0.1 Y200.0 Z0.3 F1500.0 E15 ; Draw the first line
G1 X0.4 Y200.0 Z0.3 F5000.0 ; Move to side a little
G1 X0.4 Y20 Z0.3 F1500.0 E30 ; Draw the second line
G92 E0 ; Reset Extruder
G1 Z2.0 F3000 ; Move Z Axis up little to prevent scratching of Heat Bed
G1 X5 Y20 Z0.3 F5000.0 ; Move over to prevent blob squish
G92 E0
G92 E0
G1 F1500 E-6.5
;LAYER_COUNT:127
;LAYER:0
M107
G0 F6000 X104.619 Y85.053 Z0.2
;TYPE:SKIRT
G1 F1500 E0
G1 F1200 X105.187 Y85.077 E0.01891
G1 X106.248 Y85.152 E0.05429
G1 X107.059 Y85.221 E0.08136
G1 X109.55 Y85.364 E0.16434
G1 X112.142 Y85.438 E0.25059
G1 X113.514 Y85.448 E0.29622
G1 X119.164 Y85.447 E0.48414
G1 X121.764 Y85.41 E0.57063
G1 X124.357 Y85.299 E0.65695
G1 X126.173 Y85.178 E0.71749
G1 X127.399 Y85.083 E0.75838
G1 X128.184 Y85.053 E0.78451
G1 X128.388 Y85.053 E0.7913
G1 X128.925 Y85.067 E0.80916
G1 X129.589 Y85.102 E0.83128
G1 X129.891 Y85.123 E0.84135
G1 X131.134 Y85.226 E0.88283
G1 X132.228 Y85.325 E0.91937
G1 X133.389 Y85.497 E0.9584
G1 X133.653 Y85.552 E0.96737
G1 X134.279 Y85.704 E0.9888
G1 X134.835 Y85.857 E1.00798
G1 X135.554 Y86.083 E1.03305
G1 X135.972 Y86.232 E1.04781
G1 X136.312 Y86.36 E1.05989
G1 X136.866 Y86.58 E1.07972
G1 X137.298 Y86.764 E1.09533
G1 X138.391 Y87.269 E1.13538
G1 X139.027 Y87.581 E1.15894
G1 X140.012 Y88.133 E1.1965
G1 X140.693 Y88.569 E1.22339
G1 X141.301 Y88.974 E1.24769
G1 X142.06 Y89.465 E1.27776
G1 X142.796 Y89.989 E1.3078
G1 X143.503 Y90.596 E1.3388
G1 X143.789 Y90.865 E1.35186
G1 X144.126 Y91.197 E1.36759
G1 X144.376 Y91.455 E1.37954
G1 X145.222 Y92.448 E1.42293
G1 X145.7 Y93.089 E1.44952
G1 X146.484 Y94.171 E1.49396
G1 X146.883 Y94.738 E1.51702
G1 X147.369 Y95.499 E1.54706
G1 X147.786 Y96.3 E1.57709
G1 X148.264 Y97.524 E1.6208
G1 X148.421 Y98.019 E1.63807
G1 X148.512 Y98.324 E1.64865
G1 X148.668 Y98.875 E1.6677
G1 X148.878 Y99.768 E1.69821
G1 X148.951 Y100.156 E1.71134
G1 X149.051 Y100.801 E1.73305
G1 X149.082 Y101.054 E1.74153
G1 X149.138 Y101.662 E1.76184
G1 X149.182 Y102.522 E1.79048
G1 X149.185 Y103.157 E1.8116
G1 X149.168 Y103.802 E1.83306
G1 X149.102 Y104.723 E1.86377
G1 X149.071 Y104.987 E1.87261
G1 X149.012 Y105.413 E1.88692
G1 X148.922 Y105.974 E1.90581
G1 X148.672 Y107.113 E1.9446
G1 X148.481 Y107.783 E1.96777
G1 X148.294 Y108.389 E1.98886
G1 X147.989 Y109.239 E2.0189
G1 X147.611 Y110.059 E2.04893
G1 X147.162 Y110.842 E2.07895
G1 X146.892 Y111.246 E2.09511
G1 X146.379 Y111.975 E2.12476
G1 X145.67 Y112.951 E2.16489
G1 X145.236 Y113.533 E2.18903
G1 X144.5 Y114.412 E2.22716
G1 X144.35 Y114.572 E2.23446
G1 X144.021 Y114.908 E2.2501
G1 X143.656 Y115.263 E2.26703
G1 X142.981 Y115.863 E2.29707
G1 X142.558 Y116.189 E2.31483
G1 X141.685 Y116.826 E2.35078
G1 X139.561 Y118.424 E2.43918
G1 X137.601 Y119.986 E2.52254
G1 X135.664 Y121.622 E2.60687
G1 X133.764 Y123.322 E2.69167
G1 X131.887 Y125.098 E2.77762
G1 X130.137 Y126.853 E2.86005
G1 X128.373 Y128.721 E2.9455
G1 X126.687 Y130.613 E3.02979
G1 X125.061 Y132.544 E3.11375
G1 X123.475 Y134.541 E3.19857
G1 X121.927 Y136.606 E3.28441
G1 X120.51 Y138.613 E3.36612
G1 X118.665 Y141.412 E3.47762
G1 X117.805 Y142.767 E3.531
G1 X117.415 Y143.338 E3.554
G1 X117.142 Y143.71 E3.56935
G1 X116.686 Y144.287 E3.59381
G1 X116.497 Y144.509 E3.60351
G1 X115.681 Y145.362 E3.64277
G1 X115.434 Y145.592 E3.65399
G1 X115.203 Y145.8 E3.66433
G1 X114.873 Y146.089 E3.67892
G1 X113.901 Y146.842 E3.71982
G1 X113.728 Y146.96 E3.72678
G1 X113.148 Y147.328 E3.74963
G1 X112.658 Y147.616 E3.76853
G1 X111.86 Y148.038 E3.79856
G1 X110.983 Y148.405 E3.83018
G1 X110.33 Y148.643 E3.85329
G1 X109.351 Y148.945 E3.88737
G1 X108.111 Y149.26 E3.92992
G1 X106.48 Y149.707 E3.98617
G1 X105.114 Y150.065 E4.03314
G1 X104.231 Y150.255 E4.06318
G1 X103.774 Y150.322 E4.07854
G1 X103.311 Y150.379 E4.09406
G1 X102.971 Y150.415 E4.10543
G1 X102.612 Y150.447 E4.11742
G1 X101.709 Y150.487 E4.14748
G1 X100.83 Y150.449 E4.17674
G1 X100.122 Y150.388 E4.20038
G1 X99.554 Y150.326 E4.21938
G1 X98.663 Y150.177 E4.24943
G1 X97.836 Y149.965 E4.27782
G1 X97.273 Y149.795 E4.29738
G1 X96.669 Y149.597 E4.31852
G1 X95.827 Y149.271 E4.34855
G1 X94.879 Y148.795 E4.38384
G1 X94.698 Y148.692 E4.39076
G1 X94.279 Y148.44 E4.40703
G1 X93.65 Y148.041 E4.4318
G1 X92.91 Y147.524 E4.46182
G1 X92.355 Y147.067 E4.48574
G1 X92.086 Y146.829 E4.49768
G1 X91.809 Y146.575 E4.51018
G1 X91.385 Y146.171 E4.52966
G1 X90.759 Y145.519 E4.55972
G1 X90.353 Y145.027 E4.58094
G1 X90.23 Y144.868 E4.58763
G1 X89.71 Y144.13 E4.61765
G1 X89.562 Y143.899 E4.62678
G1 X89.225 Y143.334 E4.64866
G1 X88.164 Y141.412 E4.72168
G1 X87.441 Y140.045 E4.77311
G1 X87.068 Y139.31 E4.80053
G1 X86.751 Y138.665 E4.82443
G1 X86.389 Y137.838 E4.85446
G1 X86.101 Y136.982 E4.8845
G1 X85.857 Y135.919 E4.92077
G1 X85.692 Y134.965 E4.95297
G1 X85.562 Y134.139 E4.98078
G1 X85.465 Y133.469 E5.0033
G1 X85.376 Y132.571 E5.03331
G1 X85.366 Y131.668 E5.06335
G1 X85.463 Y130.564 E5.10021
G1 X85.603 Y129.59 E5.13294
G1 X85.732 Y128.789 E5.15992
G1 X85.846 Y128.127 E5.18227
G1 X86.099 Y127.028 E5.21977
G1 X86.202 Y126.672 E5.2321
G1 X86.919 Y124.086 E5.32136
G1 X87.528 Y121.617 E5.40594
G1 X88.061 Y119.164 E5.48943
G1 X88.538 Y116.629 E5.57522
G1 X88.929 Y114.158 E5.65843
G1 X89.26 Y111.605 E5.74405
G1 X89.516 Y109.078 E5.82853
G1 X89.697 Y106.575 E5.912
G1 X89.809 Y104.032 E5.99666
G1 X89.851 Y101.243 E6.08944
G1 X89.852 Y95.896 E6.26728
G1 X89.862 Y95.225 E6.2896
G1 X89.916 Y94.323 E6.31965
G1 X90.049 Y93.43 E6.34968
G1 X90.26 Y92.552 E6.37971
G1 X90.548 Y91.696 E6.40975
G1 X90.911 Y90.869 E6.43979
G1 X91.346 Y90.078 E6.46982
G1 X91.849 Y89.328 E6.49985
G1 X92.416 Y88.625 E6.52989
G1 X92.849 Y88.162 E6.55098
G1 X93.505 Y87.541 E6.58102
G1 X94.214 Y86.981 E6.61107
G1 X94.969 Y86.486 E6.6411
G1 X95.765 Y86.059 E6.67114
G1 X96.596 Y85.705 E6.70118
G1 X97.454 Y85.425 E6.7312
G1 X98.334 Y85.222 E6.76124
G1 X99.229 Y85.098 E6.79129
G1 X99.999 Y85.056 E6.81694
G1 X100.741 Y85.044 E6.84162
G1 X103.977 Y85.044 E6.94925
G1 X104.619 Y85.053 E6.97061
G0 F6000 X104.625 Y84.653
G1 F1200 X105.215 Y84.678 E6.99025
G1 X106.283 Y84.754 E7.02586
G1 X107.048 Y84.82 E7.0514
G1 X109.585 Y84.964 E7.13592
G1 X112.156 Y85.038 E7.22146
G1 X113.517 Y85.048 E7.26673
G1 X119.158 Y85.047 E7.45435
G1 X121.776 Y85.01 E7.54144
G1 X124.312 Y84.901 E7.62586
G1 X126.138 Y84.779 E7.68673
G1 X127.368 Y84.684 E7.72776
G1 X128.184 Y84.653 E7.75492
G1 X128.388 Y84.653 E7.76171
G1 X128.946 Y84.668 E7.78027
G1 X129.924 Y84.724 E7.81285
G1 X131.17 Y84.827 E7.85444
G1 X132.264 Y84.926 E7.89097
G1 X133.471 Y85.106 E7.93156
G1 X133.735 Y85.161 E7.94053
G1 X134.385 Y85.318 E7.96277
G1 X134.941 Y85.471 E7.98195
G1 X135.688 Y85.706 E8.008
G1 X136.106 Y85.855 E8.02276
G1 X136.459 Y85.988 E8.0353
G1 X137.013 Y86.208 E8.05513
G1 X137.463 Y86.399 E8.07139
G1 X138.568 Y86.909 E8.11187
G1 X139.204 Y87.221 E8.13543
G1 X140.227 Y87.796 E8.17446
G1 X140.914 Y88.236 E8.20159
G1 X141.499 Y88.625 E8.22496
G1 X142.277 Y89.129 E8.25579
G1 X143.028 Y89.663 E8.28644
G1 X143.777 Y90.305 E8.31925
G1 X144.063 Y90.574 E8.33231
G1 X144.413 Y90.919 E8.34866
G1 X144.663 Y91.177 E8.36061
G1 X145.543 Y92.209 E8.40571
G1 X146.024 Y92.854 E8.43248
G1 X146.811 Y93.941 E8.47711
G1 X147.21 Y94.508 E8.50017
G1 X147.706 Y95.283 E8.53077
G1 X148.134 Y96.098 E8.56139
G1 X148.489 Y96.948 E8.59203
G1 X148.645 Y97.403 E8.60803
G1 X148.802 Y97.898 E8.6253
G1 X148.897 Y98.215 E8.63631
G1 X149.053 Y98.766 E8.65535
G1 X149.271 Y99.694 E8.68706
G1 X149.344 Y100.082 E8.70019
G1 X149.448 Y100.753 E8.72277
G1 X149.479 Y101.006 E8.73125
G1 X149.538 Y101.637 E8.75233
G1 X149.582 Y102.508 E8.78134
G1 X149.585 Y103.167 E8.80326
G1 X149.568 Y103.812 E8.82472
G1 X149.5 Y104.769 E8.85663
G1 X149.469 Y105.033 E8.86547
G1 X149.407 Y105.476 E8.88035
G1 X149.317 Y106.037 E8.89924
G1 X149.057 Y107.222 E8.93959
G1 X148.863 Y107.901 E8.96308
G1 X148.676 Y108.507 E8.98417
G1 X148.366 Y109.374 E9.0148
G1 X147.983 Y110.211 E9.04541
G1 X147.528 Y111.011 E9.07602
G1 X147.219 Y111.476 E9.09459
G1 X146.703 Y112.209 E9.12441
G1 X145.99 Y113.191 E9.16477
G1 X145.556 Y113.773 E9.18892
G1 X144.792 Y114.686 E9.22851
G1 X144.642 Y114.846 E9.23581
G1 X144.3 Y115.195 E9.25206
G1 X143.935 Y115.55 E9.269
G1 X143.247 Y116.162 E9.29962
G1 X142.794 Y116.512 E9.31866
G1 X141.922 Y117.149 E9.35458
G1 X139.822 Y118.728 E9.44197
G1 X137.846 Y120.303 E9.52601
G1 X135.923 Y121.928 E9.60975
G1 X134.004 Y123.644 E9.69537
G1 X132.215 Y125.338 E9.77732
G1 X130.41 Y127.147 E9.86231
G1 X128.664 Y128.996 E9.9469
G1 X126.991 Y130.874 E10.03055
G1 X125.364 Y132.806 E10.11456
G1 X123.779 Y134.801 E10.1993
G1 X122.271 Y136.813 E10.28293
G1 X120.839 Y138.841 E10.36551
G1 X119.021 Y141.599 E10.47537
G1 X118.143 Y142.982 E10.52986
G1 X117.738 Y143.574 E10.55372
G1 X117.465 Y143.946 E10.56906
G1 X116.99 Y144.546 E10.59452
G1 X116.801 Y144.768 E10.60421
G1 X115.954 Y145.655 E10.64501
G1 X115.707 Y145.885 E10.65623
G1 X115.467 Y146.101 E10.66697
G1 X115.137 Y146.39 E10.68156
G1 X114.126 Y147.173 E10.72409
G1 X113.953 Y147.291 E10.73106
G1 X113.351 Y147.672 E10.75475
G1 X112.861 Y147.96 E10.77366
G1 X112.048 Y148.392 E10.80428
G1 X111.12 Y148.781 E10.83774
G1 X110.467 Y149.019 E10.86086
G1 X109.449 Y149.333 E10.89629
G1 X108.219 Y149.646 E10.93851
G1 X106.581 Y150.094 E10.99499
G1 X105.215 Y150.452 E11.04196
G1 X104.315 Y150.646 E11.07258
G1 X103.823 Y150.719 E11.08912
G1 X103.36 Y150.776 E11.10464
G1 X103.006 Y150.813 E11.11647
G1 X102.647 Y150.845 E11.12846
G1 X101.727 Y150.887 E11.15909
G1 X100.796 Y150.848 E11.19009
G1 X100.088 Y150.787 E11.21372
G1 X99.506 Y150.723 E11.2332
G1 X98.597 Y150.572 E11.26384
G1 X97.72 Y150.347 E11.29396
G1 X96.839 Y150.076 E11.32461
G1 X96.542 Y149.976 E11.33504
G1 X95.683 Y149.644 E11.36567
G1 X94.681 Y149.143 E11.40293
G1 X94.5 Y149.04 E11.40985
G1 X94.065 Y148.778 E11.42674
G1 X93.436 Y148.379 E11.45152
G1 X92.681 Y147.853 E11.48212
G1 X92.09 Y147.367 E11.50757
G1 X91.821 Y147.129 E11.51952
G1 X91.533 Y146.864 E11.53254
G1 X91.109 Y146.46 E11.55202
G1 X90.471 Y145.797 E11.58262
G1 X90.037 Y145.272 E11.60527
G1 X89.914 Y145.113 E11.61196
G1 X89.373 Y144.345 E11.64321
G1 X89.225 Y144.114 E11.65233
G1 X88.875 Y143.528 E11.67503
G1 X87.81 Y141.6 E11.74829
G1 X87.085 Y140.227 E11.79993
G1 X86.709 Y139.486 E11.82757
G1 X86.392 Y138.841 E11.85147
G1 X86.022 Y137.998 E11.88209
G1 X85.727 Y137.126 E11.91271
G1 X85.463 Y135.988 E11.95157
G1 X85.297 Y135.027 E11.984
G1 X85.166 Y134.197 E12.01195
G1 X85.069 Y133.527 E12.03447
G1 X84.977 Y132.611 E12.06509
G1 X84.965 Y131.69 E12.09572
G1 X85.067 Y130.507 E12.13521
G1 X85.208 Y129.527 E12.16814
G1 X85.338 Y128.721 E12.1953
G1 X85.452 Y128.059 E12.21764
G1 X85.714 Y126.917 E12.25661
G1 X85.846 Y126.46 E12.27243
G1 X86.532 Y123.988 E12.35776
G1 X87.135 Y121.542 E12.44155
G1 X87.671 Y119.077 E12.52545
G1 X88.143 Y116.564 E12.61049
G1 X88.537 Y114.076 E12.69428
G1 X88.86 Y111.585 E12.77782
G1 X89.117 Y109.045 E12.86273
G1 X89.296 Y106.564 E12.94547
G1 X89.409 Y104.008 E13.03056
G1 X89.451 Y101.237 E13.12274
G1 X89.452 Y95.89 E13.30058
G1 X89.462 Y95.219 E13.3229
G1 X89.516 Y94.3 E13.35352
G1 X89.649 Y93.389 E13.38414
G1 X89.861 Y92.493 E13.41476
G1 X90.15 Y91.619 E13.44538
G1 X90.513 Y90.773 E13.476
G1 X90.949 Y89.962 E13.50662
G1 X91.453 Y89.192 E13.53723
G1 X92.022 Y88.468 E13.56786
G1 X92.562 Y87.884 E13.59431
G1 X93.23 Y87.25 E13.62495
G1 X93.951 Y86.677 E13.65558
G1 X94.719 Y86.169 E13.6862
G1 X95.527 Y85.73 E13.71679
G1 X96.371 Y85.362 E13.74741
G1 X97.244 Y85.069 E13.77804
G1 X98.139 Y84.852 E13.80867
G1 X99.049 Y84.714 E13.83928
G1 X99.992 Y84.656 E13.87071
G1 X100.741 Y84.644 E13.89562
G1 X103.983 Y84.644 E14.00345
G1 X104.625 Y84.653 E14.02481
G0 F6000 X104.63 Y84.253
G1 F1200 X105.242 Y84.279 E14.04518
G1 X106.317 Y84.355 E14.08102
G1 X107.106 Y84.423 E14.10736
G1 X109.617 Y84.566 E14.19101
G1 X112.124 Y84.638 E14.27443
G1 X113.52 Y84.648 E14.32086
G1 X119.152 Y84.647 E14.50819
G1 X121.754 Y84.61 E14.59474
G1 X124.309 Y84.501 E14.67979
G1 X126.156 Y84.377 E14.74136
G1 X127.337 Y84.286 E14.78076
G1 X128.184 Y84.253 E14.80895
G1 X128.388 Y84.253 E14.81574
G1 X128.967 Y84.268 E14.835
G1 X129.957 Y84.325 E14.86798
G1 X131.206 Y84.429 E14.90967
G1 X132.3 Y84.528 E14.94621
G1 X133.552 Y84.714 E14.9883
G1 X133.816 Y84.769 E14.99727
G1 X134.491 Y84.932 E15.02037
G1 X135.047 Y85.085 E15.03955
G1 X135.822 Y85.33 E15.06658
G1 X136.24 Y85.479 E15.08134
G1 X136.607 Y85.617 E15.09438
G1 X137.161 Y85.837 E15.11421
G1 X137.627 Y86.034 E15.13104
G1 X138.744 Y86.55 E15.17196
G1 X139.38 Y86.862 E15.19552
G1 X140.442 Y87.458 E15.23603
G1 X141.136 Y87.903 E15.26345
G1 X141.697 Y88.276 E15.28585
G1 X142.495 Y88.793 E15.31748
G1 X143.26 Y89.336 E15.34868
G1 X144.051 Y90.013 E15.38331
G1 X144.337 Y90.282 E15.39637
G1 X144.701 Y90.64 E15.41335
G1 X144.951 Y90.898 E15.4253
G1 X145.574 Y91.599 E15.45649
G1 X145.863 Y91.969 E15.47211
G1 X146.347 Y92.619 E15.49906
G1 X147.138 Y93.711 E15.54391
G1 X147.537 Y94.278 E15.56697
G1 X148.043 Y95.067 E15.59814
G1 X148.481 Y95.896 E15.62933
G1 X148.846 Y96.76 E15.66052
G1 X149.026 Y97.282 E15.67889
G1 X149.183 Y97.777 E15.69616
G1 X149.282 Y98.106 E15.70759
G1 X149.438 Y98.657 E15.72663
G1 X149.664 Y99.62 E15.75953
G1 X149.737 Y100.008 E15.77267
G1 X149.845 Y100.704 E15.79609
G1 X149.876 Y100.957 E15.80457
G1 X149.937 Y101.613 E15.82648
G1 X149.982 Y102.494 E15.85582
G1 X149.985 Y103.178 E15.87857
G1 X149.968 Y103.823 E15.90003
G1 X149.897 Y104.816 E15.93314
G1 X149.866 Y105.08 E15.94199
G1 X149.802 Y105.539 E15.9574
G1 X149.712 Y106.1 E15.9763
G1 X149.442 Y107.33 E16.01818
G1 X149.245 Y108.018 E16.04198
G1 X149.058 Y108.624 E16.06308
G1 X148.743 Y109.508 E16.09429
G1 X148.355 Y110.362 E16.12549
G1 X147.895 Y111.179 E16.15667
G1 X147.547 Y111.706 E16.17768
G1 X147.027 Y112.444 E16.20771
G1 X146.311 Y113.43 E16.24823
G1 X145.877 Y114.012 E16.27238
G1 X145.084 Y114.959 E16.31346
G1 X144.934 Y115.119 E16.32076
G1 X144.578 Y115.481 E16.33764
G1 X144.213 Y115.836 E16.35458
G1 X143.514 Y116.461 E16.38577
G1 X143.03 Y116.835 E16.40611
G1 X142.158 Y117.471 E16.44201
G1 X140.066 Y119.045 E16.52908
G1 X138.087 Y120.623 E16.61327
G1 X136.203 Y122.215 E16.69531
G1 X134.284 Y123.931 E16.78093
G1 X132.472 Y125.645 E16.86389
G1 X130.702 Y127.42 E16.94726
G1 X128.953 Y129.273 E17.03201
G1 X127.297 Y131.131 E17.11479
G1 X125.682 Y133.049 E17.19819
G1 X124.097 Y135.044 E17.28293
G1 X122.602 Y137.038 E17.36582
G1 X121.142 Y139.107 E17.45005
G1 X119.359 Y141.811 E17.55777
G1 X118.48 Y143.196 E17.61233
G1 X118.06 Y143.811 E17.6371
G1 X117.787 Y144.183 E17.65245
G1 X117.295 Y144.806 E17.67885
G1 X117.106 Y145.028 E17.68855
G1 X116.226 Y145.947 E17.73087
G1 X115.979 Y146.177 E17.7421
G1 X115.73 Y146.402 E17.75326
G1 X115.4 Y146.691 E17.76785
G1 X114.351 Y147.503 E17.81197
G1 X114.178 Y147.621 E17.81893
G1 X113.554 Y148.017 E17.84352
G1 X113.064 Y148.305 E17.86242
G1 X112.236 Y148.746 E17.89362
G1 X111.257 Y149.157 E17.92894
G1 X110.604 Y149.395 E17.95205
G1 X109.548 Y149.721 E17.98881
G1 X108.3 Y150.038 E18.03164
G1 X106.683 Y150.481 E18.0874
G1 X105.317 Y150.839 E18.13437
G1 X104.4 Y151.038 E18.16558
