;FLAVOR:Marlin
;TIME:3552
;Filament used: 2.58081m
;Layer height: 0.3
;MINX:85.018
;MINY:80.223
;MINZ:0.2
;MAXX:159.321
;MAXY:162.277
;MAXZ:38
;Generated with Cura_SteamEngine 4.6.1
M140 S60
M105
M190 S60
M104 S200
M105
M109 S200
M82 ;absolute extrusion mode
; Ender 3 Custom Start G-code
G92 E0 ; Reset Extruder
G28 ; Home all axes
G1 Z2.0 F3000 ; Move Z Axis up little to prevent scratching of Heat Bed
G1 X0.1 Y20 Z0.3 F5000.0 ; Move to start position
G1 X0.1 Y200.0 Z0.3 F1500.0 E15 ; Draw the first line
G1 X0.4 Y200.0 Z0.3 F5000.0 ; Move to side a little
G1 X0.4 Y20 Z0.3 F1500.0 E30 ; Draw the second line
G92 E0 ; Reset Extruder
G1 Z2.0 F3000 ; Move Z Axis up little to prevent scratching of Heat Bed
G1 X5 Y20 Z0.3 F5000.0 ; Move over to prevent blob squish
G92 E0
G92 E0
G1 F1500 E-6.5
;LAYER_COUNT:127
;LAYER:0
M107
G0 F6000 X140.548 Y81.11 Z0.2
;TYPE:SKIRT
G1 F1500 E0
G1 F1200 X141.441 Y81.25 E0.03006
G1 X142.317 Y81.468 E0.06009
G1 X143.207 Y81.776 E0.09141
G1 X143.685 Y81.967 E0.10853
G1 X144.508 Y82.339 E0.13857
G1 X145.295 Y82.782 E0.16861
G1 X146.039 Y83.293 E0.19863
G1 X146.736 Y83.868 E0.22868
G1 X147.378 Y84.503 E0.25872
G1 X147.937 Y85.159 E0.28738
G1 X148.13 Y85.406 E0.29781
G1 X148.654 Y86.141 E0.32783
G1 X149.079 Y86.859 E0.35558
G1 X150.269 Y89.073 E0.43918
G1 X151.533 Y91.283 E0.52386
G1 X152.856 Y93.448 E0.60825
G1 X154.219 Y95.547 E0.69149
G1 X155.137 Y96.857 E0.74469
G1 X155.916 Y98.005 E0.79084
G1 X156.424 Y98.836 E0.82323
G1 X156.627 Y99.207 E0.8373
G1 X156.798 Y99.534 E0.84957
G1 X157.04 Y100.017 E0.86754
G1 X157.455 Y100.961 E0.90184
G1 X157.717 Y101.65 E0.92635
G1 X158 Y102.507 E0.95637
G1 X158.277 Y103.81 E1.00068
G1 X158.314 Y104.065 E1.00925
G1 X158.368 Y104.498 E1.02376
G1 X158.488 Y105.724 E1.06473
G1 X158.506 Y105.975 E1.0731
G1 X158.522 Y107.16 E1.11252
G1 X158.51 Y107.429 E1.12148
G1 X158.453 Y108.202 E1.14726
G1 X158.366 Y109.086 E1.1768
G1 X158.238 Y109.98 E1.20684
G1 X158.031 Y110.859 E1.23687
G1 X157.825 Y111.507 E1.25949
G1 X157.657 Y111.968 E1.27581
G1 X157.466 Y112.465 E1.29352
G1 X157.158 Y113.184 E1.31953
G1 X157.024 Y113.466 E1.32992
G1 X156.804 Y113.9 E1.3461
G1 X156.476 Y114.513 E1.36922
G1 X156.022 Y115.281 E1.3989
G1 X155.769 Y115.662 E1.41411
G1 X154.393 Y117.673 E1.49515
G1 X153.008 Y119.813 E1.57994
G1 X151.671 Y122.017 E1.66568
G1 X150.419 Y124.219 E1.74993
G1 X149.585 Y125.769 E1.80847
G1 X149.14 Y126.617 E1.84032
G1 X148.528 Y127.634 E1.8798
G1 X148.394 Y127.83 E1.88769
G1 X147.852 Y128.552 E1.91772
G1 X147.139 Y129.333 E1.95289
G1 X147.063 Y129.408 E1.95645
G1 X146.392 Y130.013 E1.9865
G1 X145.671 Y130.557 E2.01654
G1 X144.997 Y130.982 E2.04304
G1 X143.993 Y131.561 E2.08159
G1 X141.773 Y132.887 E2.16759
G1 X139.611 Y134.262 E2.25281
G1 X137.546 Y135.659 E2.33573
G1 X135.435 Y137.176 E2.4222
G1 X133.469 Y138.676 E2.50444
G1 X131.448 Y140.308 E2.59084
G1 X129.52 Y141.958 E2.67525
G1 X127.666 Y143.639 E2.75848
G1 X125.822 Y145.409 E2.8435
G1 X124.014 Y147.242 E2.92913
G1 X122.308 Y149.077 E3.01246
G1 X120.639 Y150.974 E3.0965
G1 X118.998 Y152.95 E3.18193
G1 X117.31 Y155.087 E3.27251
G1 X116.45 Y156.044 E3.3153
G1 X116.179 Y156.31 E3.32793
G1 X115.786 Y156.676 E3.34579
G1 X115.341 Y157.069 E3.36554
G1 X114.638 Y157.637 E3.3956
G1 X113.967 Y158.091 E3.42255
G1 X113.635 Y158.297 E3.43554
G1 X113.328 Y158.48 E3.44743
G1 X113.04 Y158.645 E3.45847
G1 X112.45 Y158.96 E3.48071
G1 X111.629 Y159.337 E3.51076
G1 X111.185 Y159.506 E3.52656
G1 X110.967 Y159.583 E3.53425
G1 X110.486 Y159.739 E3.55107
G1 X109.593 Y160.001 E3.58202
G1 X108.876 Y160.191 E3.60669
G1 X107.377 Y160.567 E3.6581
G1 X106.962 Y160.683 E3.67243
G1 X105.586 Y161.05 E3.71979
G1 X104.262 Y161.311 E3.76468
G1 X103.983 Y161.347 E3.77403
G1 X103.449 Y161.402 E3.79189
G1 X102.829 Y161.449 E3.81257
G1 X101.926 Y161.477 E3.84262
G1 X101.096 Y161.432 E3.87026
G1 X100.255 Y161.348 E3.89837
G1 X99.956 Y161.31 E3.9084
G1 X99.066 Y161.156 E3.93844
G1 X98.413 Y160.991 E3.96084
G1 X98.032 Y160.881 E3.97403
G1 X97.672 Y160.77 E3.98656
G1 X97.198 Y160.614 E4.00316
G1 X96.354 Y160.294 E4.03318
G1 X95.267 Y159.747 E4.07365
G1 X94.95 Y159.563 E4.08584
G1 X94.59 Y159.344 E4.09986
G1 X94.097 Y159.03 E4.1193
G1 X93.358 Y158.512 E4.14932
G1 X92.797 Y158.048 E4.17353
G1 X92.507 Y157.79 E4.18644
G1 X92.268 Y157.57 E4.19725
G1 X91.841 Y157.165 E4.21682
G1 X91.214 Y156.515 E4.24686
G1 X90.544 Y155.671 E4.2827
G1 X90.365 Y155.419 E4.29298
G1 X89.793 Y154.516 E4.32853
G1 X88.987 Y153.082 E4.38324
G1 X88.599 Y152.369 E4.41024
G1 X87.899 Y151.044 E4.46008
G1 X87.525 Y150.308 E4.48754
G1 X87.208 Y149.664 E4.51142
G1 X86.845 Y148.837 E4.54146
G1 X86.557 Y147.981 E4.5715
G1 X86.31 Y146.91 E4.60805
G1 X86.148 Y145.969 E4.63981
G1 X86.017 Y145.141 E4.66769
G1 X85.918 Y144.453 E4.69081
G1 X85.829 Y143.554 E4.72086
G1 X85.82 Y142.651 E4.75089
G1 X85.917 Y141.558 E4.78739
G1 X86.055 Y140.6 E4.81958
G1 X86.188 Y139.767 E4.84764
G1 X86.301 Y139.113 E4.86971
G1 X86.494 Y138.231 E4.89974
G1 X86.764 Y137.369 E4.92979
G1 X87.179 Y136.389 E4.96518
G1 X87.618 Y135.49 E4.99846
G1 X87.981 Y134.781 E5.02495
G1 X88.462 Y133.876 E5.05904
G1 X88.773 Y133.327 E5.08002
G1 X89.657 Y131.806 E5.13854
G1 X90.863 Y129.591 E5.22242
G1 X92.023 Y127.31 E5.30753
G1 X93.109 Y125.015 E5.39198
G1 X94.123 Y122.702 E5.47598
G1 X95.089 Y120.323 E5.56138
G1 X95.96 Y117.988 E5.64427
G1 X96.798 Y115.534 E5.73052
G1 X97.539 Y113.142 E5.8138
G1 X98.23 Y110.669 E5.89921
G1 X98.845 Y108.201 E5.9838
G1 X99.384 Y105.737 E6.06769
G1 X99.855 Y103.251 E6.15185
G1 X100.259 Y100.734 E6.23664
G1 X100.397 Y99.746 E6.26982
G1 X100.439 Y99.482 E6.27871
G1 X100.62 Y98.598 E6.30872
G1 X100.879 Y97.732 E6.33878
G1 X101.213 Y96.894 E6.36879
G1 X101.62 Y96.087 E6.39885
G1 X102.097 Y95.32 E6.42889
G1 X102.64 Y94.599 E6.45891
G1 X103.245 Y93.928 E6.48896
G1 X103.906 Y93.313 E6.51899
G1 X104.619 Y92.759 E6.54902
G1 X105.379 Y92.271 E6.57906
G1 X106.179 Y91.851 E6.60911
G1 X107.012 Y91.504 E6.63913
G1 X107.874 Y91.232 E6.66919
G1 X108.315 Y91.125 E6.68429
G1 X109.353 Y90.896 E6.71964
G1 X112.046 Y90.312 E6.81129
G1 X114.461 Y89.719 E6.894
G1 X116.923 Y89.039 E6.97895
G1 X119.349 Y88.295 E7.06335
G1 X121.785 Y87.471 E7.14888
G1 X124.155 Y86.594 E7.23293
G1 X126.482 Y85.657 E7.31637
G1 X128.841 Y84.629 E7.40196
G1 X131.136 Y83.551 E7.48629
G1 X132.702 Y82.77 E7.54449
G1 X133.379 Y82.463 E7.56922
G1 X134.524 Y81.994 E7.61037
G1 X135.071 Y81.778 E7.62993
G1 X135.925 Y81.484 E7.65997
G1 X136.801 Y81.266 E7.68999
G1 X137.4 Y81.164 E7.7102
G1 X137.735 Y81.117 E7.72146
G1 X138.634 Y81.031 E7.75149
G1 X139.537 Y81.025 E7.78153
G1 X140.278 Y81.08 E7.80624
G1 X140.548 Y81.11 E7.81528
G0 F6000 X140.593 Y80.713
G1 F1200 X141.502 Y80.854 E7.84587
G1 X142.396 Y81.074 E7.87649
G1 X143.355 Y81.405 E7.91024
G1 X143.833 Y81.596 E7.92736
G1 X144.672 Y81.974 E7.95796
G1 X145.476 Y82.424 E7.98861
G1 X146.237 Y82.942 E8.01923
G1 X146.95 Y83.524 E8.04984
G1 X147.611 Y84.165 E8.08046
G1 X148.253 Y84.913 E8.11325
G1 X148.446 Y85.16 E8.12367
G1 X148.98 Y85.909 E8.15427
G1 X149.431 Y86.67 E8.18369
G1 X150.61 Y88.864 E8.26653
G1 X151.873 Y91.071 E8.35111
G1 X153.19 Y93.227 E8.43514
G1 X154.549 Y95.321 E8.51817
G1 X155.468 Y96.632 E8.57142
G1 X156.247 Y97.78 E8.61756
G1 X156.775 Y98.644 E8.65124
G1 X156.978 Y99.015 E8.6653
G1 X157.156 Y99.355 E8.67807
G1 X157.398 Y99.838 E8.69604
G1 X157.829 Y100.818 E8.73164
G1 X158.091 Y101.507 E8.75616
G1 X158.38 Y102.381 E8.78678
G1 X158.593 Y103.277 E8.81741
G1 X158.673 Y103.753 E8.83346
G1 X158.71 Y104.008 E8.84203
G1 X158.766 Y104.457 E8.85708
G1 X158.86 Y105.381 E8.88797
G1 X158.905 Y105.947 E8.90686
G1 X158.921 Y107.177 E8.94777
G1 X158.909 Y107.446 E8.95673
G1 X158.851 Y108.241 E8.98324
G1 X158.764 Y109.125 E9.01278
G1 X158.634 Y110.037 E9.04342
G1 X158.426 Y110.933 E9.07402
G1 X158.202 Y111.641 E9.09872
G1 X158.03 Y112.112 E9.11539
G1 X157.839 Y112.609 E9.1331
G1 X157.519 Y113.355 E9.1601
G1 X157.385 Y113.637 E9.17049
G1 X157.157 Y114.089 E9.18732
G1 X156.829 Y114.702 E9.21045
G1 X156.356 Y115.499 E9.24127
G1 X156.099 Y115.888 E9.25678
G1 X154.727 Y117.894 E9.33761
G1 X153.343 Y120.031 E9.42229
G1 X152.018 Y122.216 E9.50728
G1 X150.761 Y124.426 E9.59185
G1 X149.939 Y125.955 E9.64959
G1 X149.494 Y126.803 E9.68144
G1 X148.858 Y127.859 E9.72244
G1 X148.724 Y128.055 E9.73034
G1 X148.172 Y128.792 E9.76096
G1 X147.42 Y129.618 E9.79811
G1 X147.344 Y129.693 E9.80167
G1 X146.661 Y130.31 E9.83228
G1 X145.927 Y130.866 E9.86291
G1 X145.197 Y131.328 E9.89164
G1 X144.243 Y131.879 E9.92828
G1 X141.962 Y133.24 E10.01663
G1 X139.853 Y134.582 E10.09977
G1 X137.748 Y136.006 E10.1843
G1 X135.689 Y137.486 E10.26864
G1 X133.7 Y139.003 E10.35183
G1 X131.713 Y140.607 E10.43677
G1 X129.812 Y142.235 E10.52001
G1 X127.91 Y143.959 E10.60539
G1 X126.1 Y145.695 E10.68881
G1 X124.309 Y147.512 E10.77367
G1 X122.619 Y149.329 E10.8562
G1 X120.929 Y151.251 E10.94132
G1 X119.319 Y153.189 E11.02512
G1 X117.624 Y155.335 E11.11608
G1 X116.73 Y156.33 E11.16057
G1 X116.459 Y156.596 E11.1732
G1 X116.051 Y156.976 E11.19174
G1 X115.606 Y157.369 E11.21149
G1 X114.89 Y157.948 E11.24211
G1 X114.178 Y158.431 E11.27073
G1 X113.846 Y158.637 E11.28372
G1 X113.526 Y158.827 E11.2961
G1 X113.238 Y158.992 E11.30714
G1 X112.632 Y159.316 E11.33
G1 X111.796 Y159.701 E11.36061
G1 X111.318 Y159.883 E11.37762
G1 X111.1 Y159.96 E11.38531
G1 X110.6 Y160.123 E11.4028
G1 X109.696 Y160.388 E11.43414
G1 X108.973 Y160.579 E11.45901
G1 X107.487 Y160.952 E11.50997
G1 X107.065 Y161.07 E11.52454
G1 X105.689 Y161.437 E11.57191
G1 X104.79 Y161.635 E11.60252
G1 X104.313 Y161.708 E11.61857
G1 X104.034 Y161.744 E11.62793
G1 X103.479 Y161.801 E11.64649
G1 X102.859 Y161.848 E11.66717
G1 X101.939 Y161.877 E11.69778
G1 X101.058 Y161.831 E11.72712
G1 X100.541 Y161.782 E11.7444
G1 X99.906 Y161.706 E11.76567
G1 X98.998 Y161.551 E11.7963
G1 X98.302 Y161.375 E11.82018
G1 X97.921 Y161.265 E11.83337
G1 X97.547 Y161.15 E11.84638
G1 X97.073 Y160.994 E11.86298
G1 X96.212 Y160.668 E11.8936
G1 X95.066 Y160.093 E11.93625
G1 X94.749 Y159.909 E11.94844
G1 X94.376 Y159.682 E11.96296
G1 X93.883 Y159.368 E11.9824
G1 X93.128 Y158.84 E12.01305
G1 X92.531 Y158.347 E12.0388
G1 X92.241 Y158.089 E12.05171
G1 X91.992 Y157.86 E12.06296
G1 X91.565 Y157.455 E12.08253
G1 X90.926 Y156.793 E12.11314
G1 X90.218 Y155.902 E12.15099
G1 X90.039 Y155.65 E12.16127
G1 X89.444 Y154.712 E12.19821
G1 X88.636 Y153.274 E12.25307
G1 X88.246 Y152.556 E12.28025
G1 X87.543 Y151.226 E12.33029
G1 X87.166 Y150.484 E12.35797
G1 X86.849 Y149.84 E12.38184
G1 X86.478 Y148.997 E12.41247
G1 X86.183 Y148.126 E12.44306
G1 X85.916 Y146.979 E12.48223
G1 X85.753 Y146.032 E12.51419
G1 X85.621 Y145.198 E12.54227
G1 X85.522 Y144.51 E12.56539
G1 X85.431 Y143.594 E12.59601
G1 X85.419 Y142.673 E12.62664
G1 X85.521 Y141.501 E12.66577
G1 X85.66 Y140.537 E12.69817
G1 X85.794 Y139.699 E12.72639
G1 X85.907 Y139.045 E12.74847
G1 X86.103 Y138.146 E12.77907
G1 X86.376 Y137.267 E12.80968
G1 X86.819 Y136.214 E12.84768
G1 X87.262 Y135.309 E12.88119
G1 X87.627 Y134.594 E12.90789
G1 X88.114 Y133.679 E12.94237
G1 X88.427 Y133.126 E12.9635
G1 X89.318 Y131.593 E13.02248
G1 X90.513 Y129.397 E13.10563
G1 X91.661 Y127.14 E13.18985
G1 X92.739 Y124.862 E13.27367
G1 X93.75 Y122.558 E13.35736
G1 X94.719 Y120.171 E13.44304
G1 X95.594 Y117.825 E13.52632
G1 X96.41 Y115.433 E13.61038
G1 X97.157 Y113.021 E13.69436
G1 X97.842 Y110.57 E13.77901
G1 X98.454 Y108.116 E13.86313
G1 X98.992 Y105.655 E13.94692
G1 X99.461 Y103.184 E14.03057
G1 X99.865 Y100.66 E14.11559
G1 X100.044 Y99.42 E14.15726
G1 X100.228 Y98.518 E14.18787
G1 X100.489 Y97.635 E14.2185
G1 X100.826 Y96.778 E14.24913
G1 X101.237 Y95.954 E14.27975
G1 X101.717 Y95.168 E14.31039
G1 X102.263 Y94.428 E14.34097
G1 X102.872 Y93.737 E14.37161
G1 X103.539 Y93.102 E14.40224
G1 X104.258 Y92.527 E14.43286
G1 X105.024 Y92.016 E14.46348
G1 X105.831 Y91.574 E14.49409
G1 X106.674 Y91.204 E14.52471
G1 X107.546 Y90.908 E14.55534
G1 X108.228 Y90.734 E14.57875
G1 X109.266 Y90.505 E14.6141
G1 X111.904 Y89.935 E14.70387
G1 X114.373 Y89.328 E14.78843
G1 X116.837 Y88.648 E14.87345
G1 X119.209 Y87.92 E14.95597
G1 X121.655 Y87.093 E15.04185
G1 X123.984 Y86.23 E15.12446
G1 X126.352 Y85.278 E15.20935
G1 X128.677 Y84.264 E15.29371
G1 X130.967 Y83.189 E15.37785
G1 X132.524 Y82.412 E15.43573
G1 X133.227 Y82.093 E15.4614
G1 X134.377 Y81.622 E15.50274
G1 X134.924 Y81.406 E15.5223
G1 X135.794 Y81.105 E15.55292
G1 X136.687 Y80.881 E15.58354
G1 X137.344 Y80.768 E15.60571
G1 X137.679 Y80.721 E15.61696
G1 X138.596 Y80.633 E15.6476
G1 X139.516 Y80.624 E15.6782
G1 X140.323 Y80.683 E15.70511
G1 X140.593 Y80.713 E15.71415
G0 F6000 X140.637 Y80.315
G1 F1200 X141.564 Y80.458 E15.74535
G1 X142.475 Y80.68 E15.77653
G1 X143.504 Y81.033 E15.81272
G1 X143.982 Y81.224 E15.82984
G1 X144.837 Y81.609 E15.86102
G1 X145.656 Y82.065 E15.8922
G1 X146.434 Y82.59 E15.92342
G1 X147.164 Y83.179 E15.95462
G1 X147.841 Y83.827 E15.98579
G1 X148.568 Y84.666 E16.02271
G1 X148.761 Y84.913 E16.03314
G1 X149.306 Y85.676 E16.06432
G1 X149.783 Y86.481 E16.09544
G1 X150.959 Y88.671 E16.17812
G1 X152.218 Y90.87 E16.2624
G1 X153.523 Y93.007 E16.34568
G1 X154.879 Y95.095 E16.42849
G1 X155.799 Y96.407 E16.48178
G1 X156.578 Y97.555 E16.52793
G1 X157.126 Y98.452 E16.56289
G1 X157.329 Y98.823 E16.57696
G1 X157.514 Y99.176 E16.59021
G1 X157.756 Y99.659 E16.60818
G1 X158.203 Y100.676 E16.64513
G1 X158.465 Y101.365 E16.66965
G1 X158.76 Y102.255 E16.70083
G1 X158.979 Y103.167 E16.73203
G1 X159.069 Y103.695 E16.74984
G1 X159.106 Y103.95 E16.75841
G1 X159.164 Y104.417 E16.77406
G1 X159.258 Y105.341 E16.80495
G1 X159.304 Y105.918 E16.82421
G1 X159.321 Y107.195 E16.86668
G1 X159.309 Y107.464 E16.87564
G1 X159.249 Y108.28 E16.90285
G1 X159.162 Y109.164 E16.9324
G1 X159.031 Y110.093 E16.9636
G1 X158.82 Y111.007 E16.9948
G1 X158.578 Y111.775 E17.02158
G1 X158.404 Y112.255 E17.03856
G1 X158.213 Y112.752 E17.05627
G1 X157.88 Y113.527 E17.08433
G1 X157.746 Y113.809 E17.09471
G1 X157.51 Y114.278 E17.11217
G1 X157.182 Y114.891 E17.1353
G1 X156.691 Y115.718 E17.16729
G1 X156.43 Y116.114 E17.18306
G1 X155.042 Y118.142 E17.2648
G1 X153.688 Y120.235 E17.34771
G1 X152.365 Y122.415 E17.43252
G1 X151.122 Y124.601 E17.51616
G1 X150.242 Y126.238 E17.57798
G1 X149.848 Y126.988 E17.60615
G1 X149.189 Y128.085 E17.64872
G1 X149.055 Y128.281 E17.65662
G1 X148.493 Y129.032 E17.68781
G1 X147.7 Y129.903 E17.72699
G1 X147.624 Y129.978 E17.73054
G1 X146.929 Y130.607 E17.76172
G1 X146.183 Y131.175 E17.79291
G1 X145.397 Y131.675 E17.82389
G1 X144.392 Y132.255 E17.86248
G1 X142.201 Y133.563 E17.94735
G1 X140.046 Y134.934 E18.0323
G1 X137.983 Y136.329 E18.11514
G1 X135.936 Y137.801 E18.19899
G1 X133.931 Y139.33 E18.28286
G1 X131.979 Y140.907 E18.36632
G1 X130.067 Y142.544 E18.45004
G1 X128.192 Y144.243 E18.5342
G1 X126.38 Y145.982 E18.61773
G1 X124.604 Y147.783 E18.70186
G1 X122.895 Y149.621 E18.78533
G1 X121.238 Y151.505 E18.86878
G1 X119.616 Y153.457 E18.95319
G1 X117.937 Y155.583 E19.0433
G1 X117.01 Y156.615 E19.08944
G1 X116.739 Y156.881 E19.10207
G1 X116.316 Y157.276 E19.12132
G1 X115.871 Y157.669 E19.14106
G1 X115.142 Y158.259 E19.17225
G1 X114.389 Y158.771 E19.20254
G1 X114.057 Y158.977 E19.21554
G1 X113.725 Y159.175 E19.22839
G1 X113.437 Y159.34 E19.23943
G1 X112.815 Y159.672 E19.26288
G1 X111.963 Y160.065 E19.29409
G1 X111.452 Y160.26 E19.31228
G1 X111.234 Y160.337 E19.31997
G1 X110.715 Y160.506 E19.33812
G1 X110.115 Y160.685 E19.35895
G1 X109.799 Y160.774 E19.36987
G1 X109.071 Y160.967 E19.39492
G1 X107.579 Y161.341 E19.44608
G1 X107.168 Y161.456 E19.46027
