;FLAVOR:Marlin
;TIME:4781
;Filament used: 4.6438m
;Layer height: 0.3
;MINX:64.506
;MINY:84.955
;MINZ:0.24
;MAXX:170.091
;MAXY:149.523
;MAXZ:39.44
;Generated with Cura_SteamEngine 4.6.1
M140 S60
M105
M190 S60
M104 S220
M105
M109 S220
M82 ;absolute extrusion mode
; Ender 3 Custom Start G-code
G92 E0 ; Reset Extruder
G28 ; Home all axes
G1 Z2.0 F3000 ; Move Z Axis up little to prevent scratching of Heat Bed
G1 X0.1 Y20 Z0.3 F5000.0 ; Move to start position
G1 X0.1 Y200.0 Z0.3 F1500.0 E15 ; Draw the first line
G1 X0.4 Y200.0 Z0.3 F5000.0 ; Move to side a little
G1 X0.4 Y20 Z0.3 F1500.0 E30 ; Draw the second line
G92 E0 ; Reset Extruder
G1 Z2.0 F3000 ; Move Z Axis up little to prevent scratching of Heat Bed
G1 X5 Y20 Z0.3 F5000.0 ; Move over to prevent blob squish
G92 E0
G92 E0
G1 F1500 E-6.5
;LAYER_COUNT:127
;LAYER:-5
M107
G0 F9000 X74.352 Y108.117 Z0.24
;TYPE:SUPPORT-INTERFACE
G1 F1500 E0
G1 F1125 X75.099 Y107.6 E0.07252
G1 X75.256 Y107.502 E0.08729
G1 X76.44 Y106.825 E0.19616
G1 X78.316 Y105.865 E0.36438
G1 X79.231 Y105.439 E0.44495
G1 X79.372 Y105.379 E0.45718
G1 X80.214 Y105.058 E0.52911
G1 X80.386 Y105 E0.5436
G1 X81.229 Y104.748 E0.61383
G1 X81.48 Y104.688 E0.63443
G1 X82.028 Y104.54 E0.67975
G1 X82.443 Y104.404 E0.71461
G1 X82.991 Y104.236 E0.76036
G1 X83.899 Y103.99 E0.83545
G1 X84.062 Y103.953 E0.8488
G1 X84.952 Y103.78 E0.92117
G1 X85.118 Y103.754 E0.93458
G1 X85.859 Y103.659 E0.99421
G1 X86.758 Y103.571 E1.06632
G1 X87.686 Y103.511 E1.14055
G1 X87.844 Y103.507 E1.15317
G1 X88.765 Y103.516 E1.22669
G1 X88.91 Y103.523 E1.23828
G1 X89.693 Y103.582 E1.30096
G1 X90.563 Y103.671 E1.37077
G1 X91.493 Y103.801 E1.44573
G1 X91.697 Y103.837 E1.46226
G1 X92.567 Y104.023 E1.53328
G1 X92.73 Y104.064 E1.54669
G1 X93.458 Y104.271 E1.60711
G1 X94.316 Y104.544 E1.67898
G1 X94.618 Y104.65 E1.70453
G1 X95.538 Y105.005 E1.78325
G1 X96.177 Y105.206 E1.83672
G1 X96.849 Y105.328 E1.89124
G1 X97.531 Y105.364 E1.94575
G1 X98.212 Y105.313 E2.00027
G1 X98.88 Y105.177 E2.05468
G1 X99.527 Y104.958 E2.10921
G1 X100.141 Y104.659 E2.16372
G1 X100.712 Y104.285 E2.21821
G1 X101.232 Y103.841 E2.27279
G1 X101.691 Y103.336 E2.32726
G1 X102.082 Y102.778 E2.38165
G1 X102.105 Y102.735 E2.38555
G1 X102.116 Y102.74 E2.38651
G1 X102.811 Y101.399 E2.50708
G1 X103.277 Y100.634 E2.57858
G1 X103.407 Y100.439 E2.59729
G1 X103.897 Y99.755 E2.66445
G1 X104.01 Y99.607 E2.67932
G1 X104.683 Y98.807 E2.76277
G1 X105.329 Y98.132 E2.83735
G1 X106.025 Y97.486 E2.91315
G1 X106.164 Y97.367 E2.92775
G1 X106.855 Y96.813 E2.99845
G1 X106.994 Y96.709 E3.01231
G1 X107.709 Y96.216 E3.08164
G1 X107.893 Y96.1 E3.099
G1 X108.649 Y95.657 E3.16894
G1 X108.791 Y95.58 E3.18184
G1 X109.736 Y95.121 E3.2657
G1 X110.591 Y94.776 E3.3393
G1 X110.758 Y94.716 E3.35346
G1 X111.597 Y94.447 E3.42379
G1 X111.761 Y94.401 E3.43739
G1 X112.633 Y94.189 E3.50902
G1 X112.795 Y94.156 E3.52222
G1 X113.688 Y94.008 E3.59448
G1 X113.865 Y93.985 E3.60872
G1 X114.902 Y93.895 E3.69181
G1 X115.64 Y93.874 E3.75075
G1 X119.957 Y93.874 E4.09535
G1 X120.943 Y93.91 E4.17411
G1 X121.103 Y93.922 E4.18691
G1 X122 Y94.02 E4.25894
G1 X122.176 Y94.045 E4.27313
G1 X123.046 Y94.206 E4.34376
G1 X123.707 Y94.285 E4.3969
G1 X124.154 Y94.291 E4.43258
G1 X124.7 Y94.278 E4.47618
G1 X125.466 Y94.278 E4.53733
G1 X126.134 Y94.236 E4.59075
G1 X126.805 Y94.107 E4.6453
G1 X127.454 Y93.894 E4.69982
G1 X128.071 Y93.602 E4.75431
G1 X128.646 Y93.234 E4.8088
G1 X129.166 Y92.799 E4.86292
G1 X129.45 Y92.508 E4.89538
G1 X129.846 Y92.071 E4.94245
G1 X129.949 Y91.965 E4.95425
G1 X130.59 Y91.354 E5.02494
G1 X130.753 Y91.209 E5.04236
G1 X131.432 Y90.65 E5.11256
G1 X131.897 Y90.294 E5.15931
G1 X131.895 Y90.291 E5.1596
G1 X132.197 Y90.034 E5.19125
G1 X132.343 Y89.919 E5.20609
G1 X133.184 Y89.312 E5.28888
G1 X133.981 Y88.816 E5.36381
G1 X134.114 Y88.74 E5.37604
G1 X134.905 Y88.324 E5.44738
G1 X135.053 Y88.253 E5.46048
G1 X136.013 Y87.838 E5.54397
G1 X136.846 Y87.541 E5.61456
G1 X139.381 Y86.719 E5.82729
G1 X140.444 Y86.422 E5.91539
G1 X141.346 Y86.235 E5.98892
G1 X141.487 Y86.211 E6.00034
G1 X142.39 Y86.092 E6.07305
G1 X142.572 Y86.074 E6.08765
G1 X143.427 Y86.024 E6.15601
G1 X143.64 Y86.02 E6.17302
G1 X144.513 Y86.033 E6.24271
G1 X144.698 Y86.041 E6.25749
G1 X145.414 Y86.096 E6.31482
G1 X146.939 Y86.258 E6.43723
G1 X148.007 Y86.415 E6.5234
G1 X148.901 Y86.609 E6.59643
G1 X149.075 Y86.654 E6.61077
G1 X150.306 Y87.031 E6.71354
G1 X150.801 Y87.21 E6.75556
G1 X151.658 Y87.55 E6.82915
G1 X151.819 Y87.62 E6.84317
G1 X152.599 Y87.997 E6.91232
G1 X152.782 Y88.096 E6.92893
G1 X154.099 Y88.891 E7.05173
G1 X154.308 Y89.033 E7.0719
G1 X155.093 Y89.609 E7.14962
G1 X155.225 Y89.713 E7.16303
G1 X155.92 Y90.305 E7.23591
G1 X156.047 Y90.422 E7.24969
G1 X156.676 Y91.044 E7.32031
G1 X156.782 Y91.157 E7.33267
G1 X157.402 Y91.865 E7.4078
G1 X157.485 Y91.968 E7.41836
G1 X158.109 Y92.801 E7.50144
G1 X158.425 Y93.276 E7.54698
G1 X158.746 Y93.783 E7.59488
G1 X159.207 Y94.566 E7.66741
G1 X159.291 Y94.722 E7.68155
G1 X159.682 Y95.511 E7.75184
G1 X159.753 Y95.669 E7.76567
G1 X160.087 Y96.493 E7.83664
G1 X160.152 Y96.67 E7.85169
G1 X160.424 Y97.512 E7.92233
G1 X160.476 Y97.696 E7.93759
G1 X160.581 Y98.121 E7.97253
G1 X160.781 Y98.76 E8.02598
G1 X161.066 Y99.381 E8.08052
G1 X161.427 Y99.96 E8.13499
G1 X161.855 Y100.486 E8.18912
G1 X162.197 Y100.825 E8.22756
G1 X162.349 Y100.965 E8.24406
G1 X162.87 Y101.488 E8.30298
G1 X163.49 Y102.151 E8.37544
G1 X163.615 Y102.297 E8.39079
G1 X164.5 Y103.433 E8.50574
G1 X165.868 Y105.329 E8.69237
G1 X166.38 Y106.095 E8.76591
G1 X166.476 Y106.25 E8.78047
G1 X166.906 Y107.007 E8.84996
G1 X166.993 Y107.174 E8.86499
G1 X167.376 Y107.978 E8.93608
G1 X167.441 Y108.127 E8.94906
G1 X167.818 Y109.11 E9.0331
G1 X168.058 Y109.864 E9.09626
G1 X168.319 Y110.743 E9.16945
G1 X168.586 Y111.777 E9.2547
G1 X168.737 Y112.549 E9.31749
G1 X168.832 Y113.135 E9.36488
G1 X168.888 Y113.549 E9.39823
G1 X169.012 Y114.885 E9.50533
G1 X169.043 Y115.532 E9.55704
G1 X169.044 Y116.965 E9.67142
G1 X169.013 Y117.595 E9.72177
G1 X168.868 Y119.085 E9.84128
G1 X168.831 Y119.337 E9.86161
G1 X168.707 Y120.086 E9.92221
G1 X168.466 Y121.19 E10.01241
G1 X168.33 Y121.688 E10.05362
G1 X167.992 Y122.82 E10.14792
G1 X167.647 Y123.829 E10.23304
G1 X167.292 Y124.673 E10.30613
G1 X167.217 Y124.833 E10.32024
G1 X166.818 Y125.62 E10.39067
G1 X166.74 Y125.762 E10.4036
G1 X166.193 Y126.659 E10.48747
G1 X165.854 Y127.153 E10.53529
G1 X164.365 Y129.217 E10.73845
G1 X163.766 Y129.984 E10.81613
G1 X163.66 Y130.11 E10.82928
G1 X162.828 Y131.017 E10.92753
G1 X162.31 Y131.534 E10.98595
G1 X162.074 Y131.753 E11.01165
G1 X161.613 Y132.239 E11.06512
G1 X161.209 Y132.79 E11.11966
G1 X160.879 Y133.387 E11.17411
G1 X160.628 Y134.018 E11.22831
G1 X160.501 Y134.469 E11.26572
G1 X160.4 Y134.903 E11.30129
G1 X160.355 Y135.066 E11.31478
G1 X159.926 Y136.391 E11.42596
G1 X159.888 Y136.485 E11.43405
G1 X159.535 Y137.322 E11.50656
G1 X159.463 Y137.479 E11.52035
G1 X159.053 Y138.28 E11.59218
G1 X158.971 Y138.428 E11.60568
G1 X158.346 Y139.444 E11.7009
G1 X158.218 Y139.632 E11.71906
G1 X157.638 Y140.431 E11.79787
G1 X157.549 Y140.544 E11.80935
G1 X156.957 Y141.245 E11.88259
G1 X156.854 Y141.358 E11.8948
G1 X156.122 Y142.1 E11.978
G1 X155.314 Y142.809 E12.06381
G1 X154.575 Y143.373 E12.13801
G1 X154.318 Y143.555 E12.16315
G1 X153.526 Y144.081 E12.23905
G1 X153.4 Y144.157 E12.25079
G1 X152.606 Y144.603 E12.32349
G1 X152.462 Y144.678 E12.33645
G1 X151.641 Y145.064 E12.40886
G1 X151.482 Y145.131 E12.42264
G1 X150.573 Y145.48 E12.50036
G1 X149.888 Y145.713 E12.55812
G1 X149.013 Y145.977 E12.63107
G1 X148.81 Y146.031 E12.64784
G1 X147.945 Y146.227 E12.71864
G1 X147.813 Y146.251 E12.72935
G1 X146.9 Y146.387 E12.80303
G1 X146.735 Y146.405 E12.81628
G1 X145.672 Y146.482 E12.90136
G1 X145.134 Y146.491 E12.94431
G1 X143.536 Y146.49 E13.07187
G1 X142.412 Y146.445 E13.16166
G1 X141.495 Y146.343 E13.23531
G1 X141.32 Y146.318 E13.24943
G1 X140.481 Y146.163 E13.31753
G1 X140.254 Y146.11 E13.33614
G1 X138.846 Y145.717 E13.45283
G1 X136.745 Y145.014 E13.62968
G1 X135.832 Y144.672 E13.7075
G1 X135.669 Y144.604 E13.7216
G1 X134.876 Y144.238 E13.79132
G1 X134.7 Y144.149 E13.80706
G1 X133.921 Y143.719 E13.87809
G1 X133.79 Y143.64 E13.8903
G1 X133.041 Y143.152 E13.96166
G1 X132.898 Y143.051 E13.97563
G1 X131.153 Y141.735 E14.1501
G1 X131.048 Y141.649 E14.16093
G1 X130.259 Y140.947 E14.24523
G1 X129.504 Y140.17 E14.33172
G1 X129.4 Y140.048 E14.34451
G1 X128.931 Y139.569 E14.39802
G1 X128.395 Y139.146 E14.45253
G1 X127.811 Y138.793 E14.507
G1 X127.188 Y138.516 E14.56143
G1 X126.533 Y138.321 E14.61598
G1 X125.862 Y138.209 E14.67028
G1 X125.326 Y138.182 E14.71312
G1 X124.622 Y138.181 E14.76932
G1 X124.218 Y138.167 E14.80159
G1 X123.549 Y138.185 E14.85501
G1 X122.961 Y138.272 E14.90246
G1 X122.823 Y138.3 E14.9137
G1 X121.968 Y138.444 E14.98291
G1 X121.741 Y138.474 E15.00119
G1 X120.73 Y138.564 E15.08221
G1 X119.879 Y138.587 E15.15016
G1 X115.628 Y138.585 E15.4895
G1 X114.504 Y138.54 E15.57929
G1 X113.586 Y138.438 E15.65302
G1 X113.411 Y138.413 E15.66713
G1 X112.537 Y138.251 E15.73809
G1 X112.379 Y138.216 E15.751
G1 X111.499 Y137.985 E15.82363
G1 X111.282 Y137.919 E15.84173
G1 X110.746 Y137.763 E15.88629
G1 X110.746 Y137.774 E15.88717
G1 X110.676 Y137.755 E15.89296
G1 X109.999 Y137.661 E15.94752
G1 X109.316 Y137.654 E16.00205
G1 X108.638 Y137.732 E16.05652
G1 X107.976 Y137.896 E16.11096
G1 X107.339 Y138.141 E16.16544
G1 X106.737 Y138.465 E16.22002
G1 X106.181 Y138.863 E16.2746
G1 X105.681 Y139.327 E16.32905
G1 X105.228 Y139.874 E16.38574
G1 X104.867 Y140.338 E16.43267
G1 X104.283 Y141.037 E16.50538
G1 X104.138 Y141.196 E16.52255
G1 X103.121 Y142.216 E16.63753
G1 X102.472 Y142.805 E16.70749
G1 X101.737 Y143.426 E16.7843
G1 X101.601 Y143.533 E16.79811
G1 X100.747 Y144.149 E16.88217
G1 X99.888 Y144.685 E16.96299
G1 X99.316 Y145.014 E17.01566
G1 X98.859 Y145.262 E17.05717
G1 X98.005 Y145.687 E17.13331
G1 X97.824 Y145.769 E17.14918
G1 X96.887 Y146.15 E17.22992
G1 X96.381 Y146.325 E17.27266
G1 X95.492 Y146.61 E17.34718
G1 X94.452 Y146.901 E17.43338
G1 X93.421 Y147.109 E17.51734
G1 X92.63 Y147.31 E17.58249
G1 X92.201 Y147.456 E17.61866
G1 X91.371 Y147.715 E17.68807
G1 X90.434 Y147.971 E17.7656
G1 X90.257 Y148.012 E17.78011
G1 X89.246 Y148.207 E17.8623
G1 X88.514 Y148.303 E17.92123
G1 X87.722 Y148.386 E17.98479
G1 X86.74 Y148.453 E18.06336
G1 X86.558 Y148.459 E18.0779
G1 X85.66 Y148.454 E18.14958
G1 X85.503 Y148.448 E18.16213
G1 X84.675 Y148.388 E18.22839
G1 X83.803 Y148.299 E18.29836
G1 X82.852 Y148.166 E18.37501
G1 X82.68 Y148.135 E18.38896
G1 X81.803 Y147.949 E18.46053
G1 X81.66 Y147.913 E18.4723
G1 X80.944 Y147.71 E18.53171
G1 X80.079 Y147.44 E18.60404
G1 X79.208 Y147.134 E18.67773
G1 X79.067 Y147.079 E18.68981
G1 X78.119 Y146.664 E18.77242
G1 X77.2 Y146.185 E18.85514
G1 X77.106 Y146.129 E18.86388
G1 X77.098 Y146.129 E18.86452
G1 X76.77 Y145.945 E18.89454
G1 X76.155 Y145.583 E18.9515
G1 X75.354 Y145.063 E19.02773
G1 X75.208 Y144.96 E19.042
G1 X74.378 Y144.327 E19.12532
G1 X73.848 Y143.869 E19.18124
G1 X73.08 Y143.168 E19.26424
G1 X72.444 Y142.543 E19.33542
G1 X72.282 Y142.368 E19.35445
G1 X71.358 Y141.284 E19.46815
G1 X70.984 Y140.794 E19.51736
G1 X70.372 Y139.935 E19.60155
G1 X70.156 Y139.6 E19.63337
G1 X69.678 Y138.814 E19.7068
G1 X69.588 Y138.653 E19.72152
G1 X69.189 Y137.871 E19.7916
G1 X69.114 Y137.712 E19.80564
G1 X68.762 Y136.88 E19.87775
G1 X68.682 Y136.67 E19.89569
G1 X68.451 Y136.152 E19.94096
G1 X67.496 Y134.285 E20.10836
G1 X67.116 Y133.473 E20.17992
G1 X67.045 Y133.306 E20.19441
G1 X66.724 Y132.466 E20.26619
G1 X66.666 Y132.298 E20.28038
G1 X66.414 Y131.46 E20.35023
G1 X66.366 Y131.273 E20.36564
G1 X66.094 Y129.972 E20.47174
G1 X65.75 Y127.828 E20.64507
G1 X65.617 Y126.721 E20.73407
G1 X65.572 Y125.8 E20.80768
G1 X65.57 Y125.636 E20.82077
G1 X65.612 Y124.354 E20.92316
G1 X65.754 Y123.145 E21.02033
G1 X66.094 Y121.012 E21.19274
G1 X66.302 Y119.973 E21.27733
G1 X66.541 Y119.098 E21.34973
G1 X66.596 Y118.921 E21.36453
G1 X67.006 Y117.791 E21.46048
G1 X67.546 Y116.612 E21.564
G1 X68.515 Y114.715 E21.73404
G1 X68.962 Y113.912 E21.8074
G1 X69.048 Y113.771 E21.82058
G1 X69.548 Y113.007 E21.89347
G1 X69.634 Y112.889 E21.90512
G1 X70.186 Y112.168 E21.97761
G1 X70.291 Y112.041 E21.99076
G1 X71.183 Y111.061 E22.09654
G1 X72.707 Y109.532 E22.26886
G1 X73.393 Y108.891 E22.34381
G1 X73.544 Y108.761 E22.35971
G1 X74.224 Y108.213 E22.42943
G1 X74.352 Y108.117 E22.4422
G0 F9000 X73.6 Y108.715
G1 F1125 X73.6 Y143.642 E25.23022
G0 F9000 X75.2 Y144.953
G1 F1125 X75.2 Y107.536 E28.21701
G0 F9000 X76.8 Y106.64
G1 F1125 X76.8 Y145.961 E31.35578
G0 F9000 X78.4 Y146.787
G1 F1125 X78.4 Y105.825 E34.62555
G0 F9000 X80 Y105.139
G1 F1125 X80 Y147.412 E37.99996
G0 F9000 X81.6 Y147.895
G1 F1125 X81.6 Y104.655 E41.45156
G0 F9000 X83.2 Y104.179
G1 F1125 X83.2 Y148.214 E44.96663
G0 F9000 X84.8 Y148.397
G1 F1125 X84.8 Y103.809 E48.52583
G0 F9000 X86.4 Y103.606
G1 F1125 X86.4 Y148.458 E52.10611
G0 F9000 X88 Y148.357
G1 F1125 X88 Y103.509 E55.68608
G0 F9000 X89.6 Y103.575
G1 F1125 X89.6 Y148.139 E59.24337
G0 F9000 X91.2 Y147.762
G1 F1125 X91.2 Y103.761 E62.75572
G0 F9000 X92.8 Y104.084
G1 F1125 X92.8 Y147.267 E66.20277
G0 F9000 X94.4 Y146.912
G1 F1125 X94.4 Y104.574 E69.58237
G0 F9000 X96 Y105.151
G1 F1125 X96 Y146.448 E72.87888
G0 F9000 X97.6 Y145.861
G1 F1125 X97.6 Y105.358 E76.112
G0 F9000 X99.2 Y105.068
G1 F1125 X99.2 Y145.077 E79.30569
G0 F9000 X100.8 Y144.111
G1 F1125 X100.8 Y104.209 E82.49084
G0 F9000 X102.4 Y102.192
G1 F1125 X102.4 Y142.866 E85.73762
G0 F9000 X104 Y141.335
G1 F1125 X104 Y99.62 E89.06749
G0 F9000 X105.6 Y97.88
G1 F1125 X105.6 Y139.425 E92.38379
G0 F9000 X107.2 Y138.216
G1 F1125 X107.2 Y96.566 E95.70848
G0 F9000 X108.8 Y95.575
G1 F1125 X108.8 Y137.714 E99.07219
G0 F9000 X110.4 Y137.716
G1 F1125 X110.4 Y94.853 E102.4937
G0 F9000 X112 Y94.342
G1 F1125 X112 Y138.116 E105.98793
G0 F9000 X113.6 Y138.439
G1 F1125 X113.6 Y94.022 E109.53349
G0 F9000 X115.2 Y93.886
G1 F1125 X115.2 Y138.567 E113.10012
G0 F9000 X116.8 Y138.585
G1 F1125 X116.8 Y93.874 E116.66915
G0 F9000 X118.4 Y93.874
G1 F1125 X118.4 Y138.586 E120.23825
G0 F9000 X120 Y138.584
G1 F1125 X120 Y93.876 E123.80704
G0 F9000 X121.6 Y93.977
G1 F1125 X121.6 Y138.487 E127.36002
G0 F9000 X123.2 Y138.237
G1 F1125 X123.2 Y94.225 E130.87325
G0 F9000 X124.8 Y94.278
G1 F1125 X124.8 Y138.181 E134.37777
G0 F9000 X126.4 Y138.298
G1 F1125 X126.4 Y94.184 E137.89914
G0 F9000 X128 Y93.635
G1 F1125 X128 Y138.907 E141.51295
G0 F9000 X129.6 Y140.268
G1 F1125 X129.6 Y92.342 E145.33861
G0 F9000 X131.2 Y90.84
G1 F1125 X131.2 Y141.77 E149.40406
G0 F9000 X132.8 Y142.977
G1 F1125 X132.8 Y89.589 E153.66572
G0 F9000 X134.4 Y88.589
G1 F1125 X134.4 Y143.983 E158.08751
G0 F9000 X136 Y144.734
G1 F1125 X136 Y87.843 E162.6288
G0 F9000 X137.6 Y87.296
G1 F1125 X137.6 Y145.3 E167.25893
G0 F9000 X139.2 Y145.815
G1 F1125 X139.2 Y86.777 E171.9716
G0 F9000 X140.8 Y86.348
G1 F1125 X140.8 Y146.221 E176.75092
G0 F9000 X142.4 Y146.443
G1 F1125 X142.4 Y86.091 E181.56848
G0 F9000 X144 Y86.026
G1 F1125 X144 Y146.49 E186.39497
G0 F9000 X145.6 Y146.484
G1 F1125 X145.6 Y86.116 E191.21381
G0 F9000 X147.2 Y86.297
G1 F1125 X147.2 Y146.343 E196.00694
G0 F9000 X148.8 Y146.034
G1 F1125 X148.8 Y86.588 E200.75218
G0 F9000 X150.4 Y87.065
G1 F1125 X150.4 Y145.539 E205.41982
G0 F9000 X152 Y144.896
G1 F1125 X152 Y87.708 E209.98482
G0 F9000 X153.6 Y88.59
G1 F1125 X153.6 Y144.032 E214.41044
G0 F9000 X155.2 Y142.897
G1 F1125 X155.2 Y89.694 E218.65733
G0 F9000 X156.8 Y91.178
G1 F1125 X156.8 Y141.413 E222.66731
