; generated by PrusaSlicer 2.2.0+ on 2020-06-13 at 00:41:17 UTC

; 

; external perimeters extrusion width = 0.45mm
; perimeters extrusion width = 0.45mm
; infill extrusion width = 0.45mm
; solid infill extrusion width = 0.45mm
; top infill extrusion width = 0.40mm
; support material extrusion width = 0.38mm
; first layer extrusion width = 0.42mm

M201 X500 Y500 Z100 E5000 ; sets maximum accelerations, mm/sec^2
M203 X500 Y500 Z10 E60 ; sets maximum feedrates, mm/sec
M204 P500 R1000 T500 ; sets acceleration (P, T) and retract acceleration (R), mm/sec^2
M205 X8.00 Y8.00 Z0.40 E5.00 ; sets the jerk limits, mm/sec
M205 S0 T0 ; sets the minimum extruding and travel feed rate, mm/sec
M107
G90 ; use absolute coordinates
M83 ; extruder relative mode
M104 S215 ; set extruder temp
M140 S40 ; set bed temp
M190 S40 ; wait for bed temp
M109 S215 ; wait for extruder temp
G28 ; home all
G1 Z2 F240
G1 X2 Y10 F3000
G1 Z0.28 F240
G92 E0.0
G1 Y190 E15.0 F1500.0 ; intro line
G1 X2.3 F5000
G1 Y10 E30 F1200.0 ; intro line
G92 E0.0
G21 ; set units to millimeters
G90 ; use absolute coordinates
M83 ; use relative distances for extrusion
; Filament gcode
;BEFORE_LAYER_CHANGE
;0.2


G1 E-5.00000 F3600.00000
G1 Z0.200 F9000.000
;AFTER_LAYER_CHANGE
;0.2
G1 X104.188 Y76.444
G1 E5.00000 F2400.00000
G1 F1200.000
G1 X112.266 Y76.214 E0.25338
G1 X113.062 Y76.352 E0.02532
G1 X113.765 Y76.749 E0.02532
G1 X114.295 Y77.358 E0.02532
G1 X114.590 Y78.109 E0.02532
G1 X117.654 Y102.193 E0.76120
G1 X117.652 Y118.008 E0.49586
G1 X115.350 Y141.513 E0.74052
G1 X115.148 Y142.233 E0.02343
G1 X114.731 Y142.857 E0.02355
G1 X114.139 Y143.320 E0.02355
G1 X113.436 Y143.574 E0.02343
G1 X104.447 Y143.601 E0.28185
G1 X103.714 Y143.393 E0.02390
G1 X103.084 Y142.963 E0.02390
G1 X102.623 Y142.356 E0.02390
G1 X102.377 Y141.635 E0.02390
G1 X100.083 Y117.772 E0.75164
G1 X100.085 Y101.996 E0.49465
G1 X102.360 Y78.486 E0.74059
G1 X102.554 Y77.784 E0.02284
G1 X102.951 Y77.173 E0.02284
G1 X103.512 Y76.714 E0.02272
G1 X104.132 Y76.466 E0.02096
G1 E-3.50000 F3600.00000
G1 F7200.000
G1 X107.131 Y76.373 E-1.42500
G1 E-0.07500 F3600.00000
G1 X114.148 Y100.417 F9000.000
G1 E5.00000 F2400.00000
G1 F1200.000
G1 X115.546 Y100.422 E0.04382
G1 X115.917 Y100.509 E0.01197
G1 X116.389 Y100.758 E0.01674
G1 X116.775 Y101.133 E0.01686
G1 X116.978 Y101.441 E0.01157
G1 X117.165 Y102.050 E0.01997
G1 X117.165 Y118.169 E0.50540
G1 X117.024 Y118.626 E0.01500
G1 X116.920 Y118.802 E0.00640
G1 X116.349 Y119.354 E0.02489
G1 X116.026 Y119.506 E0.01120
G1 X115.824 Y119.556 E0.00654
G1 X114.874 Y119.553 E0.02978
G1 X114.874 Y141.493 E0.68792
G1 X114.708 Y142.057 E0.01842
G1 X114.483 Y142.412 E0.01318
G1 X114.162 Y142.732 E0.01422
G1 X113.954 Y142.885 E0.00808
G1 X113.243 Y143.125 E0.02354
G1 X112.014 Y143.125 E0.03852
G1 X111.885 Y143.102 E0.00410
G1 X111.757 Y143.125 E0.00410
G1 X110.506 Y143.125 E0.03923
G1 X110.377 Y143.102 E0.00410
G1 X110.248 Y143.125 E0.00410
G1 X108.997 Y143.125 E0.03923
G1 X108.869 Y143.102 E0.00410
G1 X108.740 Y143.125 E0.00410
G1 X107.489 Y143.125 E0.03923
G1 X107.360 Y143.102 E0.00410
G1 X107.232 Y143.125 E0.00410
G1 X105.981 Y143.125 E0.03923
G1 X105.852 Y143.102 E0.00410
G1 X105.724 Y143.125 E0.00408
G1 X104.413 Y143.117 E0.04111
G1 X103.905 Y142.960 E0.01668
G1 X103.540 Y142.725 E0.01360
G1 X103.095 Y142.232 E0.02083
G1 X102.922 Y141.867 E0.01267
G1 X102.839 Y141.507 E0.01157
G1 X102.835 Y119.581 E0.68746
G1 X102.103 Y119.568 E0.02298
G1 X101.834 Y119.497 E0.00871
G1 X101.414 Y119.287 E0.01471
G1 X100.833 Y118.692 E0.02610
G1 X100.659 Y118.323 E0.01277
G1 X100.587 Y118.053 E0.00876
G1 X100.573 Y101.831 E0.50864
G1 X100.714 Y101.374 E0.01500
G1 X100.818 Y101.198 E0.00640
G1 X101.388 Y100.646 E0.02489
G1 X101.711 Y100.494 E0.01120
G1 X101.914 Y100.444 E0.00654
G1 X102.836 Y100.446 E0.02891
G1 X102.869 Y78.313 E0.69397
G1 X103.006 Y77.930 E0.01278
G1 X103.226 Y77.590 E0.01268
G1 X103.611 Y77.216 E0.01683
G1 X104.082 Y76.967 E0.01671
G1 X104.495 Y76.875 E0.01326
G1 X105.746 Y76.879 E0.03924
G1 X105.859 Y76.896 E0.00357
G1 X105.981 Y76.875 E0.00391
G1 X107.232 Y76.875 E0.03920
G1 X107.360 Y76.898 E0.00410
G1 X107.489 Y76.875 E0.00410
G1 X108.740 Y76.875 E0.03923
G1 X108.869 Y76.898 E0.00410
G1 X108.997 Y76.875 E0.00410
G1 X110.248 Y76.875 E0.03923
G1 X110.377 Y76.898 E0.00410
G1 X110.506 Y76.875 E0.00410
G1 X111.747 Y76.875 E0.03891
G1 X111.919 Y76.905 E0.00547
G1 X112.807 Y76.901 E0.02785
G1 X113.012 Y76.953 E0.00663
G1 X113.437 Y77.177 E0.01507
G1 X113.853 Y77.593 E0.01845
G1 X114.007 Y77.833 E0.00892
G1 X114.148 Y78.288 E0.01496
G1 X114.148 Y100.357 E0.69194
G1 X113.771 Y100.768 F9000.000
G1 F1200.000
G1 X114.154 Y100.826 E0.01214
G1 X114.300 Y100.795 E0.00469
G1 X115.487 Y100.795 E0.03722
G1 X115.765 Y100.855 E0.00892
G1 X116.187 Y101.078 E0.01496
G1 X116.493 Y101.383 E0.01356
G1 X116.647 Y101.623 E0.00892
G1 X116.788 Y102.079 E0.01496
G1 X116.788 Y118.137 E0.50351
G1 X116.674 Y118.484 E0.01144
G1 X116.612 Y118.583 E0.00366
G1 X116.159 Y119.026 E0.01988
G1 X115.885 Y119.156 E0.00950
G1 X115.764 Y119.184 E0.00391
G1 X114.905 Y119.175 E0.02691
G1 X114.497 Y119.228 E0.01292
G1 X114.497 Y141.464 E0.69718
G1 X114.356 Y141.920 E0.01496
G1 X114.202 Y142.159 E0.00892
G1 X113.907 Y142.455 E0.01311
G1 X113.757 Y142.563 E0.00579
G1 X113.212 Y142.748 E0.01806
G1 X112.038 Y142.748 E0.03681
G1 X111.885 Y142.715 E0.00488
G1 X111.733 Y142.748 E0.00488
G1 X110.529 Y142.748 E0.03774
G1 X110.377 Y142.715 E0.00488
G1 X110.225 Y142.748 E0.00488
G1 X109.021 Y142.748 E0.03774
G1 X108.869 Y142.715 E0.00488
G1 X108.716 Y142.748 E0.00488
G1 X107.513 Y142.748 E0.03774
G1 X107.360 Y142.715 E0.00488
G1 X107.208 Y142.748 E0.00488
G1 X106.004 Y142.748 E0.03774
G1 X105.852 Y142.715 E0.00488
G1 X105.700 Y142.748 E0.00488
G1 X104.497 Y142.748 E0.03773
G1 X104.041 Y142.607 E0.01495
G1 X103.800 Y142.451 E0.00901
G1 X103.423 Y142.044 E0.01741
G1 X103.271 Y141.724 E0.01110
G1 X103.216 Y141.485 E0.00767
G1 X103.213 Y119.206 E0.69856
G1 X102.172 Y119.197 E0.03264
G1 X101.976 Y119.147 E0.00633
G1 X101.655 Y118.996 E0.01111
G1 X101.160 Y118.500 E0.02199
G1 X101.008 Y118.179 E0.01111
G1 X100.959 Y117.984 E0.00631
G1 X100.950 Y101.863 E0.50548
G1 X101.064 Y101.516 E0.01144
G1 X101.125 Y101.417 E0.00366
G1 X101.578 Y100.974 E0.01988
G1 X101.852 Y100.844 E0.00950
G1 X101.974 Y100.816 E0.00391
G1 X102.834 Y100.825 E0.02697
G1 X103.212 Y100.769 E0.01200
G1 X103.235 Y78.410 E0.70104
G1 X103.354 Y78.077 E0.01107
G1 X103.507 Y77.841 E0.00882
G1 X103.813 Y77.535 E0.01357
G1 X104.235 Y77.313 E0.01496
G1 X104.513 Y77.252 E0.00894
G1 X105.725 Y77.256 E0.03798
G1 X105.863 Y77.282 E0.00441
G1 X106.004 Y77.252 E0.00453
G1 X107.208 Y77.252 E0.03775
G1 X107.360 Y77.285 E0.00488
G1 X107.513 Y77.252 E0.00488
G1 X108.716 Y77.252 E0.03774
G1 X108.869 Y77.285 E0.00488
G1 X109.021 Y77.252 E0.00488
G1 X110.225 Y77.252 E0.03774
G1 X110.377 Y77.285 E0.00488
G1 X110.529 Y77.252 E0.00488
G1 X111.727 Y77.252 E0.03754
G1 X111.883 Y77.282 E0.00499
G1 X112.747 Y77.274 E0.02710
G1 X112.866 Y77.301 E0.00383
G1 X113.193 Y77.466 E0.01148
G1 X113.573 Y77.847 E0.01687
G1 X113.658 Y77.976 E0.00484
G1 X113.771 Y78.320 E0.01136
G1 X113.771 Y100.708 E0.70196
G1 X113.394 Y101.172 F9000.000
G1 F1200.000
G1 X113.967 Y101.172 E0.01796
G1 X114.148 Y101.220 E0.00588
G1 X114.329 Y101.172 E0.00588
G1 X115.468 Y101.172 E0.03572
G1 X115.619 Y101.203 E0.00484
G1 X115.943 Y101.367 E0.01136
G1 X116.213 Y101.637 E0.01197
G1 X116.297 Y101.766 E0.00484
G1 X116.410 Y102.110 E0.01136
G1 X116.410 Y118.102 E0.50141
G1 X116.311 Y118.357 E0.00856
G1 X115.968 Y118.700 E0.01522
G1 X115.749 Y118.803 E0.00759
G1 X114.858 Y118.797 E0.02793
G1 X114.720 Y118.828 E0.00444
G1 X114.120 Y118.828 E0.01881
G1 X114.120 Y141.432 E0.70872
G1 X114.007 Y141.776 E0.01136
G1 X113.922 Y141.906 E0.00484
G1 X113.652 Y142.176 E0.01197
G1 X113.562 Y142.239 E0.00345
G1 X113.180 Y142.371 E0.01270
G1 X112.067 Y142.371 E0.03490
G1 X111.885 Y142.323 E0.00588
G1 X111.704 Y142.371 E0.00588
G1 X110.558 Y142.371 E0.03592
G1 X110.377 Y142.323 E0.00588
G1 X110.196 Y142.371 E0.00588
G1 X109.050 Y142.371 E0.03592
G1 X108.869 Y142.323 E0.00588
G1 X108.687 Y142.371 E0.00588
G1 X107.542 Y142.371 E0.03592
G1 X107.360 Y142.323 E0.00588
G1 X107.179 Y142.371 E0.00588
G1 X106.033 Y142.371 E0.03592
G1 X105.852 Y142.323 E0.00588
G1 X105.671 Y142.371 E0.00588
G1 X104.528 Y142.371 E0.03582
G1 X104.184 Y142.258 E0.01136
G1 X104.057 Y142.174 E0.00477
G1 X103.750 Y141.854 E0.01391
G1 X103.621 Y141.580 E0.00949
G1 X103.593 Y141.463 E0.00377
G1 X103.590 Y118.829 E0.70968
G1 X102.235 Y118.825 E0.04247
G1 X102.118 Y118.797 E0.00378
G1 X101.846 Y118.669 E0.00942
G1 X101.487 Y118.309 E0.01593
G1 X101.358 Y118.038 E0.00942
G1 X101.331 Y117.921 E0.00377
G1 X101.327 Y101.898 E0.50239
G1 X101.427 Y101.643 E0.00856
G1 X101.770 Y101.300 E0.01522
G1 X101.989 Y101.197 E0.00759
G1 X102.880 Y101.203 E0.02793
G1 X103.018 Y101.172 E0.00444
G1 X103.589 Y101.172 E0.01793
G1 X103.601 Y78.506 E0.71065
G1 X103.701 Y78.226 E0.00935
G1 X103.787 Y78.094 E0.00492
G1 X104.057 Y77.824 E0.01197
G1 X104.381 Y77.661 E0.01136
G1 X104.531 Y77.629 E0.00483
G1 X105.699 Y77.633 E0.03662
G1 X105.870 Y77.671 E0.00548
G1 X106.033 Y77.629 E0.00528
G1 X107.179 Y77.629 E0.03594
G1 X107.360 Y77.677 E0.00588
G1 X107.542 Y77.629 E0.00588
G1 X108.687 Y77.629 E0.03592
G1 X108.869 Y77.677 E0.00588
G1 X109.050 Y77.629 E0.00588
G1 X110.196 Y77.629 E0.03592
G1 X110.377 Y77.677 E0.00588
G1 X110.558 Y77.629 E0.00588
G1 X111.703 Y77.629 E0.03589
G1 X111.841 Y77.660 E0.00444
G1 X112.699 Y77.648 E0.02689
G1 X112.951 Y77.758 E0.00863
G1 X113.312 Y78.128 E0.01622
G1 X113.394 Y78.355 E0.00757
G1 X113.394 Y101.112 E0.71351
G1 X113.017 Y101.549 F9000.000
G1 F1200.000
G1 X113.931 Y101.549 E0.02866
G1 X114.148 Y101.620 E0.00717
G1 X114.365 Y101.549 E0.00717
G1 X115.451 Y101.549 E0.03405
G1 X115.701 Y101.658 E0.00856
G1 X115.934 Y101.891 E0.01032
G1 X116.033 Y102.145 E0.00856
G1 X116.033 Y118.060 E0.49900
G1 X116.005 Y118.130 E0.00235
G1 X115.731 Y118.404 E0.01215
G1 X115.663 Y118.432 E0.00231
G1 X114.805 Y118.419 E0.02690
G1 X114.690 Y118.451 E0.00375
G1 X113.743 Y118.451 E0.02969
G1 X113.743 Y141.397 E0.71945
G1 X113.643 Y141.651 E0.00856
G1 X113.400 Y141.894 E0.01077
G1 X113.146 Y141.994 E0.00856
G1 X112.103 Y141.994 E0.03272
G1 X111.885 Y141.922 E0.00717
G1 X111.668 Y141.994 E0.00717
G1 X110.594 Y141.994 E0.03368
G1 X110.377 Y141.922 E0.00717
G1 X110.160 Y141.994 E0.00717
G1 X109.086 Y141.994 E0.03368
G1 X108.869 Y141.922 E0.00717
G1 X108.652 Y141.994 E0.00717
G1 X107.578 Y141.994 E0.03368
G1 X107.360 Y141.922 E0.00717
G1 X107.143 Y141.994 E0.00717
G1 X106.069 Y141.994 E0.03368
G1 X105.852 Y141.922 E0.00717
G1 X105.635 Y141.994 E0.00717
G1 X104.563 Y141.994 E0.03360
G1 X104.309 Y141.894 E0.00856
G1 X104.076 Y141.661 E0.01032
G1 X103.967 Y141.411 E0.00856
G1 X103.967 Y118.441 E0.72021
G1 X103.496 Y118.419 E0.01479
G1 X103.377 Y118.451 E0.00385
G1 X102.255 Y118.445 E0.03519
G1 X102.036 Y118.342 E0.00757
G1 X101.814 Y118.119 E0.00988
G1 X101.704 Y117.869 E0.00856
G1 X101.704 Y101.940 E0.49945
G1 X101.733 Y101.870 E0.00235
G1 X102.007 Y101.596 E0.01215
G1 X102.075 Y101.568 E0.00231
G1 X102.933 Y101.581 E0.02690
G1 X103.048 Y101.549 E0.00375
G1 X103.967 Y101.549 E0.02881
G1 X103.967 Y78.603 E0.71945
G1 X104.066 Y78.349 E0.00856
G1 X104.299 Y78.116 E0.01032
G1 X104.517 Y78.013 E0.00757
G1 X105.647 Y78.006 E0.03541
G1 X105.845 Y78.080 E0.00663
G1 X106.069 Y78.006 E0.00741
G1 X107.143 Y78.006 E0.03368
G1 X107.360 Y78.078 E0.00717
G1 X107.578 Y78.006 E0.00717
G1 X108.652 Y78.006 E0.03368
G1 X108.869 Y78.078 E0.00717
G1 X109.086 Y78.006 E0.00717
G1 X110.160 Y78.006 E0.03368
G1 X110.377 Y78.078 E0.00717
G1 X110.594 Y78.006 E0.00717
G1 X111.673 Y78.006 E0.03383
G1 X111.788 Y78.038 E0.00375
G1 X112.646 Y78.026 E0.02690
G1 X112.714 Y78.054 E0.00231
G1 X112.988 Y78.328 E0.01215
G1 X113.017 Y78.397 E0.00235
G1 X113.017 Y101.489 E0.72402
G1 E-3.50000 F3600.00000
G1 F7200.000
G1 X113.931 Y101.549 E-0.43509
G1 X114.148 Y101.620 E-0.10861
G1 X114.365 Y101.549 E-0.10861
G1 X115.451 Y101.549 E-0.51577
G1 X115.701 Y101.658 E-0.12975
G1 X115.890 Y101.848 E-0.12717
G1 E-0.07500 F3600.00000
G1 X105.852 Y78.604 F9000.000
G1 E5.00000 F2400.00000
G1 F1200.000
G1 X106.044 Y78.412 E0.00852
G1 X106.114 Y78.383 E0.00235
G1 X107.099 Y78.383 E0.03090
G1 X107.168 Y78.412 E0.00235
G1 X107.360 Y78.604 E0.00852
G1 X107.553 Y78.412 E0.00852
G1 X107.622 Y78.383 E0.00235
G1 X108.607 Y78.383 E0.03090
G1 X108.677 Y78.412 E0.00235
G1 X108.869 Y78.604 E0.00852
G1 X109.061 Y78.412 E0.00852
G1 X109.130 Y78.383 E0.00235
G1 X110.116 Y78.383 E0.03090
G1 X110.185 Y78.412 E0.00235
G1 X110.377 Y78.604 E0.00852
G1 X110.569 Y78.412 E0.00852
G1 X110.639 Y78.383 E0.00235
G1 X111.624 Y78.383 E0.03090
G1 X111.693 Y78.412 E0.00235
G1 X111.840 Y78.558 E0.00649
G1 X111.996 Y78.402 E0.00692
G1 X112.529 Y78.402 E0.01673
G1 X112.640 Y78.513 E0.00490
G1 X112.640 Y102.034 E0.73749
G1 X112.901 Y101.926 E0.00887
G1 X113.886 Y101.926 E0.03090
G1 X113.956 Y101.955 E0.00235
G1 X114.148 Y102.147 E0.00852
G1 X114.340 Y101.955 E0.00852
G1 X114.409 Y101.926 E0.00235
G1 X115.395 Y101.926 E0.03090
G1 X115.464 Y101.955 E0.00235
G1 X115.628 Y102.118 E0.00725
G1 X115.656 Y102.187 E0.00235
G1 X115.656 Y117.945 E0.49406
G1 X115.546 Y118.055 E0.00490
G1 X115.012 Y118.055 E0.01673
G1 X114.856 Y117.899 E0.00692
G1 X114.710 Y118.045 E0.00649
G1 X114.641 Y118.074 E0.00235
G1 X113.655 Y118.074 E0.03090
G1 X113.366 Y117.954 E0.00982
G1 X113.366 Y141.355 E0.73372
G1 X113.337 Y141.424 E0.00235
G1 X113.173 Y141.588 E0.00725
G1 X113.104 Y141.617 E0.00235
G1 X112.147 Y141.617 E0.03002
G1 X112.078 Y141.588 E0.00235
G1 X111.885 Y141.396 E0.00852
G1 X111.693 Y141.588 E0.00852
G1 X111.624 Y141.617 E0.00235
G1 X110.639 Y141.617 E0.03090
G1 X110.569 Y141.588 E0.00235
G1 X110.377 Y141.396 E0.00852
G1 X110.185 Y141.588 E0.00852
G1 X110.116 Y141.617 E0.00235
G1 X109.130 Y141.617 E0.03090
G1 X109.061 Y141.588 E0.00235
G1 X108.869 Y141.396 E0.00852
G1 X108.677 Y141.588 E0.00852
G1 X108.607 Y141.617 E0.00235
G1 X107.622 Y141.617 E0.03090
G1 X107.553 Y141.588 E0.00235
G1 X107.360 Y141.396 E0.00852
G1 X107.168 Y141.588 E0.00852
G1 X107.099 Y141.617 E0.00235
G1 X106.114 Y141.617 E0.03090
G1 X106.044 Y141.588 E0.00235
G1 X105.852 Y141.396 E0.00852
G1 X105.660 Y141.588 E0.00852
G1 X105.591 Y141.617 E0.00235
G1 X104.605 Y141.617 E0.03090
G1 X104.536 Y141.588 E0.00235
G1 X104.372 Y141.424 E0.00725
G1 X104.344 Y141.355 E0.00235
G1 X104.344 Y118.055 E0.73055
G1 X103.700 Y118.055 E0.02018
G1 X103.544 Y117.899 E0.00692
G1 X103.398 Y118.045 E0.00649
G1 X103.328 Y118.074 E0.00235
G1 X102.343 Y118.074 E0.03090
G1 X102.273 Y118.045 E0.00235
G1 X102.110 Y117.882 E0.00725
G1 X102.081 Y117.813 E0.00235
G1 X102.081 Y102.055 E0.49406
G1 X102.192 Y101.945 E0.00490
G1 X102.725 Y101.945 E0.01673
G1 X102.881 Y102.101 E0.00692
G1 X103.028 Y101.955 E0.00649
G1 X103.097 Y101.926 E0.00235
G1 X104.082 Y101.926 E0.03090
G1 X104.344 Y102.034 E0.00887
G1 X104.344 Y78.645 E0.73335
G1 X104.372 Y78.576 E0.00235
G1 X104.536 Y78.412 E0.00725
G1 X104.605 Y78.383 E0.00235
G1 X105.591 Y78.383 E0.03090
G1 X105.660 Y78.412 E0.00235
G1 X105.810 Y78.562 E0.00664
G1 E-3.50000 F3600.00000
G1 F7200.000
G1 X106.044 Y78.412 E-0.13218
G1 X106.114 Y78.383 E-0.03563
G1 X107.099 Y78.383 E-0.46808
G1 X107.168 Y78.412 E-0.03563
G1 X107.360 Y78.604 E-0.12907
G1 X107.553 Y78.412 E-0.12907
G1 X107.622 Y78.383 E-0.03563
G1 X108.590 Y78.383 E-0.45971
G1 E-0.07500 F3600.00000
G1 X105.402 Y110.996 F9000.000
G1 E5.00000 F2400.00000
G1 F1200.000
G1 X105.598 Y111.470 E0.01608
G1 X105.098 Y111.569 E0.01598
G1 X105.098 Y111.056 E0.01608
G1 X105.343 Y111.007 E0.00782
G1 X105.402 Y109.322 F9000.000
G1 F1200.000
G1 X105.098 Y109.261 E0.00970
G1 X105.098 Y108.749 E0.01606
G1 X105.598 Y108.848 E0.01597
G1 X105.424 Y109.266 E0.01418
G1 E-3.50000 F3600.00000
G1 F7200.000
G1 X105.098 Y109.261 E-0.15507
G1 X105.098 Y108.749 E-0.24332
G1 X105.598 Y108.848 E-0.24200
G1 X105.424 Y109.266 E-0.21482
G1 E-0.64480 F3600.00000
G1 X106.983 Y111.754 F9000.000
